<?xml version="1.0" encoding="UTF-8"?>
<map version="1.10" tiledversion="1.11.2" orientation="orthogonal" renderorder="right-down" width="48" height="48" tilewidth="16" tileheight="16" infinite="0" nextlayerid="18" nextobjectid="120">
 <tileset firstgid="1" source="tsx/Lvl1Walls.tsx"/>
 <tileset firstgid="193" source="tsx/Gardenarea.tsx"/>
 <tileset firstgid="257" source="tsx/Lvl1Floors.tsx"/>
 <tileset firstgid="1879" source="tsx/Geiles_HAW_Set_01.tsx"/>
 <tileset firstgid="2168" source="tsx/Cafe.tsx"/>
 <layer id="2" name="Floors" width="48" height="48">
  <data encoding="csv">
0,0,0,0,0,0,0,0,0,0,0,0,0,0,0,0,0,0,0,0,0,0,0,0,0,0,0,0,0,0,0,0,0,0,0,0,0,0,0,0,0,0,0,0,0,0,0,0,
0,0,0,0,0,0,0,0,0,0,0,0,0,0,0,0,0,0,0,0,0,0,0,0,0,0,0,0,0,0,0,0,0,0,0,0,0,0,0,0,0,0,0,0,0,0,0,0,
0,0,0,0,0,0,0,0,0,0,0,0,0,0,0,2009,2007,2008,2009,2007,2008,2009,2007,2008,2009,2007,2008,2009,2007,2008,2009,2007,2008,2009,2007,2008,2009,2007,2008,2009,2007,2008,2009,2007,2008,2009,2007,2008,
0,441,442,443,441,442,443,441,442,443,441,442,443,441,442,2026,2024,2025,2026,2024,2025,2026,2024,2025,2026,2024,2025,2026,2024,2025,2026,2024,2025,2026,2024,2025,2026,2024,2025,2026,2024,2025,2026,2024,2025,2026,2024,2025,
0,452,453,454,452,453,454,452,453,454,452,453,454,452,453,2009,2007,2008,2009,2007,2008,2009,2007,2008,2009,2007,2008,2009,2007,2008,2009,2007,2008,2009,2007,2008,2009,2007,2008,2009,2007,2008,2009,2007,2008,2009,2007,2008,
0,441,442,443,441,442,443,441,442,443,441,442,443,441,442,2026,2024,2025,2026,2024,2025,2026,2024,2025,2026,2024,2025,2026,2024,2025,2026,2024,2025,2026,2024,2025,2026,2024,2025,2026,2024,2025,2026,2024,2025,2026,2024,2025,
0,452,453,454,452,453,454,452,453,454,452,453,454,452,453,2009,2007,2008,2009,2007,2008,2009,2007,2008,2009,2007,2008,2009,2007,2008,2009,2007,2008,2009,2007,2008,2009,2007,2008,2009,2007,2008,2009,2007,2008,2009,2007,2008,
0,441,442,443,441,442,443,441,442,443,441,442,443,441,442,2026,2024,2025,2026,2024,2025,2026,2024,2025,2026,2024,2025,2026,2024,2025,2026,2024,2025,2026,2024,2025,2026,2024,2025,2026,2024,2025,2026,2024,2025,2026,2024,2025,
0,2007,2008,2009,2007,2008,2009,2007,2008,2009,2007,2008,2009,2007,2008,2009,2007,2008,2009,2007,2008,2009,2007,2008,2009,2007,2008,2009,2007,2008,2009,2007,2008,2009,2007,2008,2009,2007,2008,2009,2007,2008,2009,2007,2008,2009,2007,2008,
0,2024,2025,2026,2024,2025,2026,2024,2025,2026,2024,2025,2026,2024,2025,2026,2024,2025,2026,2024,2025,2026,2024,2025,2026,2024,2025,2026,2024,2025,2026,2024,2025,2026,2024,2025,2026,2024,2025,2026,2024,2025,2026,2024,2025,2026,2024,2025,
0,2007,2008,2009,2007,2008,2009,2007,2008,2009,2007,2008,2009,2007,2008,2009,2007,2008,2009,2007,2008,2009,2007,2008,2009,2007,2008,2009,2007,2008,2009,2007,2008,2009,2007,2008,2009,2007,2008,2009,2007,2008,2009,2007,2008,2009,2007,2008,
0,2024,2025,2026,2024,2025,2026,2024,2025,2026,2024,2025,2026,2024,2025,2026,2024,2025,2026,2024,2025,2026,2024,2025,2026,2024,2025,2026,2024,2025,2026,2024,2025,2026,2024,2025,2026,2024,2025,2026,2024,2025,2026,2024,2025,2026,2024,2025,
0,2007,2008,2009,2007,2008,2009,2007,2008,2009,2007,2008,2009,2007,2008,2009,2007,2008,2009,2007,2008,2009,2007,2008,2009,2007,2008,2009,2007,2008,2009,2007,2008,2009,2007,2008,2009,2007,2008,2009,2007,2008,2009,2007,2008,2009,2007,2008,
0,2024,2025,2026,2024,2025,2026,2024,2025,2026,2024,2025,2026,2024,2025,2026,2024,2025,2026,2024,2025,2026,2024,2025,2026,2024,2025,2026,2024,2025,2026,2024,2025,2026,2024,2025,2026,2024,2025,2026,2024,2025,2026,2024,2025,2026,2024,2025,
0,2007,2008,2009,2007,2008,2009,2007,2008,2009,452,453,454,452,453,2009,2007,2008,2009,2007,2008,2009,2007,2008,2009,2007,2008,2009,2007,2008,2009,2007,2008,2009,2007,2008,2009,2007,2008,2009,2007,2008,2009,2007,2008,2009,2007,2008,
0,2024,2025,2026,2024,2025,2026,2024,2025,2026,441,442,443,441,442,2026,2024,2025,2026,2024,2025,2026,2024,2025,2026,2024,2025,2026,2024,2025,2026,2024,2025,2026,2024,2025,2026,2024,2025,2026,2024,2025,2026,2024,2025,2026,2024,2025,
0,2007,2008,2009,2007,2008,2009,2007,2008,2009,452,453,454,452,453,2009,2007,2008,2009,2007,2008,2009,2007,2008,2009,2007,2008,2009,2007,2008,2009,2007,2008,2009,2007,2008,2009,2007,2008,2009,2007,2008,2009,2007,2008,2009,2007,2008,
0,2024,2025,2026,2024,2025,2026,2024,2025,2026,441,442,443,441,442,2026,2024,2025,2026,2024,2025,2026,2024,2025,2026,2024,2025,2026,2024,2025,2026,2024,2025,2026,2024,2025,2026,2024,2025,2026,2024,2025,2026,2024,2025,2026,2024,2025,
0,2007,2008,2009,2007,2008,2009,2007,2008,2009,452,453,454,452,453,2009,2007,2008,2009,2007,2008,2009,2007,2008,2009,2007,2008,2009,2007,2008,2009,2007,2008,2009,2007,2008,2009,2007,2008,2009,2007,2008,2009,2007,2008,2009,2007,2008,
0,2024,2025,2026,2024,2025,2026,2024,2025,2026,441,442,443,441,442,2026,2024,2025,2026,2024,2025,2026,2024,2025,2026,2024,2025,2026,2024,2025,2026,2024,2025,2026,2024,2025,2026,2024,2025,2026,2024,2025,2026,2024,2025,2026,2024,2025,
0,2007,2008,2009,2007,2008,2009,2007,2008,2009,452,453,454,452,453,2009,2007,2008,2009,2007,2008,2009,2007,2008,2009,2007,2008,2009,2007,2008,2009,2007,2008,2009,2007,2008,2009,2007,2008,2009,2007,2008,2009,2007,2008,2009,2007,2008,
0,2024,2025,2026,2024,2025,2026,2024,2025,2026,441,442,443,441,442,2026,2024,2025,2026,2024,2025,2026,2024,2025,2026,2024,2025,2026,2024,2025,2026,2024,2025,2026,2024,2025,2026,2024,2025,2026,2024,2025,2026,2024,2025,2026,2024,2025,
0,2007,2008,2009,2007,2008,2009,2007,2008,2009,452,453,454,452,453,2009,2007,2008,2009,2007,2008,2009,2007,2008,2009,2007,2008,2009,2007,2008,2009,2007,2008,2009,2007,2008,2009,2007,2008,2009,2007,2008,2009,2007,2008,2009,2007,2008,
0,2024,2025,2026,2024,2025,2026,2024,2025,2026,441,442,443,441,442,2026,2024,2025,2026,2024,2025,2026,2024,2025,2026,2024,2025,2026,2024,2025,2026,2024,2025,2026,2024,2025,2026,2024,2025,2026,2024,2025,2026,2024,2025,2026,2024,2025,
0,2007,2008,2009,2007,2008,2009,2007,2008,2009,452,453,454,452,453,2009,2007,2008,2009,2007,2008,2009,2007,2008,2009,2007,2008,2009,2007,2008,2009,2007,2008,2009,2007,2008,2009,2008,2009,2007,2008,2009,2008,2009,2008,2009,2007,2008,
0,2024,2025,2026,2024,2025,2026,2024,2025,2026,2024,2025,2026,2024,2025,2026,2024,2025,2026,2024,2025,2026,2024,2025,2026,2024,2025,2026,2024,2025,2026,2024,2025,2026,2024,2025,2026,2025,2026,2024,2025,2026,2025,2026,2025,2026,2024,2025,
0,2007,2008,2009,2007,2008,2009,2007,2008,2009,2007,2008,2009,2007,2008,2009,2007,2008,2009,2007,2008,2009,2007,2008,2009,2007,2008,2009,2007,0,0,0,0,0,0,0,0,0,0,0,0,0,0,0,0,0,0,0,
0,2024,2025,2026,2024,2025,2026,2024,2025,2026,2024,2025,2026,2024,2025,2026,2024,2025,2026,2024,2025,2026,2024,2025,2026,2024,2025,2026,2024,0,0,0,0,0,0,0,0,0,0,0,0,0,0,0,0,0,0,0,
0,2007,2008,2009,2007,2008,2009,2007,2008,2009,2007,2008,2009,2007,2008,2009,2007,2008,2009,2007,2008,2009,2007,2008,2009,2007,2008,2009,2007,0,0,0,0,0,0,0,0,0,0,0,0,0,0,0,0,0,0,0,
0,2024,2025,2026,2024,2025,2026,2024,2025,2026,2024,2025,2026,2024,2025,2026,2024,2025,2026,2024,2025,2026,2024,2025,2026,2024,2025,2026,2024,0,0,0,0,0,0,0,0,0,0,0,0,0,0,0,0,0,0,0,
0,2007,2008,2009,2007,2008,2009,2007,2008,2009,2007,2008,2009,2007,2008,2009,2007,2008,2009,2007,2008,2009,2007,2008,2009,2007,2008,2009,2007,0,0,0,0,0,0,0,0,0,0,0,0,0,0,0,0,0,0,0,
0,2024,2025,2026,2024,2025,2026,2024,2025,2026,2024,2025,2026,2024,2025,2026,2024,2025,2026,2024,2025,2026,2024,2025,2026,2024,2025,2026,2024,0,0,0,0,0,0,0,0,0,0,0,0,0,0,0,0,0,0,0,
0,2007,2008,2009,2007,2008,2009,2007,2008,2009,2007,2008,2009,2007,2008,2009,2007,2008,2009,2007,2008,2009,2007,2008,2009,2007,2008,2009,2007,0,0,0,0,0,0,0,0,0,0,0,0,0,0,0,0,0,0,0,
0,2024,2025,2026,2024,2025,2026,2024,2025,2026,2024,2025,2026,2024,2025,2026,2024,2025,2026,2024,2025,2026,2024,2025,2026,2024,2025,2026,2024,0,0,0,0,0,0,0,0,0,0,0,0,0,0,0,0,0,0,0,
0,2007,2008,2009,2007,2008,2009,2007,2008,2009,2007,2008,2009,2007,2008,2009,2007,2008,2009,2007,2008,2009,2007,2008,2009,2007,2008,2009,2007,0,0,0,0,0,0,0,0,0,0,0,0,0,0,0,0,0,0,0,
0,2024,2025,2026,2024,2025,2026,2024,2025,2026,2024,2025,2026,2024,2025,2026,2024,2025,2026,2024,2025,2026,2024,2025,2026,2024,2025,2026,2024,0,0,0,0,0,0,0,0,0,0,0,0,0,0,0,0,0,0,0,
0,2007,2008,2009,2007,2008,2009,2007,2008,2009,2007,2008,2009,2007,2008,2009,2007,2008,2009,2007,2008,2009,2007,2008,2009,2007,2008,2009,2007,0,0,0,0,0,0,0,0,0,0,0,0,0,0,0,0,0,0,0,
0,2024,2025,2026,2024,2025,2026,2024,2025,2026,2024,2025,2026,2024,2025,2026,2024,2025,2026,2024,2025,2026,2024,2025,2026,2024,2025,2026,2024,0,0,0,0,0,0,0,0,0,0,0,0,0,0,0,0,0,0,0,
0,2007,2008,2009,2007,2008,2009,2007,2008,2009,2007,2008,2009,2007,2008,2009,2007,2008,2009,2007,2008,2009,2007,2008,2009,2007,2008,2009,2007,0,0,0,0,0,0,0,0,0,0,0,0,0,0,0,0,0,0,0,
0,2024,2025,2026,2024,2025,2026,2024,2025,2026,2024,2025,2026,2024,2025,2026,2024,2025,2026,2024,2025,2026,2024,2025,2026,2024,2025,2026,2024,0,0,0,0,0,0,0,0,0,0,0,0,0,0,0,0,0,0,0,
0,2007,2008,2009,2007,2008,2009,2007,2008,2009,2007,2008,2009,2007,2008,2009,2007,2008,2009,2007,2008,2009,2007,2008,2009,2007,2008,2009,2007,0,0,0,0,0,0,0,0,0,0,0,0,0,0,0,0,0,0,0,
0,2024,2025,2026,2024,2025,2026,2024,2025,2026,2024,2025,2026,2024,2025,2026,2024,2025,2026,2024,2025,2026,2024,2025,2026,2024,2025,2026,2024,0,0,0,0,0,0,0,0,0,0,0,0,0,0,0,0,0,0,0,
0,0,0,0,0,0,0,0,0,0,2007,2008,2009,2007,2008,2009,2007,2008,2009,0,0,0,0,0,0,0,0,0,0,0,0,0,0,0,0,0,0,0,0,0,0,0,0,0,0,0,0,0,
0,0,0,0,0,0,0,0,0,0,2024,2025,2026,2024,2025,2026,2024,2025,2026,0,0,0,0,0,0,0,0,0,0,0,0,0,0,0,0,0,0,0,0,0,0,0,0,0,0,0,0,0,
0,0,0,0,0,0,0,0,0,0,0,0,0,0,0,0,0,0,0,0,0,0,0,0,0,0,0,0,0,0,0,0,0,0,0,0,0,0,0,0,0,0,0,0,0,0,0,0,
0,0,0,0,0,0,0,0,0,0,0,0,0,0,0,0,0,0,0,0,0,0,0,0,0,0,0,0,0,0,0,0,0,0,0,0,0,0,0,0,0,0,0,0,0,0,0,0,
0,0,0,0,0,0,0,0,0,0,0,0,0,0,0,0,0,0,0,0,0,0,0,0,0,0,0,0,0,0,0,0,0,0,0,0,0,0,0,0,0,0,0,0,0,0,0,0,
0,0,0,0,0,0,0,0,0,0,0,0,0,0,0,0,0,0,0,0,0,0,0,0,0,0,0,0,0,0,0,0,0,0,0,0,0,0,0,0,0,0,0,0,0,0,0,0
</data>
 </layer>
 <layer id="11" name="aboveFloorBehindWalls" width="48" height="48">
  <data encoding="csv">
0,0,0,0,0,0,0,0,0,0,0,0,0,0,0,0,0,0,0,0,0,0,0,0,0,0,0,0,0,0,0,0,0,0,0,0,0,0,0,0,0,0,0,0,0,0,0,0,
0,0,0,0,0,0,0,0,0,0,0,0,0,0,0,0,0,0,0,0,0,0,0,0,0,0,0,0,0,0,0,0,0,0,0,0,0,0,0,0,0,0,0,0,0,0,0,0,
0,0,0,0,0,0,0,0,0,0,0,0,0,0,0,0,0,0,0,0,0,0,0,0,0,0,0,0,0,0,0,0,0,0,0,0,0,0,0,0,0,0,0,0,0,0,0,0,
0,0,0,0,0,0,0,0,0,0,0,0,0,0,0,0,0,0,0,1951,1952,0,0,0,0,0,0,0,0,0,0,0,0,0,0,0,0,0,0,0,0,0,0,0,0,0,0,0,
0,0,0,0,0,0,0,0,0,0,0,0,0,0,0,0,0,0,0,1968,1969,0,0,0,0,0,0,0,0,0,0,0,0,0,0,0,0,0,0,0,0,0,0,0,0,0,0,0,
0,0,0,0,0,0,0,0,0,0,0,0,0,0,0,0,0,0,0,0,0,0,0,0,0,0,0,0,0,0,0,0,0,0,0,0,0,0,0,0,0,0,0,0,0,0,0,0,
0,0,1891,1892,1892,1893,0,0,0,0,0,0,0,0,0,0,0,0,0,0,0,0,0,0,0,0,0,0,0,0,0,0,0,0,0,0,0,0,0,0,0,0,0,0,0,0,0,0,
0,0,426,427,426,427,0,0,0,426,427,426,427,0,0,0,0,0,0,0,0,0,0,0,0,0,0,0,0,0,0,0,0,0,0,0,0,0,0,0,0,0,0,0,0,0,0,0,
0,0,0,0,0,0,0,0,0,0,0,0,0,0,0,0,0,0,0,0,0,0,0,0,0,0,0,0,0,0,0,0,0,0,0,0,0,0,0,0,0,0,0,0,0,0,0,0,
0,0,0,0,0,0,0,0,0,0,0,0,0,0,0,0,0,0,0,0,0,0,0,0,0,0,0,0,0,0,0,0,0,0,0,0,0,0,0,0,0,0,0,0,0,0,0,0,
0,0,0,0,0,0,0,0,0,0,0,0,0,0,0,0,0,0,0,0,0,0,0,0,0,0,0,0,0,0,0,0,0,0,0,0,0,0,0,0,0,0,0,0,0,0,0,0,
0,0,0,0,0,0,0,0,0,0,0,0,0,0,0,0,0,0,0,0,0,0,0,0,0,0,0,0,0,0,0,0,0,0,0,0,0,0,0,0,0,0,0,0,0,0,0,0,
0,0,0,0,0,0,0,0,0,0,0,0,0,0,0,0,0,0,0,0,0,0,0,0,0,0,0,0,0,0,0,0,0,0,0,0,0,0,0,0,0,0,0,0,0,0,0,0,
0,0,0,0,0,0,0,0,0,0,0,0,0,0,0,0,0,0,0,0,0,0,0,0,0,0,0,0,0,0,0,0,0,0,0,0,0,0,0,0,0,0,0,0,0,0,0,0,
0,0,0,0,0,0,0,0,0,0,0,0,0,0,0,0,0,0,0,0,0,0,0,0,0,0,0,0,0,0,0,0,0,0,0,0,0,0,0,0,0,0,0,0,0,0,0,0,
0,0,0,0,0,0,0,0,0,0,0,0,0,0,0,0,0,0,0,0,0,0,0,0,0,0,0,0,0,0,0,0,0,0,0,0,0,0,0,0,0,0,0,0,0,0,0,0,
0,0,0,0,0,0,0,0,0,0,0,0,0,0,0,0,0,0,0,0,0,0,0,0,0,0,0,0,0,0,0,0,0,0,0,0,0,0,0,0,0,0,0,0,0,0,0,0,
0,0,0,0,0,0,0,0,0,0,0,0,0,0,0,0,0,0,0,0,0,0,0,0,0,0,0,0,0,0,0,0,0,0,0,0,0,0,0,0,0,0,0,0,0,0,0,0,
0,0,0,0,0,0,0,0,0,0,0,0,0,0,0,0,0,0,0,0,0,0,0,0,0,0,0,0,0,0,0,0,0,0,0,0,0,0,0,0,0,0,0,0,0,0,0,0,
0,0,0,0,0,0,0,0,0,0,0,0,0,0,0,0,0,0,0,0,0,0,0,0,0,0,0,0,0,0,0,0,0,0,0,0,0,0,0,0,0,0,0,0,0,0,0,0,
0,0,0,0,0,0,0,0,0,0,0,0,0,0,0,0,0,0,0,0,0,0,0,0,0,0,0,0,0,0,0,0,0,0,0,0,0,0,0,0,0,0,0,0,0,0,0,0,
0,0,0,0,0,0,0,0,0,0,0,0,0,0,0,0,0,0,0,0,0,0,0,0,0,0,0,0,0,0,0,0,0,0,0,0,0,0,0,0,0,0,0,0,0,0,0,0,
0,0,0,0,0,0,0,0,0,0,0,0,0,0,0,0,0,0,0,0,0,0,0,0,0,0,0,0,0,0,0,0,0,0,0,0,0,0,0,0,0,0,0,0,0,0,0,0,
0,0,0,0,0,0,0,0,0,0,0,0,0,0,0,0,0,0,0,0,0,0,0,0,0,0,0,0,0,0,0,0,0,0,0,0,0,0,0,0,0,0,0,0,0,0,0,0,
0,0,0,0,0,0,0,0,0,0,0,0,0,0,0,0,0,0,0,0,0,0,0,0,0,0,0,0,0,0,0,0,0,0,0,0,0,0,0,0,0,0,0,0,0,0,0,0,
0,0,0,0,0,0,0,0,0,0,0,0,0,0,0,0,0,0,0,0,0,0,0,0,0,0,0,0,0,0,0,0,0,0,0,0,0,0,427,428,427,428,427,428,429,0,0,0,
0,0,0,0,0,0,0,0,0,0,0,0,0,0,0,0,0,0,0,0,0,0,0,0,0,0,0,0,0,0,0,0,0,0,0,0,0,0,0,0,0,0,0,0,0,0,0,0,
0,0,0,0,0,0,0,0,0,0,0,0,0,0,0,0,0,0,0,0,0,0,0,0,0,0,0,0,0,0,0,0,0,0,0,0,0,0,0,0,0,0,0,0,0,0,0,0,
0,0,0,0,0,0,0,0,0,0,0,0,0,0,0,0,0,0,0,0,0,0,0,0,0,0,0,0,0,0,0,0,0,0,0,0,0,0,0,0,0,0,0,0,0,0,0,0,
0,0,0,0,0,0,0,0,0,0,0,0,0,0,0,0,0,0,0,0,0,0,0,0,0,0,0,0,0,0,0,0,0,0,0,0,0,0,0,0,0,0,0,0,0,0,0,0,
0,0,0,0,0,0,0,0,0,0,0,0,0,0,0,0,0,0,0,0,0,0,0,0,0,0,0,0,0,0,0,0,0,0,0,0,0,0,0,0,0,0,0,0,0,0,0,0,
0,0,0,0,0,0,0,0,0,0,0,0,0,0,0,0,0,0,0,0,0,0,0,0,0,0,0,0,0,0,0,0,0,0,0,0,0,0,0,0,0,0,0,0,0,0,0,0,
0,0,0,0,0,0,0,0,0,0,0,0,0,0,0,0,0,0,0,0,0,0,0,0,0,0,0,0,0,0,0,0,0,0,0,0,0,0,0,0,0,0,0,0,0,0,0,0,
0,0,0,0,0,0,0,0,0,0,0,0,0,0,0,0,0,0,0,0,0,0,0,0,0,0,0,0,0,0,0,0,0,0,0,0,0,0,0,0,0,0,0,0,0,0,0,0,
0,0,0,0,0,0,0,0,0,0,0,0,0,0,0,0,0,0,0,0,0,0,0,0,0,0,0,0,0,0,0,0,0,0,0,0,0,0,0,0,0,0,0,0,0,0,0,0,
0,0,0,0,0,0,0,0,0,0,0,0,0,0,0,0,0,0,0,0,0,0,0,0,0,0,0,0,0,0,0,0,0,0,0,0,0,0,0,0,0,0,0,0,0,0,0,0,
0,0,0,0,0,0,0,0,0,0,0,0,0,0,0,0,0,0,0,0,0,0,0,0,0,0,0,0,0,0,0,0,0,0,0,0,0,0,0,0,0,0,0,0,0,0,0,0,
0,0,0,0,0,0,0,0,0,0,0,0,0,0,0,0,0,0,0,0,0,0,0,0,0,0,0,0,0,0,0,0,0,0,0,0,0,0,0,0,0,0,0,0,0,0,0,0,
0,0,0,0,0,0,0,0,0,0,0,0,0,0,0,0,0,0,0,0,0,0,0,0,0,0,0,0,0,0,0,0,0,0,0,0,0,0,0,0,0,0,0,0,0,0,0,0,
0,0,0,0,0,0,0,0,0,0,0,0,0,0,0,0,0,0,0,0,0,0,0,0,0,0,0,0,0,0,0,0,0,0,0,0,0,0,0,0,0,0,0,0,0,0,0,0,
0,0,0,0,0,0,0,0,0,0,0,0,0,0,0,0,0,0,0,0,0,0,0,0,0,0,0,0,0,0,0,0,0,0,0,0,0,0,0,0,0,0,0,0,0,0,0,0,
0,0,0,0,0,0,0,0,0,0,0,0,0,0,0,0,0,0,0,0,0,0,0,0,0,0,0,0,0,0,0,0,0,0,0,0,0,0,0,0,0,0,0,0,0,0,0,0,
0,0,0,0,0,0,0,0,0,0,0,0,427,427,427,427,427,0,0,0,0,0,0,0,0,0,0,0,0,0,0,0,0,0,0,0,0,0,0,0,0,0,0,0,0,0,0,0,
0,0,0,0,0,0,0,0,0,0,0,0,0,0,0,0,0,0,0,0,0,0,0,0,0,0,0,0,0,0,0,0,0,0,0,0,0,0,0,0,0,0,0,0,0,0,0,0,
0,0,0,0,0,0,0,0,0,0,0,0,0,0,0,0,0,0,0,0,0,0,0,0,0,0,0,0,0,0,0,0,0,0,0,0,0,0,0,0,0,0,0,0,0,0,0,0,
0,0,0,0,0,0,0,0,0,0,0,0,0,0,0,0,0,0,0,0,0,0,0,0,0,0,0,0,0,0,0,0,0,0,0,0,0,0,0,0,0,0,0,0,0,0,0,0,
0,0,0,0,0,0,0,0,0,0,0,0,0,0,0,0,0,0,0,0,0,0,0,0,0,0,0,0,0,0,0,0,0,0,0,0,0,0,0,0,0,0,0,0,0,0,0,0,
0,0,0,0,0,0,0,0,0,0,0,0,0,0,0,0,0,0,0,0,0,0,0,0,0,0,0,0,0,0,0,0,0,0,0,0,0,0,0,0,0,0,0,0,0,0,0,0
</data>
 </layer>
 <layer id="1" name="Walls" width="48" height="48">
  <data encoding="csv">
1,3,3,3,3,3,3,96,3,3,3,3,3,3,96,3,3,3,3,3,3,3,3,3,3,3,3,3,3,3,3,96,3,3,3,3,3,3,3,3,3,3,3,3,3,3,3,5,
13,146,146,146,146,146,146,13,146,146,146,146,146,146,13,1940,1941,1940,1888,1889,1890,1888,1889,1890,1888,1889,1890,1940,1940,1940,1940,13,1940,1940,1940,1940,1940,1940,1940,1940,1940,1940,1940,1940,1940,1940,1940,17,
13,158,158,158,158,158,158,13,158,158,158,158,158,158,13,1957,1958,1957,1905,1906,1907,1905,1906,1907,1905,1906,1907,1957,1957,1957,1957,13,1957,1957,1957,1957,1957,1957,1957,1957,1957,1957,1957,1957,1957,1957,1957,17,
13,0,0,0,0,0,0,13,0,0,0,0,0,0,13,0,0,0,0,1951,1951,1952,0,0,0,0,0,0,0,0,0,13,0,0,0,0,0,0,0,0,0,0,0,0,0,0,0,17,
13,0,0,0,0,0,0,13,0,0,0,0,0,0,13,0,0,0,0,1968,1968,1969,0,0,0,0,0,0,0,0,0,13,0,0,0,0,0,0,0,0,0,0,0,0,0,1951,1952,17,
119,3,4,0,0,82,110,120,110,81,0,0,2,3,62,0,0,0,0,0,0,0,0,0,0,0,0,0,0,0,0,25,0,0,0,0,0,0,0,0,0,0,0,0,0,1968,1969,17,
13,1940,2014,0,0,2013,1940,1940,1940,2014,0,0,2013,1940,1940,0,0,0,0,0,0,0,0,0,0,0,0,0,0,0,0,37,0,0,0,0,0,0,0,0,0,0,0,0,0,0,0,17,
13,1957,2031,0,0,2030,1957,1957,1957,2031,0,0,2030,1957,1957,0,0,0,0,0,0,0,0,0,0,0,0,0,0,0,0,49,0,0,0,0,0,0,0,0,0,0,0,0,0,0,0,17,
13,0,0,0,0,0,0,0,0,0,0,0,0,0,0,0,0,0,0,0,0,0,0,0,0,0,0,0,0,0,0,0,0,0,0,0,0,0,0,0,0,0,0,0,0,0,0,17,
13,0,0,0,0,0,0,0,0,0,0,0,0,0,0,0,0,0,0,0,0,0,0,0,0,0,0,0,0,0,0,0,0,0,0,0,0,0,0,0,0,0,0,0,0,0,0,17,
13,0,0,0,0,0,0,0,0,0,0,0,0,0,0,0,0,0,0,0,0,0,0,0,0,0,0,0,0,0,0,1,3,3,3,3,3,3,3,3,3,3,3,3,3,3,3,107,
13,0,0,0,0,0,0,0,0,1,3,3,3,3,5,0,0,0,0,0,0,0,0,0,0,0,0,0,0,0,0,97,1940,1940,1940,1940,1940,1940,1940,1940,1940,1940,1940,1940,1940,1940,1940,17,
13,0,0,0,0,0,0,0,0,13,146,146,146,146,98,0,0,0,0,0,0,0,0,0,0,0,0,0,0,0,0,97,1957,1957,1957,1957,1957,1957,1957,1957,1957,1957,1957,1957,1957,1957,1957,17,
13,0,0,0,0,0,0,0,0,13,158,158,158,158,98,0,0,0,0,0,0,0,0,0,0,0,0,0,0,0,0,97,0,0,0,0,0,0,0,0,0,0,0,0,0,0,0,17,
13,0,0,0,0,0,0,0,0,13,0,0,0,0,98,0,0,0,0,0,0,0,0,0,0,0,0,0,0,0,0,97,0,0,0,0,0,0,0,0,0,0,0,0,0,0,0,17,
13,0,0,0,0,0,0,0,0,13,0,0,0,0,98,0,0,0,0,0,0,0,0,0,0,0,0,0,0,0,0,97,0,0,0,0,0,0,0,0,0,0,0,0,0,0,0,17,
13,0,0,0,0,0,0,0,0,119,3,3,3,3,107,0,0,0,0,0,0,0,0,0,0,0,0,0,0,0,0,25,0,0,0,0,0,0,0,0,0,0,0,0,0,0,0,17,
13,0,0,0,0,0,0,0,0,13,146,146,146,146,98,0,0,0,0,0,0,0,0,0,0,0,0,0,0,0,0,37,0,0,0,0,0,0,0,0,0,0,0,0,0,0,0,17,
13,0,0,0,0,0,0,0,0,13,158,158,158,158,98,0,0,0,0,0,0,0,0,0,0,0,0,0,0,0,0,49,0,0,0,0,0,0,0,0,0,0,0,0,0,0,0,17,
13,0,0,0,0,0,0,0,0,13,0,0,0,0,98,0,0,0,0,0,0,0,0,0,0,0,0,0,0,0,0,0,0,0,0,0,0,0,0,0,0,0,0,0,0,0,0,17,
13,0,0,0,0,0,0,0,0,13,0,0,0,0,98,0,0,0,0,0,0,0,0,0,0,0,0,0,0,0,0,0,0,0,0,0,0,0,0,0,0,0,0,0,0,0,0,17,
13,0,0,0,0,0,0,0,0,13,0,0,0,0,98,0,0,0,0,0,0,0,0,0,0,0,0,0,0,0,0,86,0,0,0,0,0,0,0,0,0,0,0,0,0,0,0,17,
13,0,0,0,0,0,0,0,0,13,0,0,0,0,98,0,0,0,0,0,0,0,0,0,0,0,0,0,0,0,0,98,0,0,0,0,0,0,0,0,0,0,0,0,0,0,0,17,
119,110,110,110,110,110,110,110,110,120,110,110,110,110,120,81,0,0,0,0,0,82,110,110,110,110,110,110,108,110,110,120,110,110,110,110,110,81,0,0,0,82,110,110,110,110,110,87,
13,1940,1941,1940,1940,1940,1940,1940,1940,1940,1940,1940,1940,1940,1940,2014,0,0,0,0,0,2013,1940,1940,1940,1940,1940,1940,98,146,146,146,146,149,150,149,150,123,0,0,0,148,149,150,149,150,146,147,
13,1957,1958,1957,1957,1957,1957,1957,1957,1957,1957,1957,1957,1957,1957,2031,0,0,0,0,0,2030,1957,1957,1957,1957,1957,1957,98,158,158,158,158,161,162,161,162,135,0,0,0,160,161,162,161,162,158,159,
13,0,0,0,0,0,0,0,0,0,0,0,0,0,0,0,0,0,0,0,0,0,0,0,0,0,0,0,98,0,0,0,0,0,0,0,0,0,0,0,0,0,0,0,0,0,0,0,
13,0,0,0,0,0,0,0,0,0,0,0,0,0,0,0,0,0,0,0,0,0,0,0,0,0,0,0,98,0,0,0,0,0,0,0,0,0,0,0,0,0,0,0,0,0,0,0,
13,0,0,0,0,0,0,0,0,0,0,0,0,0,0,0,0,0,0,0,0,0,0,0,0,0,0,0,98,0,0,0,0,0,0,0,0,0,0,0,0,0,0,0,0,0,0,0,
13,0,0,0,0,0,0,0,0,0,0,0,0,0,0,0,0,0,0,0,0,0,0,0,0,0,0,0,98,0,0,0,0,0,0,0,0,0,0,0,0,0,0,0,0,0,0,0,
13,0,0,0,0,0,0,0,0,0,0,0,0,0,0,0,0,0,0,0,0,0,0,0,0,0,0,0,98,0,0,0,0,0,0,0,0,0,0,0,0,0,0,0,0,0,0,0,
13,0,0,0,0,0,0,0,0,0,0,0,0,0,0,0,0,0,0,0,0,0,0,0,0,0,0,0,98,0,0,0,0,0,0,0,0,0,0,0,0,0,0,0,0,0,0,0,
13,0,0,0,0,0,0,0,0,0,0,0,0,0,0,0,0,0,0,0,0,0,0,0,0,0,0,0,98,0,0,0,0,0,0,0,0,0,0,0,0,0,0,0,0,0,0,0,
13,0,0,0,0,0,0,0,0,0,0,0,0,0,0,0,0,0,0,0,0,0,0,0,0,0,0,0,98,0,0,0,0,0,0,0,0,0,0,0,0,0,0,0,0,0,0,0,
13,0,0,0,0,0,0,0,0,0,0,0,0,0,0,0,0,0,0,0,0,0,0,0,0,0,0,0,98,0,0,0,0,0,0,0,0,0,0,0,0,0,0,0,0,0,0,0,
13,0,0,0,0,0,0,0,0,0,0,0,0,0,0,0,0,0,0,0,0,0,0,0,0,0,0,0,98,0,0,0,0,0,0,0,0,0,0,0,0,0,0,0,0,0,0,0,
13,0,0,0,0,0,0,0,0,0,0,0,0,0,0,0,0,0,0,0,0,0,0,0,0,0,0,0,98,0,0,0,0,0,0,0,0,0,0,0,0,0,0,0,0,0,0,0,
13,0,0,0,0,0,0,0,0,0,0,0,0,0,0,0,0,0,0,0,0,0,0,0,0,0,0,0,98,0,0,0,0,0,0,0,0,0,0,0,0,0,0,0,0,0,0,0,
109,110,110,110,110,110,110,110,110,110,92,0,0,0,0,0,0,0,116,110,110,110,110,110,110,110,110,110,87,0,0,0,0,0,0,0,0,0,0,0,0,0,0,0,0,0,0,0,
121,124,125,126,124,125,126,124,125,126,97,0,0,0,0,0,0,0,98,124,125,126,124,125,126,124,125,126,99,0,0,0,0,0,0,0,0,0,0,0,0,0,0,0,0,0,0,0,
133,136,137,138,136,137,138,136,137,138,109,110,81,0,0,0,82,110,87,136,137,138,136,137,138,136,137,138,111,0,0,0,0,0,0,0,0,0,0,0,0,0,0,0,0,0,0,0,
0,0,0,0,0,0,0,0,0,0,121,122,93,0,0,0,94,122,99,0,0,0,0,0,0,0,0,0,0,0,0,0,0,0,0,0,0,0,0,0,0,0,0,0,0,0,0,0,
0,0,0,0,0,0,0,0,0,0,133,134,105,0,0,0,106,134,111,0,0,0,0,0,0,0,0,0,0,0,0,0,0,0,0,0,0,0,0,0,0,0,0,0,0,0,0,0,
0,0,0,0,0,0,0,0,0,0,0,0,0,0,0,0,0,0,0,0,0,0,0,0,0,0,0,0,0,0,0,0,0,0,0,0,0,0,0,0,0,0,0,0,0,0,0,0,
0,0,0,0,0,0,0,0,0,0,0,0,0,0,0,0,0,0,0,0,0,0,0,0,0,0,0,0,0,0,0,0,0,0,0,0,0,0,0,0,0,0,0,0,0,0,0,0,
0,0,0,0,0,0,0,0,0,0,0,0,0,0,0,0,0,0,0,0,0,0,0,0,0,0,0,0,0,0,0,0,0,0,0,0,0,0,0,0,0,0,0,0,0,0,0,0,
0,0,0,0,0,0,0,0,0,0,0,0,0,0,0,0,0,0,0,0,0,0,0,0,0,0,0,0,0,0,0,0,0,0,0,0,0,0,0,0,0,0,0,0,0,0,0,0,
0,0,0,0,0,0,0,0,0,0,0,0,0,0,0,0,0,0,0,0,0,0,0,0,0,0,0,0,0,0,0,0,0,0,0,0,0,0,0,0,0,0,0,0,0,0,0,0
</data>
 </layer>
 <layer id="4" name="Garden(ground)" width="48" height="48">
  <data encoding="csv">
0,0,0,0,0,0,0,0,0,0,0,0,0,0,0,0,0,0,0,0,0,0,0,0,0,0,0,0,0,0,0,0,0,0,0,0,0,0,0,0,0,0,0,0,0,0,0,0,
0,0,0,0,0,0,1910,0,0,0,0,0,0,1910,0,0,0,0,0,0,1932,1933,1934,1935,1936,0,0,0,2090,2091,0,0,0,2020,2021,1932,1933,1934,1935,1936,0,2018,0,0,0,0,0,0,
0,0,0,0,0,0,1927,0,0,0,0,0,0,1927,0,0,0,0,0,0,0,0,0,0,0,0,0,0,2107,2108,1984,0,1879,1880,1881,1882,1883,1884,1885,1886,1887,0,2010,2011,2011,2012,0,0,
0,0,0,0,0,0,0,0,0,0,0,0,0,0,0,0,0,0,0,0,0,0,0,0,0,0,0,0,2124,2125,2001,0,1896,1897,1898,1899,1900,1901,1902,1903,1904,0,2027,2028,2028,2029,0,0,
0,0,0,0,0,0,0,0,0,0,0,0,0,0,0,0,0,0,1953,1981,1982,1983,1950,0,0,0,0,0,0,0,0,0,1913,1914,1915,1916,1917,1918,1919,1920,1921,0,0,0,0,0,0,0,
0,0,88,89,90,91,0,0,0,550,0,0,0,0,0,0,0,0,1970,1998,1999,2000,1967,0,0,0,0,0,0,0,0,0,0,0,0,0,0,0,0,0,0,0,0,0,1953,1954,1955,0,
0,1984,100,101,102,103,1909,0,0,566,0,0,0,1909,0,0,0,0,0,0,0,0,0,0,0,0,0,0,0,0,0,0,0,0,0,0,0,0,0,0,0,0,0,0,1970,1971,1972,0,
0,2001,112,113,114,115,0,2020,2021,0,0,0,0,0,0,0,0,0,0,0,0,0,0,0,0,0,0,0,0,0,0,0,0,0,0,0,0,0,0,0,0,0,0,0,1953,1947,1948,0,
0,0,0,0,0,0,0,0,0,0,0,0,0,0,0,0,0,0,0,0,0,0,0,0,0,0,0,0,0,0,0,0,0,0,0,0,0,0,0,0,0,0,0,0,1970,1964,1965,0,
0,0,0,0,0,0,0,0,0,0,0,0,0,0,0,0,0,0,0,0,0,0,0,0,0,0,0,0,0,0,0,0,0,0,0,0,0,0,0,0,0,0,0,0,0,0,0,0,
0,0,0,0,0,0,0,0,0,0,0,0,0,0,0,0,0,0,0,0,0,0,0,0,0,0,0,0,0,0,0,0,0,0,0,0,0,0,0,0,0,0,0,0,0,0,0,0,
0,0,0,0,0,0,0,0,0,0,0,0,0,0,0,0,0,0,0,0,0,0,0,0,0,0,0,0,0,0,0,0,0,0,0,0,0,0,0,0,0,0,0,0,0,0,0,0,
0,0,0,0,0,0,0,0,0,0,0,0,0,1910,0,0,0,0,0,0,0,0,0,0,0,0,0,0,0,0,0,0,0,0,0,0,0,0,0,0,0,0,0,0,0,0,0,0,
0,1942,1943,1943,1944,0,0,0,0,0,0,0,0,1927,0,0,0,0,0,0,0,0,0,0,0,0,0,0,0,0,0,0,0,0,0,0,0,0,0,0,0,0,0,0,0,0,0,0,
0,1959,1960,1960,1961,0,0,0,0,0,0,0,0,0,0,0,0,0,0,0,0,0,0,0,0,0,0,0,0,0,0,0,0,0,0,0,0,0,0,0,0,0,0,0,0,0,0,0,
0,1959,1960,1960,1961,0,0,0,0,0,0,0,0,0,0,0,0,0,0,0,0,0,0,0,0,0,0,0,0,0,0,0,0,0,0,0,0,0,0,0,0,0,0,0,0,0,0,0,
0,1959,1960,1960,1961,0,0,0,0,0,0,0,0,0,0,0,0,0,0,0,0,0,0,0,0,0,0,0,0,0,0,0,0,0,0,0,0,0,0,0,0,0,0,0,0,0,0,0,
0,1959,1960,1960,1961,0,0,0,0,0,0,0,0,1910,0,0,0,0,0,0,0,0,0,0,0,0,0,0,0,0,0,0,0,0,0,0,0,0,0,0,0,0,0,0,0,0,0,0,
0,1959,1960,1960,1961,0,0,0,0,0,0,0,0,1927,0,0,0,0,0,0,0,0,0,0,0,0,0,0,0,0,0,0,0,0,0,0,0,0,0,0,0,0,0,0,0,0,0,0,
0,1959,1960,1960,1961,0,0,0,0,0,0,0,0,0,0,0,0,0,0,0,0,0,0,0,0,0,0,0,0,0,0,0,0,0,0,0,0,0,0,0,0,0,0,0,0,0,0,0,
0,1959,1960,1960,1961,0,0,0,0,0,0,0,0,0,0,0,0,0,0,0,0,0,0,0,0,0,0,0,0,0,0,0,0,0,0,0,0,0,0,0,0,0,0,0,0,0,0,0,
0,1959,1960,1960,1961,0,0,0,0,0,0,0,0,0,0,0,0,0,0,0,0,0,0,0,0,0,0,0,0,0,0,0,0,0,0,0,0,0,0,0,0,0,0,0,0,0,0,0,
0,1976,1977,1977,1978,0,0,0,0,0,0,0,0,0,0,0,0,0,0,0,0,0,0,0,0,0,0,0,0,0,0,0,0,0,0,0,0,0,0,0,0,0,0,0,0,0,0,0,
0,0,0,0,0,0,0,0,0,0,0,0,0,0,0,0,0,0,0,0,0,0,0,0,0,0,0,0,0,0,0,0,0,0,0,0,0,0,0,0,0,0,0,0,0,0,0,0,
0,0,0,1984,0,0,0,0,0,0,0,0,0,1988,1989,0,0,0,0,0,0,0,2089,0,1985,1986,1987,0,0,0,0,0,0,0,0,0,0,0,0,0,0,0,0,0,0,0,0,0,
0,0,0,2001,0,0,0,0,0,0,0,0,0,2005,2006,0,0,0,0,0,0,0,2106,0,2002,2003,2004,0,0,0,0,0,0,0,0,0,0,0,0,0,0,0,0,0,0,0,0,0,
0,0,0,0,0,0,0,0,0,0,0,0,0,0,0,0,0,0,0,0,0,0,2123,0,0,0,0,0,0,196,196,196,196,196,196,196,196,196,196,196,196,196,196,196,196,196,196,196,
0,0,0,0,0,0,0,0,0,0,0,0,0,0,0,0,0,0,0,0,0,0,0,0,0,0,1945,1946,0,196,196,196,196,196,196,196,196,196,196,196,196,196,196,196,196,196,196,196,
0,0,0,0,0,0,0,0,0,0,0,0,0,0,0,0,0,0,0,0,0,0,0,0,0,0,1962,1963,0,196,196,196,196,196,196,205,206,207,208,196,196,196,200,196,196,196,196,196,
0,0,0,0,0,0,0,0,0,0,0,0,0,0,0,0,0,0,0,0,0,0,0,0,0,0,1962,1963,0,196,196,196,196,196,196,213,239,214,216,196,200,196,196,196,196,196,196,196,
0,0,0,0,0,0,0,0,0,0,0,0,0,0,0,0,0,0,0,0,0,0,0,0,0,0,1962,1963,0,196,196,196,196,196,205,232,223,231,230,206,208,196,196,196,196,196,196,204,
0,0,0,0,0,0,0,0,0,0,0,0,0,0,0,0,0,0,0,0,0,0,0,0,0,0,1962,1963,0,196,196,196,196,196,213,216,196,213,240,240,230,206,206,207,208,204,204,196,
0,0,0,0,0,0,0,0,0,0,0,0,0,0,0,0,0,0,0,0,0,0,0,0,0,0,1962,1963,0,196,200,196,196,196,221,224,196,213,214,240,214,238,239,215,216,196,196,196,
0,0,0,0,0,0,0,0,0,0,0,0,0,0,0,0,0,0,0,0,0,0,0,0,0,0,1962,1963,0,196,196,196,196,196,196,196,196,221,222,231,238,215,232,223,224,196,196,196,
0,0,0,0,0,0,0,0,0,0,0,0,0,0,0,0,0,0,0,0,0,0,0,0,0,0,1962,1963,0,196,196,196,196,196,196,196,196,196,196,213,214,214,216,196,196,196,196,204,
0,0,0,0,0,0,0,0,0,0,0,0,0,0,0,0,0,0,0,0,0,0,0,0,0,0,1979,1980,0,196,196,196,196,196,196,196,196,196,196,213,240,214,216,196,196,196,196,196,
0,0,0,0,0,0,0,0,0,0,0,0,0,0,0,0,0,0,0,0,0,0,0,0,0,0,0,0,0,196,196,196,196,196,196,196,196,196,205,229,214,215,216,196,198,196,196,196,
0,0,0,0,0,0,0,0,0,0,0,0,0,0,0,0,0,0,0,0,0,0,0,0,0,0,0,0,0,196,196,196,196,196,196,196,196,196,221,231,239,238,216,196,200,196,196,196,
0,0,0,0,0,0,0,0,0,0,0,0,0,0,0,0,0,0,0,0,0,0,0,0,0,0,0,0,0,196,198,196,196,196,196,196,196,196,196,213,238,231,216,196,196,196,196,196,
0,0,0,0,0,0,0,0,0,0,0,0,0,0,0,0,0,0,0,0,0,0,0,0,0,0,0,0,0,198,196,196,196,196,196,196,196,196,196,213,214,215,224,196,196,196,196,196,
0,0,0,0,0,0,0,0,0,0,0,0,0,0,0,0,0,0,0,0,0,0,0,0,0,0,0,0,0,196,196,196,196,196,196,196,196,196,196,213,214,224,198,196,196,196,196,196,
196,196,196,196,204,196,196,196,196,196,0,1988,1989,0,0,0,0,518,0,196,196,196,196,196,196,196,196,196,196,196,196,196,196,205,206,207,208,196,196,213,216,200,200,196,196,196,196,196,
196,196,196,196,196,196,196,196,198,196,0,2005,2006,0,0,0,0,534,0,196,196,196,196,196,196,196,196,196,196,196,196,205,206,229,239,215,230,206,206,229,216,196,196,196,196,196,198,196,
196,196,196,205,207,207,206,207,206,208,196,196,196,205,208,196,196,196,196,196,196,196,196,196,196,196,196,196,196,196,196,221,222,222,222,222,222,231,215,232,224,196,196,196,196,196,196,196,
196,196,196,213,238,214,214,214,215,216,196,198,196,213,230,208,196,196,196,196,196,196,196,196,196,205,207,207,208,196,196,196,196,196,196,196,196,221,222,224,200,196,196,196,196,196,196,196,
196,196,200,221,231,214,214,214,214,230,206,207,206,229,214,230,208,196,196,205,206,207,206,206,207,229,239,240,216,200,196,196,196,196,196,196,196,196,196,196,196,196,196,196,196,196,196,196,
196,196,196,200,213,238,215,239,232,223,223,231,214,239,214,214,230,206,206,229,214,238,214,215,232,223,222,223,224,196,196,196,196,196,196,196,196,196,196,196,196,196,196,196,196,196,196,196,
196,196,204,196,221,222,223,222,224,196,198,221,223,222,223,222,222,222,223,222,222,223,222,223,224,196,196,196,196,200,196,196,196,196,196,196,196,196,196,196,196,196,196,196,196,196,196,196
</data>
 </layer>
 <layer id="5" name="Ground(flowerB)" width="48" height="48">
  <data encoding="csv">
0,0,0,0,0,0,0,0,0,0,0,0,0,0,0,0,0,0,0,0,0,0,0,0,0,0,0,0,0,0,0,0,0,0,0,0,0,0,0,0,0,0,0,0,0,0,0,0,
0,0,0,0,0,0,0,0,0,0,0,0,0,0,0,0,0,0,0,0,0,0,0,0,0,0,0,0,0,0,0,0,0,0,0,0,0,0,0,0,0,0,0,0,0,0,0,0,
0,0,0,0,0,0,0,0,0,0,0,0,0,0,0,0,0,0,0,0,0,0,0,0,0,0,0,0,0,0,0,0,0,0,0,0,0,0,0,0,0,0,0,0,1993,0,0,0,
0,0,0,0,0,0,0,0,0,0,0,0,0,0,0,0,0,0,0,0,0,0,0,0,0,0,0,0,0,0,0,0,0,0,0,0,0,0,0,0,0,0,0,0,0,0,0,0,
0,0,0,0,0,0,0,0,0,0,0,0,0,0,0,0,0,0,0,0,0,0,0,0,0,0,0,0,0,0,0,0,0,0,0,0,0,0,0,0,0,0,0,0,0,0,0,0,
0,0,0,0,0,518,0,0,0,0,0,0,0,0,0,0,0,0,0,1951,1952,0,0,0,0,0,0,0,0,0,0,0,0,0,0,0,0,0,0,0,0,0,0,0,0,0,0,0,
0,0,0,0,0,534,0,0,0,0,0,0,0,0,0,0,0,0,0,1968,1969,0,0,0,0,0,0,0,0,0,0,0,0,0,0,0,0,0,0,0,0,0,0,0,0,0,0,0,
0,0,0,0,0,0,0,0,0,0,0,0,0,0,0,0,0,0,0,0,0,0,0,0,0,0,0,0,0,0,0,0,0,0,0,0,0,0,0,0,0,0,0,0,0,0,0,0,
0,0,0,0,0,0,0,0,0,0,0,0,0,0,0,0,0,0,0,0,0,0,0,0,0,0,0,0,0,0,0,0,0,0,0,0,0,0,0,0,0,0,0,0,0,1951,1952,0,
0,0,0,0,0,0,0,0,0,0,0,0,0,0,0,0,0,0,0,0,0,0,0,0,0,0,0,0,0,0,0,0,0,0,0,0,0,0,0,0,0,0,0,0,0,1968,1969,0,
0,0,0,0,0,0,0,0,0,0,0,0,0,0,0,0,0,0,0,0,0,0,0,0,0,0,0,0,0,0,0,0,0,0,0,0,0,0,0,0,0,0,0,0,0,0,0,0,
0,0,0,0,0,0,0,0,0,0,0,0,0,0,0,0,0,0,0,0,0,0,0,0,0,0,0,0,0,0,0,0,1984,1941,2018,2058,2049,2050,2051,2052,2053,2054,2058,2055,2056,2057,0,0,
0,0,0,0,0,0,0,0,0,0,0,0,0,0,0,0,0,0,0,0,0,0,0,0,0,0,0,0,0,0,0,0,2001,1958,0,0,2066,2067,2068,2069,2070,2071,0,2072,2073,2074,0,0,
0,0,0,0,0,0,0,0,0,0,0,0,0,0,0,0,0,0,0,0,0,0,0,0,0,0,0,0,0,0,0,0,0,0,0,0,0,0,0,0,0,2059,2060,0,0,0,0,0,
0,0,0,0,0,0,0,0,0,0,0,0,0,0,0,0,0,0,0,0,0,0,0,0,0,0,0,0,0,0,0,0,0,0,0,0,0,0,0,0,0,2076,2077,0,0,0,0,0,
0,0,0,0,0,0,0,0,0,0,0,0,0,0,0,0,0,0,0,0,0,0,0,0,0,0,0,0,0,0,0,0,0,0,0,0,0,0,0,0,0,0,0,0,0,0,0,0,
0,0,0,0,0,0,0,0,0,0,0,0,0,0,0,0,0,0,0,0,0,0,0,0,0,0,0,0,0,0,0,0,0,0,2084,2085,2086,2085,2086,2085,2086,2085,2086,2087,2088,0,0,0,
0,0,0,0,0,0,0,0,0,0,0,0,0,0,0,0,0,0,0,0,0,0,0,0,0,0,0,0,0,0,0,0,0,0,0,0,0,0,0,0,0,0,0,0,0,0,0,0,
0,0,0,0,0,0,0,0,0,0,0,0,0,0,0,0,0,0,0,0,0,0,0,0,0,0,0,0,0,0,0,0,0,0,2084,2085,2086,2085,2086,2085,2086,2085,2086,2087,2088,0,0,0,
0,0,0,0,0,0,0,0,0,0,0,0,0,0,0,0,0,0,0,0,0,0,0,0,0,0,0,0,0,0,0,0,0,0,0,0,0,0,0,0,0,0,0,0,0,0,0,0,
0,0,0,0,0,0,0,0,0,0,0,0,0,0,0,0,0,0,0,0,0,0,0,0,0,0,0,0,0,0,0,0,0,0,2084,2085,2086,2085,2086,2085,2086,2085,2086,2087,2088,0,0,0,
0,0,0,0,0,0,0,0,0,0,0,0,0,0,0,0,0,0,0,0,0,0,0,0,0,0,0,0,0,0,0,0,0,0,0,0,0,0,0,0,0,0,0,0,0,0,0,0,
0,0,0,0,0,0,0,0,0,0,0,0,0,0,0,0,0,0,0,0,0,0,0,0,0,0,0,0,0,0,0,0,0,0,0,0,0,0,0,0,0,0,0,0,0,0,0,0,
0,0,0,0,0,0,0,0,0,0,0,0,0,0,0,0,0,0,0,0,0,0,0,0,0,0,0,0,0,0,0,0,0,0,0,0,0,0,0,0,0,0,0,0,0,0,0,0,
0,0,0,0,0,0,0,0,0,0,0,0,0,0,0,0,0,0,0,0,0,0,0,2018,0,0,0,0,0,0,0,0,0,0,0,0,0,0,0,0,0,0,0,0,0,0,0,0,
0,0,0,0,0,0,0,0,0,0,0,0,0,0,0,0,0,0,0,0,0,0,0,0,0,0,0,0,0,0,0,0,0,0,0,0,0,0,0,0,0,0,0,0,0,0,0,0,
0,0,0,0,0,0,0,0,0,0,0,0,0,0,0,0,0,0,0,0,0,0,0,0,0,0,0,0,0,0,0,0,0,0,0,0,0,0,234,0,248,0,0,0,234,0,0,0,
0,0,0,0,0,0,0,0,0,0,0,0,0,0,0,0,0,0,0,0,0,0,0,0,0,0,0,0,0,0,0,0,0,0,0,0,0,0,235,0,0,0,0,0,0,0,0,0,
0,0,0,0,0,0,0,0,0,0,0,0,0,0,0,0,0,0,0,0,0,0,0,0,0,0,0,1993,0,234,0,243,0,0,0,0,0,0,0,0,0,0,0,0,0,0,0,0,
0,0,0,0,0,0,0,0,0,0,0,0,0,0,0,0,0,0,0,0,0,0,0,0,0,0,0,1994,0,234,0,0,0,228,0,0,0,0,0,0,0,0,0,0,233,0,0,249,
0,0,0,0,0,0,0,0,0,0,0,0,0,0,0,0,0,0,0,0,0,0,0,0,0,0,0,0,0,0,235,0,0,0,0,0,0,0,0,0,0,0,228,0,0,0,0,0,
0,0,0,0,0,0,0,0,0,0,0,0,0,0,0,0,0,0,0,0,0,0,0,0,0,0,0,1994,0,0,0,0,0,0,0,0,0,0,0,0,0,0,0,0,0,0,0,0,
0,0,0,0,0,0,0,0,0,0,0,0,0,0,0,0,0,0,0,0,0,0,0,0,0,0,0,0,0,0,0,0,0,233,0,0,0,0,0,0,0,0,0,0,0,0,0,0,
0,0,0,0,0,0,0,0,0,0,0,0,0,0,0,0,0,0,0,0,0,0,0,0,0,0,0,1993,0,0,0,0,0,0,248,0,0,0,0,0,0,0,0,0,0,0,0,0,
0,0,0,0,0,0,0,0,0,0,0,0,0,0,0,0,0,0,0,0,0,0,0,0,0,0,0,0,0,0,0,0,0,0,0,0,227,0,0,0,0,0,0,248,235,0,0,0,
0,0,0,0,0,0,0,0,0,0,0,0,0,0,0,0,0,0,0,0,0,0,0,0,0,0,0,0,0,0,0,0,0,0,0,0,0,0,0,243,0,0,0,0,0,0,0,0,
0,0,0,0,0,0,0,0,0,0,0,0,0,0,0,0,0,0,0,0,0,0,0,0,0,0,0,0,0,0,0,0,235,0,0,0,0,0,0,0,0,0,0,0,0,0,0,0,
0,0,0,0,0,0,0,0,0,0,0,0,0,0,0,0,0,0,0,0,0,0,0,0,0,0,0,0,0,0,0,0,0,0,227,0,0,0,0,0,0,0,0,0,0,0,0,0,
0,0,0,0,0,0,0,0,0,0,0,0,0,0,0,0,0,0,0,0,0,0,0,0,0,0,0,0,0,0,0,0,0,225,0,0,0,0,233,0,0,0,0,0,0,0,0,0,
0,0,0,0,0,0,0,0,0,0,0,0,0,0,0,0,0,0,0,0,0,0,0,0,0,0,0,0,0,0,0,0,0,0,0,0,0,0,0,0,0,0,0,0,235,0,0,0,
0,0,0,0,2061,2062,2063,0,0,0,0,0,0,0,0,0,0,0,0,0,2061,2062,2063,0,0,2061,2062,2063,0,0,248,0,0,0,0,235,0,0,0,0,0,0,0,235,0,0,0,0,
0,0,234,234,2078,2079,2080,234,234,0,0,0,0,0,0,0,0,0,0,234,2078,2079,2080,234,234,2078,2079,2080,0,0,0,228,0,0,0,0,0,0,248,0,0,0,0,0,0,0,0,0,
0,0,0,0,2095,2096,2097,0,0,0,0,0,0,0,0,0,0,0,0,0,2095,2096,2097,0,0,2095,2096,2097,0,0,0,0,0,0,0,0,0,0,0,0,0,0,0,0,0,228,0,0,
0,235,0,0,0,0,0,0,0,0,249,0,249,0,0,0,234,234,0,0,0,0,0,0,0,0,0,0,0,0,0,0,0,0,0,0,0,0,0,0,0,249,0,0,228,0,0,0,
0,0,0,0,0,0,0,0,0,0,0,0,0,0,0,0,0,0,0,0,0,0,0,0,0,0,0,0,0,249,0,0,0,0,0,0,0,0,0,0,0,0,0,0,0,0,0,0,
0,0,0,0,0,0,0,0,0,0,0,0,0,0,0,0,0,235,0,0,0,0,0,0,0,0,0,0,0,0,0,0,0,0,0,0,0,0,0,0,0,0,0,0,0,0,0,0,
0,0,0,0,0,0,0,0,0,0,0,0,0,0,0,0,0,0,0,0,0,0,0,0,0,0,0,0,0,0,0,0,0,0,0,0,0,0,0,0,0,0,0,0,0,225,0,0,
249,225,0,0,0,0,0,0,0,0,0,0,0,0,0,0,0,0,0,0,0,0,0,0,0,0,0,0,243,0,0,0,0,0,0,225,0,227,0,0,0,0,0,0,0,0,227,0
</data>
 </layer>
 <layer id="3" name="Garden(Trees)" width="48" height="48">
  <data encoding="csv">
0,0,0,0,0,0,0,0,0,0,0,0,0,0,0,0,0,0,0,0,0,0,0,0,0,0,0,0,0,0,0,0,0,0,0,0,0,0,0,0,0,0,0,0,0,0,0,0,
0,0,0,0,0,0,0,0,0,0,0,0,0,0,0,0,0,0,0,0,0,0,0,0,0,0,0,0,0,0,0,0,0,0,0,0,0,0,0,0,0,0,0,0,0,0,0,0,
0,0,0,0,0,0,0,0,0,0,0,0,0,0,0,0,0,0,0,0,0,0,0,0,0,0,0,0,0,0,0,0,0,0,0,0,0,0,0,0,0,0,0,0,0,0,0,0,
0,0,0,0,0,0,0,0,0,0,0,0,0,0,0,0,0,0,0,0,0,0,0,0,0,0,0,0,0,0,0,0,0,0,0,0,0,0,0,0,0,0,0,0,0,0,0,0,
0,0,0,0,0,0,0,0,0,0,0,0,0,0,0,0,0,0,0,0,0,0,0,0,0,0,0,0,0,0,0,0,0,0,0,0,0,0,0,0,0,0,0,0,0,0,0,0,
0,0,0,0,0,0,0,0,0,0,0,0,0,0,0,0,0,0,0,0,0,0,0,0,0,0,0,0,0,0,0,0,0,0,0,0,0,0,0,0,0,0,0,0,0,0,0,0,
0,0,0,0,0,0,0,0,0,0,0,0,0,0,0,0,0,0,0,0,0,0,0,0,0,0,0,0,0,0,0,0,0,0,0,0,0,0,0,0,0,0,0,0,0,0,0,0,
0,0,0,0,0,0,0,0,0,0,0,0,0,0,0,0,0,0,0,0,0,0,0,0,0,0,0,0,0,0,0,0,0,0,0,0,0,0,0,0,0,0,0,0,0,0,0,0,
0,0,0,0,0,0,0,0,0,0,0,0,0,0,0,0,0,0,0,0,0,0,0,0,0,0,0,0,0,0,0,0,0,0,0,0,0,0,0,0,0,0,0,0,0,0,0,0,
0,0,0,0,0,0,0,0,0,0,0,0,0,0,0,0,0,0,0,0,0,0,0,0,0,0,0,0,0,0,0,0,0,0,0,0,0,0,0,0,0,0,0,0,0,0,0,0,
0,0,0,0,0,0,0,0,0,0,0,0,0,0,0,0,0,0,0,0,0,0,0,0,0,0,0,0,0,0,0,0,0,0,0,0,0,0,0,0,0,0,0,0,0,0,0,0,
0,0,0,0,0,0,0,0,0,0,0,0,0,0,0,0,0,0,0,0,0,0,0,0,0,0,0,0,0,0,0,0,0,0,0,0,0,0,0,0,0,0,0,0,0,0,0,0,
0,0,0,0,0,0,0,0,0,0,0,0,0,0,0,0,0,0,0,0,0,0,0,0,0,0,0,0,0,0,0,0,0,0,0,0,0,0,0,0,0,0,0,0,0,0,0,0,
0,0,0,0,0,0,0,0,0,0,0,0,0,0,0,0,0,0,0,0,0,0,0,0,0,0,0,0,0,0,0,0,0,0,0,0,0,0,0,0,0,0,0,0,0,0,0,0,
0,0,0,0,0,0,0,0,0,0,0,0,0,0,0,0,0,0,0,0,0,0,0,0,0,0,0,0,0,0,0,0,0,0,0,0,0,0,0,0,0,0,0,0,0,0,0,0,
0,0,0,0,0,0,0,0,0,0,0,0,0,0,0,0,0,0,0,0,0,0,0,0,0,0,0,0,0,0,0,0,0,0,0,0,0,0,0,0,0,0,0,0,0,0,0,0,
0,0,0,0,0,0,0,0,0,0,0,0,0,0,0,0,0,0,0,0,0,0,0,0,0,0,0,0,0,0,0,0,0,0,0,0,0,0,0,0,0,0,0,0,0,0,0,0,
0,0,0,0,0,0,0,0,0,0,0,0,0,0,0,0,0,0,0,0,0,0,0,0,0,0,0,0,0,0,0,0,0,0,0,0,0,0,0,0,0,0,0,0,0,0,0,0,
0,0,0,0,0,0,0,0,0,0,0,0,0,0,0,0,0,0,0,0,0,0,0,0,0,0,0,0,0,0,0,0,0,0,0,0,0,0,0,0,0,0,0,0,0,0,0,0,
0,0,0,0,0,0,0,0,0,0,0,0,0,0,0,0,0,0,0,0,0,0,0,0,0,0,0,0,0,0,0,0,0,0,0,0,0,0,0,0,0,0,0,0,0,0,0,0,
0,0,0,0,0,0,0,0,0,0,0,0,0,0,0,0,0,0,0,0,0,0,0,0,0,0,0,0,0,0,0,0,0,0,0,0,0,0,0,0,0,0,0,0,0,0,0,0,
0,0,0,0,0,0,0,0,0,0,0,0,0,0,0,0,0,0,0,0,0,0,0,0,0,0,0,0,0,0,0,0,0,0,0,0,0,0,0,0,0,0,0,0,0,0,0,0,
0,0,0,0,0,0,0,0,0,0,0,0,0,0,0,0,0,0,0,0,0,0,0,0,0,0,0,0,0,0,0,0,0,0,0,0,0,0,0,0,0,0,0,0,0,0,0,0,
0,0,0,0,0,0,0,0,0,0,0,0,0,0,0,0,0,0,0,0,0,0,0,0,0,0,0,0,0,0,0,0,0,0,0,0,0,0,0,0,0,0,0,0,0,0,0,0,
0,0,0,0,0,0,0,0,0,0,0,0,0,0,0,0,0,0,0,0,0,0,0,0,0,0,0,0,0,193,194,195,193,194,195,193,194,195,0,0,0,193,194,195,0,0,0,0,
0,0,0,0,0,0,0,0,0,0,0,0,0,0,0,0,0,0,0,0,0,0,0,0,0,0,0,0,0,201,202,203,201,202,203,201,202,203,0,0,0,201,202,203,0,193,194,195,
0,0,0,0,0,0,0,0,0,0,0,0,0,0,0,0,0,0,0,0,0,0,0,0,0,0,0,0,0,209,210,211,209,210,211,209,210,211,0,0,0,209,210,211,0,201,202,203,
0,0,0,0,0,0,0,0,0,0,0,0,0,0,0,0,0,0,0,0,0,0,0,0,0,0,0,0,0,217,218,219,217,218,219,217,218,219,0,0,0,217,218,219,0,209,210,211,
0,0,0,0,0,0,0,0,0,0,0,0,0,0,0,0,0,0,0,0,0,0,0,0,0,0,0,0,0,0,0,0,0,0,0,0,0,0,0,0,0,0,0,0,0,217,218,219,
0,0,0,0,0,0,0,0,0,0,0,0,0,0,0,0,0,0,0,0,0,0,0,0,0,0,0,0,0,193,194,195,0,0,0,0,0,0,0,0,0,0,0,0,0,0,0,0,
0,0,0,0,0,0,0,0,0,0,0,0,0,0,0,0,0,0,0,0,0,0,0,0,0,0,0,0,0,201,202,203,0,0,0,0,0,0,0,0,0,0,0,0,0,0,193,194,
0,0,0,0,0,0,0,0,0,0,0,0,0,0,0,0,0,0,0,0,0,0,0,0,0,0,0,0,0,209,210,211,0,0,0,0,0,0,0,0,0,0,0,0,0,0,201,202,
0,0,0,0,0,0,0,0,0,0,0,0,0,0,0,0,0,0,0,0,0,0,0,0,0,0,0,0,0,217,218,219,0,0,0,0,193,194,195,0,0,0,0,0,0,0,209,210,
0,0,0,0,0,0,0,0,0,0,0,0,0,0,0,0,0,0,0,0,0,0,0,0,0,0,0,0,0,0,0,0,0,193,194,195,201,202,203,0,0,0,0,0,0,0,217,218,
0,0,0,0,0,0,0,0,0,0,0,0,0,0,0,0,0,0,0,0,0,0,0,0,0,0,0,0,0,0,0,0,0,201,202,203,209,210,211,0,0,0,0,0,0,0,0,0,
0,0,0,0,0,0,0,0,0,0,0,0,0,0,0,0,0,0,0,0,0,0,0,0,0,0,0,0,0,0,0,0,0,209,210,211,217,218,219,0,0,0,0,0,0,0,0,0,
0,0,0,0,0,0,0,0,0,0,0,0,0,0,0,0,0,0,0,0,0,0,0,0,0,0,0,0,0,193,194,195,0,217,218,219,0,0,0,0,0,0,0,0,0,0,0,0,
0,0,0,0,0,0,0,0,0,0,0,0,0,0,0,0,0,0,0,0,0,0,0,0,0,0,0,0,0,201,202,203,0,0,0,0,0,0,0,0,0,0,0,0,0,0,193,194,
0,0,0,0,0,0,0,0,0,0,0,0,0,0,0,0,0,0,0,0,0,0,0,0,0,0,0,0,0,209,210,211,0,0,0,0,0,0,0,0,0,0,0,0,0,0,201,202,
0,0,0,0,0,0,0,0,0,0,0,0,0,0,0,0,0,0,0,0,0,0,0,0,0,0,0,0,0,217,218,219,0,0,0,0,0,0,0,0,0,0,0,0,0,0,209,210,
194,195,0,0,0,0,0,0,0,0,0,0,0,0,0,0,0,0,0,0,0,0,0,0,0,0,0,0,0,0,0,0,0,0,0,0,0,0,0,0,0,0,0,0,0,0,217,218,
202,203,0,0,0,1993,0,0,0,0,0,0,0,0,0,0,0,0,0,0,0,0,0,0,0,0,0,0,0,0,0,0,0,0,0,0,0,0,0,0,0,0,0,0,0,0,0,0,
210,211,0,0,0,0,0,0,0,0,0,0,0,0,0,0,0,0,0,0,0,0,0,0,0,0,0,0,0,0,0,0,0,0,0,0,0,0,0,0,0,0,0,0,0,0,0,0,
218,219,0,0,0,0,0,0,0,0,0,0,0,0,0,0,0,0,0,0,0,0,0,0,0,0,0,0,0,0,0,0,0,0,0,0,193,194,195,0,0,0,0,0,0,0,193,194,
0,0,0,0,0,0,0,0,0,0,0,0,0,0,0,0,0,0,0,0,0,0,0,0,0,0,0,0,0,193,194,195,193,194,195,0,201,202,203,0,0,0,193,194,195,0,201,202,
0,0,0,0,0,0,0,0,0,0,0,0,0,0,0,0,0,0,0,0,0,0,0,0,0,193,194,195,0,201,202,203,201,202,203,0,209,210,211,0,0,0,201,202,203,0,209,210,
0,0,0,0,0,0,0,0,0,193,194,195,0,0,0,0,0,0,0,0,0,193,194,195,0,201,202,203,0,209,210,211,209,210,211,0,217,218,219,0,0,0,209,210,211,0,217,218,
0,0,0,0,0,0,0,0,0,201,202,203,0,0,0,0,0,0,0,0,0,201,202,203,0,209,210,211,0,217,218,219,217,218,219,0,0,0,0,0,0,0,217,218,219,0,0,0
</data>
 </layer>
 <layer id="7" name="Garden(ObstaclesFront)" width="48" height="48">
  <data encoding="csv">
0,0,0,0,0,0,0,0,0,0,0,0,0,0,0,0,0,0,0,0,0,0,0,0,0,0,0,0,0,0,0,0,0,0,0,0,0,0,0,0,0,0,0,0,0,0,0,0,
0,0,0,0,0,0,0,0,0,0,0,0,0,0,0,0,0,0,0,0,0,0,0,0,0,0,0,0,0,0,0,0,0,0,0,0,0,0,0,0,0,0,0,0,0,0,0,0,
0,0,0,0,0,0,0,0,0,0,0,0,0,0,0,0,0,0,0,0,0,0,0,0,0,0,0,0,0,0,0,0,0,0,0,0,0,0,0,0,0,0,0,0,0,0,0,0,
0,0,0,0,0,0,0,0,0,0,0,0,0,0,0,0,0,0,0,0,0,0,0,0,0,0,0,0,0,0,0,0,0,0,0,0,0,0,0,0,0,0,0,0,0,0,0,0,
0,0,0,0,0,0,0,0,0,0,0,0,0,0,0,0,0,0,0,0,0,0,0,0,0,0,0,0,0,0,0,0,0,0,0,0,0,0,0,0,0,0,0,0,0,0,0,0,
0,0,0,0,0,0,0,0,0,0,0,0,0,0,0,0,0,0,0,0,0,0,0,0,0,0,0,0,0,0,0,0,0,0,0,0,0,0,0,0,0,0,0,0,0,0,0,0,
0,0,0,0,0,0,0,0,0,0,0,0,0,0,0,0,0,0,0,0,0,0,0,0,0,0,0,0,0,0,0,0,0,0,0,0,0,0,0,0,0,0,0,0,0,0,0,0,
0,0,0,0,0,0,0,0,0,0,0,0,0,0,0,0,0,0,0,0,0,0,0,0,0,0,0,0,0,0,0,0,0,0,0,0,0,0,0,0,0,0,0,0,0,0,0,0,
0,0,0,0,0,0,0,0,0,0,0,0,0,0,0,0,0,0,0,0,0,0,0,0,0,0,0,0,0,0,0,0,0,0,0,0,0,0,0,0,0,0,0,0,0,0,0,0,
0,0,0,0,0,0,0,0,0,0,0,0,0,0,0,0,0,0,0,0,0,0,0,0,0,0,0,0,0,0,0,0,0,0,0,0,0,0,0,0,0,0,0,0,0,0,0,0,
0,0,0,0,0,0,0,0,0,0,0,0,0,0,0,0,0,0,0,0,0,0,0,0,0,0,0,0,0,0,0,0,0,0,0,0,0,0,0,0,0,0,0,0,0,0,0,0,
0,0,0,0,0,0,0,0,0,0,0,0,0,0,0,0,0,0,0,0,0,0,0,0,0,0,0,0,0,0,0,0,0,0,0,0,0,0,0,0,0,0,0,0,0,0,0,0,
0,0,0,0,0,0,0,0,0,0,0,0,0,0,0,0,0,0,0,0,0,0,0,0,0,0,0,0,0,0,0,0,0,0,0,0,0,0,0,0,0,0,0,0,0,0,0,0,
0,0,0,0,0,0,0,0,0,0,0,0,0,0,0,0,0,0,0,0,0,0,0,0,0,0,0,0,0,0,0,0,0,0,0,0,0,0,0,0,0,0,0,0,0,0,0,0,
0,0,0,0,0,0,0,0,0,0,0,0,0,0,0,0,0,0,0,0,0,0,0,0,0,0,0,0,0,0,0,0,0,0,0,0,0,0,0,0,0,0,0,0,0,0,0,0,
0,0,0,0,0,0,0,0,0,0,0,0,0,0,0,0,0,0,0,0,0,0,0,0,0,0,0,0,0,0,0,0,0,0,0,0,0,0,0,0,0,0,0,0,0,0,0,0,
0,0,0,0,0,0,0,0,0,0,0,0,0,0,0,0,0,0,0,0,0,0,0,0,0,0,0,0,0,0,0,0,0,0,0,0,0,0,0,0,0,0,0,0,0,0,0,0,
0,0,0,0,0,0,0,0,0,0,0,0,0,0,0,0,0,0,0,0,0,0,0,0,0,0,0,0,0,0,0,0,0,0,0,0,0,0,0,0,0,0,0,0,0,0,0,0,
0,0,0,0,0,0,0,0,0,0,0,0,0,0,0,0,0,0,0,0,0,0,0,0,0,0,0,0,0,0,0,0,0,0,0,0,0,0,0,0,0,0,0,0,0,0,0,0,
0,0,0,0,0,0,0,0,0,0,0,0,0,0,0,0,0,0,0,0,0,0,0,0,0,0,0,0,0,0,0,0,0,0,0,0,0,0,0,0,0,0,0,0,0,0,0,0,
0,0,0,0,0,0,0,0,0,0,0,0,0,0,0,0,0,0,0,0,0,0,0,0,0,0,0,0,0,0,0,0,0,0,0,0,0,0,0,0,0,0,0,0,0,0,0,0,
0,0,0,0,0,0,0,0,0,0,0,0,0,0,0,0,0,0,0,0,0,0,0,0,0,0,0,0,0,0,0,0,0,0,0,0,0,0,0,0,0,0,0,0,0,0,0,0,
0,0,0,0,0,0,0,0,0,0,0,0,0,0,0,0,0,0,0,0,0,0,0,0,0,0,0,0,0,0,0,0,0,0,0,0,0,0,0,0,0,0,0,0,0,0,0,0,
0,0,0,0,0,0,0,0,0,0,0,0,0,0,0,0,0,0,0,0,0,0,0,0,0,0,0,0,0,0,0,0,0,0,0,0,0,0,0,0,0,0,0,0,0,0,0,0,
0,0,0,0,0,0,0,0,0,0,0,0,0,0,0,0,0,0,0,0,0,0,0,0,0,0,0,0,0,0,0,0,0,0,0,0,0,0,0,0,0,0,0,0,0,0,0,0,
0,0,0,0,0,0,0,0,0,0,0,0,0,0,0,0,0,0,0,0,0,0,0,0,0,0,0,0,0,0,0,0,0,0,0,0,0,0,0,0,0,0,0,0,0,0,0,0,
0,0,0,0,0,0,0,0,0,0,0,0,0,0,0,0,0,0,0,0,0,0,0,0,0,0,0,0,0,0,0,0,0,0,0,0,0,0,0,0,0,0,0,0,0,0,0,0,
0,0,0,0,0,0,0,0,0,0,0,0,0,0,0,0,0,0,0,0,0,0,0,0,0,0,0,0,0,0,0,0,0,0,0,0,0,0,0,0,0,0,0,0,0,0,0,0,
0,0,0,0,0,0,0,0,0,0,0,0,0,0,0,0,0,0,0,0,0,0,0,0,0,0,0,0,0,0,0,0,0,0,0,0,0,0,0,0,0,0,0,0,0,225,0,0,
0,0,0,0,0,0,0,0,0,0,0,0,0,0,0,0,0,0,0,0,0,0,0,0,0,0,0,0,0,0,0,0,0,0,0,0,0,0,0,0,0,0,0,0,0,0,0,0,
0,0,0,0,0,0,0,0,0,0,0,0,0,0,0,0,0,0,0,0,0,0,0,0,0,0,0,0,0,0,0,0,0,0,0,0,0,0,0,0,0,0,0,0,0,0,0,0,
0,0,0,0,0,0,0,0,0,0,0,0,0,0,0,0,0,0,0,0,0,0,0,0,0,0,0,0,0,0,0,0,0,0,0,0,0,0,0,0,0,0,0,0,0,0,0,0,
0,0,0,0,0,0,0,0,0,0,0,0,0,0,0,0,0,0,0,0,0,0,0,0,0,0,0,0,0,0,0,0,0,0,0,0,0,0,0,0,0,0,0,0,0,0,0,0,
0,0,0,0,0,0,0,0,0,0,0,0,0,0,0,0,0,0,0,0,0,0,0,0,0,0,0,0,0,0,0,0,0,0,0,0,0,0,0,0,0,0,0,0,0,0,193,194,
0,0,0,0,0,0,0,0,0,0,0,0,0,0,0,0,0,0,0,0,0,0,0,0,0,0,0,0,0,0,0,0,0,0,0,0,0,0,0,0,0,0,0,0,0,0,201,202,
0,0,0,0,0,0,0,0,0,0,0,0,0,0,0,0,0,0,0,0,0,0,0,0,0,0,0,0,0,0,0,0,0,0,0,193,194,195,0,0,0,0,0,0,0,0,209,210,
0,0,0,0,0,0,0,0,0,0,0,0,0,0,0,0,0,0,0,0,0,0,0,0,0,0,0,0,0,0,0,0,0,0,0,201,202,203,0,0,0,0,0,0,0,0,217,218,
0,0,0,0,0,0,0,0,0,0,0,0,0,0,0,0,0,0,0,0,0,0,0,0,0,0,0,0,0,0,0,0,0,0,0,209,210,211,0,0,0,0,0,0,0,0,0,0,
0,0,0,0,0,0,0,0,0,0,0,0,0,0,0,0,0,0,0,0,0,0,0,0,0,0,0,0,0,0,0,0,0,0,0,217,218,219,0,0,0,0,0,0,0,0,0,0,
0,0,0,0,0,0,0,0,0,0,0,0,0,0,0,0,0,0,0,0,0,0,0,0,0,0,0,0,193,194,195,0,0,0,0,0,0,0,0,0,0,0,0,0,0,0,193,194,
0,0,0,0,0,0,0,0,0,0,0,0,0,0,0,0,0,0,0,0,0,0,0,0,0,0,0,0,201,202,203,0,0,0,0,0,0,0,0,0,0,0,0,0,0,0,201,202,
0,0,0,0,0,0,0,0,0,0,0,0,0,0,0,0,0,0,0,0,0,0,0,0,0,0,0,0,209,210,211,0,0,0,0,0,0,0,0,0,0,0,0,0,0,0,209,210,
0,0,0,0,0,0,0,0,0,0,0,0,0,0,0,0,0,0,0,0,0,0,0,0,0,0,0,0,217,218,219,0,0,0,0,0,0,0,0,0,0,0,0,0,0,0,217,218,
194,195,0,0,0,0,0,0,0,0,0,0,0,0,0,0,0,0,0,0,0,0,0,0,0,0,0,0,0,0,0,0,0,0,0,0,0,0,0,0,0,0,0,0,0,0,0,0,
202,203,0,0,0,0,0,0,0,0,0,0,0,0,0,0,0,0,0,0,0,0,0,0,0,0,0,0,0,0,0,0,0,0,0,0,0,0,193,194,195,0,0,0,0,0,0,0,
210,211,0,0,0,0,0,0,0,0,0,0,0,0,0,0,0,0,0,0,0,0,0,0,0,0,0,0,0,0,0,0,0,0,0,0,0,0,201,202,203,0,0,0,0,0,0,0,
218,219,0,0,0,0,0,0,0,0,0,0,0,0,0,0,0,0,0,0,0,0,0,0,0,0,0,0,0,0,0,0,0,0,0,0,0,0,209,210,211,0,0,0,0,0,0,0,
0,0,0,0,0,0,0,0,0,0,0,0,0,0,0,0,0,0,0,0,0,0,0,0,0,0,0,0,0,0,0,0,0,0,0,0,0,0,217,218,219,0,0,0,0,0,0,0
</data>
 </layer>
 <layer id="9" name="Furniture(bot)" width="48" height="48">
  <data encoding="csv">
0,0,0,0,0,0,0,0,0,0,0,0,0,0,0,0,0,0,0,0,0,0,0,0,0,0,0,0,0,0,0,0,0,0,0,0,0,0,0,0,0,0,0,0,0,0,0,0,
0,2238,2239,0,0,0,0,0,0,0,0,0,0,0,0,0,0,0,0,0,0,0,0,0,0,0,0,2312,0,0,0,0,0,0,0,0,0,0,0,0,0,0,0,0,0,0,0,0,
0,2254,2255,0,0,0,0,0,0,0,0,0,0,0,0,0,0,2312,0,0,0,0,0,0,0,0,0,0,0,0,0,0,0,0,0,0,0,0,0,0,0,0,0,0,0,0,0,0,
0,0,0,0,0,0,0,0,0,0,0,0,0,0,0,0,0,0,0,0,0,0,0,0,0,0,0,0,0,0,0,0,0,0,0,0,0,0,0,0,0,0,0,0,0,0,0,0,
0,0,0,0,0,0,0,0,0,0,0,0,0,0,0,0,0,0,0,0,0,0,0,0,0,0,0,0,0,0,0,0,0,0,0,0,0,0,0,0,0,0,0,0,0,0,0,0,
0,0,0,0,0,0,0,0,0,88,89,90,91,0,0,0,0,0,0,0,0,0,0,0,0,0,0,0,0,0,0,0,0,0,0,0,0,0,0,0,0,0,0,0,0,0,0,0,
0,0,0,0,0,0,0,2312,0,100,101,102,103,0,0,0,0,0,0,0,0,0,0,0,0,1951,1952,0,0,0,0,0,0,0,0,2340,2341,2342,0,0,0,0,0,0,0,0,0,0,
0,0,0,0,0,0,0,0,0,112,113,114,115,0,2312,0,0,0,0,0,0,0,0,0,0,0,0,0,1950,0,0,0,0,0,0,2356,2357,0,0,2270,2271,2272,2273,0,0,0,0,0,
0,0,0,0,0,0,0,0,0,0,0,0,0,0,0,0,0,0,0,0,1953,0,0,0,0,1951,1952,0,1967,0,0,0,0,0,0,2372,2373,0,0,0,0,2288,2289,0,0,0,0,0,
0,0,0,0,0,0,0,0,0,0,0,0,0,0,0,0,0,0,0,0,1970,0,0,0,0,1968,1969,0,0,0,0,0,0,0,0,2388,2389,2390,0,0,0,2304,2305,0,0,0,0,0,
0,0,0,0,0,0,0,0,0,0,0,0,0,0,0,0,0,0,0,0,0,0,0,0,0,0,0,0,0,0,0,0,0,0,0,0,0,0,0,0,0,0,0,0,0,0,0,0,
0,0,0,0,0,0,0,0,0,0,0,0,0,0,0,0,0,0,0,0,0,0,0,1950,0,0,0,0,0,0,0,0,0,0,0,0,0,0,0,0,0,0,0,0,0,0,0,0,
0,0,0,0,0,0,0,0,0,0,2238,2239,0,0,0,0,0,0,0,0,0,1951,1952,1967,0,0,0,0,0,0,0,0,0,0,0,0,0,0,0,0,0,0,0,0,0,0,0,0,
0,0,0,0,0,0,0,0,0,0,2254,2255,0,0,0,0,0,0,0,0,0,1968,1969,0,0,0,0,0,0,0,0,0,0,0,0,0,0,0,0,0,0,0,0,0,0,0,0,0,
0,0,0,0,0,0,0,0,0,0,0,0,0,0,0,0,0,0,0,0,0,0,0,0,0,0,0,0,0,2280,2281,0,0,0,0,0,0,0,0,0,0,0,0,0,0,0,0,0,
0,0,0,0,0,0,0,0,0,0,0,0,0,0,0,0,0,0,0,0,0,0,0,0,0,0,0,0,0,2296,2297,0,0,0,0,0,0,0,0,0,0,0,0,0,0,0,0,0,
0,0,0,0,0,0,0,0,0,0,0,0,0,0,0,0,0,0,0,0,0,0,0,0,0,0,0,0,0,0,0,0,0,0,0,0,0,0,0,0,0,0,0,0,0,0,0,0,
0,0,0,0,0,0,0,0,0,0,0,0,0,0,0,2286,2287,0,0,0,0,0,0,0,0,0,0,0,0,0,0,0,0,0,0,0,0,0,0,0,0,0,0,0,0,0,0,0,
0,0,0,0,0,0,0,0,0,0,0,0,0,0,0,2302,2303,0,0,0,0,0,0,0,0,0,0,0,0,0,0,0,0,0,0,0,0,0,0,0,0,0,0,0,0,0,0,0,
0,0,0,0,0,0,0,0,0,0,0,0,0,0,0,0,0,0,0,0,0,0,0,0,0,0,0,0,0,0,0,0,0,0,0,0,0,0,0,0,0,0,0,0,0,0,0,0,
0,0,0,0,0,0,0,0,0,0,0,0,0,0,0,0,0,0,0,0,0,0,0,0,0,0,0,0,0,0,0,0,0,0,0,0,0,0,0,0,0,0,0,0,0,0,0,0,
0,0,0,0,0,0,0,0,0,0,0,0,0,0,0,0,0,0,0,0,0,0,0,0,0,0,0,0,0,0,0,0,0,0,0,0,0,0,0,0,0,0,0,0,0,0,0,0,
0,0,0,0,0,0,0,0,0,0,0,0,0,0,0,0,0,0,0,0,0,0,0,0,0,0,0,0,0,0,0,0,0,0,0,0,0,0,0,0,0,0,0,0,0,0,0,0,
0,0,0,0,2168,2169,2170,2171,2172,0,0,0,0,0,0,0,0,0,0,0,0,0,0,0,0,0,0,0,0,0,0,0,0,0,0,0,0,0,0,0,0,0,0,0,0,0,0,0,
0,0,0,0,2184,2185,2186,2187,2188,0,2312,0,0,0,0,0,0,0,0,0,0,0,0,0,0,0,0,2312,0,0,0,0,0,0,0,0,0,0,0,0,0,0,0,0,0,0,0,0,
0,0,0,0,2200,2201,2202,2203,2204,0,0,2328,2175,2176,0,0,0,0,0,0,0,0,0,0,0,0,0,0,0,0,0,0,0,0,0,0,0,0,0,0,0,0,0,0,0,0,0,0,
0,0,0,0,2216,2217,2218,2219,2220,2173,2174,0,2191,2192,0,0,0,0,0,0,0,0,0,0,0,0,0,0,0,0,0,0,0,0,0,0,0,0,0,0,0,0,0,0,0,0,0,0,
0,0,0,0,0,0,0,0,0,2189,2190,0,0,0,0,0,0,0,0,0,0,0,0,0,0,0,0,0,0,0,0,0,0,0,0,0,0,0,0,0,0,0,0,0,0,0,0,0,
0,0,0,0,0,0,0,0,0,0,0,0,0,0,0,0,0,0,2291,2292,2293,2294,2295,0,0,0,0,0,0,0,0,0,0,0,0,0,0,0,0,0,0,0,0,0,0,0,0,0,
0,2232,2233,2234,2235,2236,2237,0,0,0,0,2205,2206,2207,0,0,0,0,2307,2308,2309,2310,2311,0,0,0,0,0,0,0,0,0,0,0,0,0,0,0,0,0,0,0,0,0,0,0,0,0,
0,2248,2249,2250,2251,2252,2253,0,0,0,0,2221,2222,2223,0,0,0,0,2323,2324,2325,2326,2327,0,0,0,0,0,0,0,0,0,0,0,0,0,0,0,0,0,0,0,0,0,0,0,0,0,
0,0,0,0,0,0,0,0,0,0,0,0,0,0,0,0,0,0,0,0,0,0,0,0,0,0,0,0,0,0,0,0,0,0,0,0,0,0,0,0,0,0,0,0,0,0,0,0,
0,0,0,0,0,0,0,0,0,0,0,0,0,0,0,0,0,0,2291,2292,2293,2294,2295,0,0,0,0,0,0,0,0,0,0,0,0,0,0,0,0,0,0,0,0,0,0,0,0,0,
0,0,0,0,0,0,2232,2233,2234,2235,2236,2237,0,0,0,0,0,0,2307,2308,2309,2310,2311,0,0,0,0,0,0,0,0,0,0,0,0,0,0,0,0,0,0,0,0,0,0,0,0,0,
0,0,0,0,0,0,2248,2249,2250,2251,2252,2253,0,0,0,0,0,0,2323,2324,2325,2326,2327,0,0,0,0,0,0,0,0,0,0,0,0,0,0,0,0,0,0,0,0,0,0,0,0,0,
0,0,0,0,0,0,0,0,0,0,0,0,0,0,0,0,0,0,0,0,0,0,0,0,0,0,0,0,0,0,0,0,0,0,0,0,0,0,0,0,0,0,0,0,0,0,0,0,
0,2232,2233,2234,2235,2236,2237,0,0,0,0,0,0,0,0,0,0,0,0,2376,0,0,2378,0,0,0,0,0,0,0,0,0,0,0,0,0,0,0,0,0,0,0,0,0,0,0,0,0,
0,2248,2249,2250,2251,2252,2253,0,0,0,0,0,0,0,0,0,0,0,0,2392,0,0,2394,0,0,0,0,0,0,0,0,0,0,0,0,0,0,0,0,0,0,0,0,0,0,0,0,0,
0,0,0,0,0,0,0,0,0,0,0,0,0,0,0,0,0,0,0,0,0,0,0,0,0,0,0,0,0,0,0,0,0,0,0,0,0,0,0,0,0,0,0,0,0,0,0,0,
0,0,0,0,0,0,0,0,0,0,0,0,0,0,0,0,0,0,0,0,0,0,0,0,0,0,0,0,0,0,0,0,0,0,0,0,0,0,0,0,0,0,0,0,0,0,0,0,
0,0,0,0,0,0,0,0,0,0,0,0,0,0,0,0,0,0,0,0,0,0,0,0,0,0,0,0,0,0,0,0,0,0,0,0,0,0,0,0,0,0,0,0,0,0,0,0,
0,0,0,0,0,0,0,0,0,0,0,0,0,0,0,0,0,0,0,0,0,0,0,0,0,0,0,0,0,0,0,0,0,0,0,0,0,0,0,0,0,0,0,0,0,0,0,0,
0,0,0,0,0,0,0,0,0,0,0,0,0,0,0,0,0,0,0,0,0,0,0,0,0,0,0,0,0,0,0,0,0,0,0,0,0,0,0,0,0,0,0,0,0,0,0,0,
0,0,0,0,0,0,0,0,0,0,0,0,0,0,0,0,0,0,0,0,0,0,0,0,0,0,0,0,0,0,0,0,0,0,0,0,0,0,0,0,0,0,0,0,0,0,0,0,
0,0,0,0,0,0,0,0,0,0,0,0,0,0,0,0,0,0,0,0,0,0,0,0,0,0,0,0,0,0,0,0,0,0,0,0,0,0,0,0,0,0,0,0,0,0,0,0,
0,0,0,0,0,0,0,0,0,0,0,0,0,0,0,0,0,0,0,0,0,0,0,0,0,0,0,0,0,0,0,0,0,0,0,0,0,0,0,0,0,0,0,0,0,0,0,0,
0,0,0,0,0,0,0,0,0,0,0,0,0,0,0,0,0,0,0,0,0,0,0,0,0,0,0,0,0,0,0,0,0,0,0,0,0,0,0,0,0,0,0,0,0,0,0,0,
0,0,0,0,0,0,0,0,0,0,0,0,0,0,0,0,0,0,0,0,0,0,0,0,0,0,0,0,0,0,0,0,0,0,0,0,0,0,0,0,0,0,0,0,0,0,0,0
</data>
 </layer>
 <layer id="10" name="Furniture(top)" width="48" height="48">
  <data encoding="csv">
0,0,0,0,0,0,0,0,0,0,0,0,0,0,0,0,0,0,0,0,0,0,0,0,0,0,0,0,0,0,0,0,0,0,0,0,0,0,0,0,0,0,0,0,0,0,0,0,
0,0,0,0,0,0,0,0,0,0,0,0,0,0,0,0,0,0,0,0,0,0,0,0,0,0,0,0,0,0,0,0,0,0,0,0,0,0,0,0,0,0,0,0,0,0,0,0,
0,0,0,0,0,0,0,0,0,0,0,0,0,0,0,0,0,0,0,0,0,0,0,0,0,0,0,0,0,0,0,0,0,0,0,0,0,0,0,0,0,0,0,0,0,0,0,0,
0,0,0,0,0,0,0,0,0,0,0,0,0,0,0,0,0,0,0,0,0,0,0,0,0,0,0,0,0,0,0,0,0,0,0,0,0,0,0,0,0,0,0,0,0,0,0,0,
0,0,0,0,0,0,0,0,0,0,0,0,0,0,0,0,0,0,0,0,0,0,0,0,0,0,0,0,0,0,0,0,0,0,0,0,0,0,0,0,0,0,0,0,0,0,0,0,
0,0,0,0,0,0,0,0,0,0,0,0,0,0,0,0,0,0,0,0,0,0,0,0,0,0,0,0,0,0,0,0,0,0,0,0,0,0,0,0,0,0,0,0,0,0,0,0,
0,0,0,0,0,0,0,0,0,0,0,0,0,0,0,0,0,0,0,0,0,0,0,0,0,0,0,0,0,0,0,0,0,0,0,0,2340,0,2342,0,0,0,0,0,0,0,0,0,
0,0,0,0,0,0,0,0,0,0,0,0,0,0,0,0,0,0,0,0,0,0,0,0,0,1981,1982,1983,0,0,0,0,0,0,0,2404,2405,2406,2358,0,0,0,0,0,0,0,0,0,
0,0,0,0,0,0,0,0,0,0,0,0,0,0,0,0,0,0,0,0,0,1954,1955,0,0,1998,1999,2000,0,0,0,0,0,0,0,2420,2421,2422,2374,0,0,0,0,0,0,0,0,0,
0,0,0,0,0,0,0,0,0,0,0,0,0,0,0,0,0,0,0,0,0,1971,1972,0,0,0,0,0,0,0,0,0,0,0,0,0,0,0,2390,0,0,0,0,0,0,0,0,0,
0,0,0,0,0,0,0,0,0,0,0,0,0,0,0,0,0,0,0,0,0,0,0,0,0,0,0,0,0,0,0,0,0,0,0,0,0,0,0,0,0,0,0,0,0,0,0,0,
0,0,0,0,0,0,0,0,0,0,0,0,0,0,0,2272,2273,2272,2273,0,0,1947,1948,0,0,0,0,0,0,2280,2281,0,0,0,0,0,0,0,0,0,0,0,0,0,0,0,0,0,
0,0,0,0,0,0,0,0,0,0,0,0,0,0,0,2288,2289,2288,2289,0,0,1964,1965,0,0,0,0,0,0,2296,2297,0,0,0,0,0,0,0,0,0,0,0,0,0,0,0,0,0,
0,0,0,0,0,0,0,0,0,0,0,0,0,0,0,2304,2305,2304,2305,0,0,0,0,0,0,0,0,0,0,0,0,0,0,0,0,0,0,0,0,0,0,0,0,0,0,0,0,0,
0,0,0,0,0,0,0,0,0,0,0,0,0,0,0,0,0,0,0,0,0,0,0,2270,2271,2272,2273,0,0,0,0,0,0,0,0,0,0,0,0,0,0,0,0,0,0,0,0,0,
0,0,0,0,0,0,0,0,0,0,0,0,0,0,0,0,0,0,0,0,0,0,0,2286,2287,2288,2289,0,0,2175,2176,0,0,0,0,0,0,0,0,0,0,0,0,0,0,0,0,0,
0,0,0,0,0,0,0,0,0,0,0,0,0,0,0,2348,2349,2272,2273,0,0,0,0,2302,2303,2304,2305,0,0,2191,2192,0,0,0,0,0,0,0,0,0,0,0,0,0,0,0,0,0,
0,0,0,0,0,0,0,0,0,0,0,0,0,0,0,2364,2365,2288,2289,0,0,0,0,0,0,0,0,0,0,0,0,0,0,0,0,0,0,0,0,0,0,0,0,0,0,0,0,0,
0,0,0,0,0,0,0,0,0,0,0,0,0,0,0,0,0,2304,2305,0,0,0,0,0,0,0,0,0,0,0,0,0,0,0,0,0,0,0,0,0,0,0,0,0,0,0,0,0,
0,0,0,0,0,0,0,0,0,0,0,0,0,0,0,0,0,0,0,0,0,0,0,0,0,0,0,0,0,0,0,0,0,0,0,0,0,0,0,0,0,0,0,0,0,0,0,0,
0,0,0,0,0,0,0,0,0,0,0,0,0,0,0,0,0,0,0,0,0,0,0,2270,2271,2272,2273,0,0,0,0,0,0,0,0,0,0,0,0,0,0,0,0,0,0,0,0,0,
0,0,0,0,0,0,0,0,0,0,0,0,0,0,0,0,0,0,0,0,0,0,0,2286,2287,2288,2289,0,0,0,0,0,0,0,0,0,0,0,0,0,0,0,0,0,0,0,0,0,
0,0,0,0,0,0,0,0,0,0,0,0,0,0,0,0,0,0,0,0,0,0,0,2302,2303,2304,2305,0,0,0,0,0,0,0,0,0,0,0,0,0,0,0,0,0,0,0,0,0,
0,0,0,0,0,0,0,0,0,0,0,0,0,0,0,0,0,0,0,0,0,0,0,0,0,0,0,0,0,0,0,0,0,0,0,0,0,0,0,0,0,0,0,0,0,0,0,0,
0,0,0,0,0,0,0,0,0,0,0,0,0,0,0,0,0,0,0,0,0,0,0,0,0,0,0,0,0,0,0,0,0,0,0,0,0,0,0,0,0,0,0,0,0,0,0,0,
0,0,0,0,0,0,0,0,0,0,0,0,0,0,0,0,0,0,0,0,0,0,0,0,0,0,0,0,0,0,0,0,0,0,0,0,0,0,0,0,0,0,0,0,0,0,0,0,
0,0,0,0,0,0,0,0,0,0,0,0,0,0,0,0,0,0,0,0,0,0,0,0,0,0,0,0,0,0,0,0,0,0,0,0,0,0,0,0,0,0,0,0,0,0,0,0,
0,0,0,0,0,0,0,0,0,0,0,0,0,0,0,0,0,0,0,0,0,0,0,0,0,0,0,0,0,0,0,0,0,0,0,0,0,0,0,0,0,0,0,0,0,0,0,0,
0,0,0,0,0,0,0,0,0,0,0,0,0,0,0,0,0,0,0,0,0,0,0,0,0,0,0,0,0,0,0,0,0,0,0,0,0,0,0,0,0,0,0,0,0,0,0,0,
0,0,0,0,0,0,0,0,0,0,0,0,0,0,0,0,0,0,0,0,0,0,0,0,0,0,0,0,0,0,0,0,0,0,0,0,0,0,0,0,0,0,0,0,0,0,0,0,
0,0,0,0,0,0,0,0,0,0,0,0,0,0,0,0,0,0,0,0,0,0,0,0,0,0,0,0,0,0,0,0,0,0,0,0,0,0,0,0,0,0,0,0,0,0,0,0,
0,0,0,0,0,0,0,0,0,0,0,0,0,0,0,0,0,0,0,0,0,0,0,0,0,0,0,0,0,0,0,0,0,0,0,0,0,0,0,0,0,0,0,0,0,0,0,0,
0,0,0,0,0,0,0,0,0,0,0,0,0,0,0,0,0,0,0,0,0,0,0,0,0,0,0,0,0,0,0,0,0,0,0,0,0,0,0,0,0,0,0,0,0,0,0,0,
0,0,0,0,0,0,0,0,0,0,0,0,0,0,0,0,0,0,0,0,0,0,0,0,0,0,0,0,0,0,0,0,0,0,0,0,0,0,0,0,0,0,0,0,0,0,0,0,
0,0,0,0,0,0,0,0,0,0,0,0,0,0,0,0,0,0,0,0,0,0,0,0,0,0,0,0,0,0,0,0,0,0,0,0,0,0,0,0,0,0,0,0,0,0,0,0,
0,0,0,0,0,0,0,0,0,0,0,0,0,0,0,0,0,0,0,0,0,0,0,0,0,0,0,0,0,0,0,0,0,0,0,0,0,0,0,0,0,0,0,0,0,0,0,0,
0,0,0,0,0,0,0,0,0,0,0,0,0,0,0,0,0,0,0,2395,2396,2397,0,0,0,0,2262,2263,0,0,0,0,0,0,0,0,0,0,0,0,0,0,0,0,0,0,0,0,
0,0,0,0,0,0,0,0,0,0,0,0,0,0,0,0,0,0,0,2411,2412,2413,0,0,0,0,2278,2279,0,0,0,0,0,0,0,0,0,0,0,0,0,0,0,0,0,0,0,0,
0,0,0,0,0,0,0,0,0,0,0,2259,2260,0,0,0,0,0,0,0,0,0,0,0,0,0,0,0,0,0,0,0,0,0,0,0,0,0,0,0,0,0,0,0,0,0,0,0,
0,0,0,0,0,0,0,0,0,0,0,2275,2276,0,0,0,0,0,0,0,0,0,0,0,0,0,0,0,0,0,0,0,0,0,0,0,0,0,0,0,0,0,0,0,0,0,0,0,
0,0,0,0,0,0,0,0,0,0,0,0,0,0,0,0,0,0,0,0,0,0,0,0,0,0,0,0,0,0,0,0,0,0,0,0,0,0,0,0,0,0,0,0,0,0,0,0,
0,0,0,0,0,0,0,0,0,0,2238,2239,0,0,0,0,0,0,0,0,0,0,0,0,0,0,0,0,0,0,0,0,0,0,0,0,0,0,0,0,0,0,0,0,0,0,0,0,
0,0,0,0,0,0,0,0,0,0,2254,2255,0,0,0,0,0,0,0,0,0,0,0,0,0,0,0,0,0,0,0,0,0,0,0,0,0,0,0,0,0,0,0,0,0,0,0,0,
0,0,0,0,0,0,0,0,0,0,0,0,0,0,0,0,0,0,0,0,0,0,0,0,0,0,0,0,0,0,0,0,0,0,0,0,0,0,0,0,0,0,0,0,0,0,0,0,
0,0,0,0,0,0,0,0,0,0,0,0,0,0,0,0,0,0,0,0,0,0,0,0,0,0,0,0,0,0,0,0,0,0,0,0,0,0,0,0,0,0,0,0,0,0,0,0,
0,0,0,0,0,0,0,0,0,0,0,0,0,0,0,0,0,0,0,0,0,0,0,0,0,0,0,0,0,0,0,0,0,0,0,0,0,0,0,0,0,0,0,0,0,0,0,0,
0,0,0,0,0,0,0,0,0,0,0,0,0,0,0,0,0,0,0,0,0,0,0,0,0,0,0,0,0,0,0,0,0,0,0,0,0,0,0,0,0,0,0,0,0,0,0,0,
0,0,0,0,0,0,0,0,0,0,0,0,0,0,0,0,0,0,0,0,0,0,0,0,0,0,0,0,0,0,0,0,0,0,0,0,0,0,0,0,0,0,0,0,0,0,0,0
</data>
 </layer>
 <layer id="14" name="coinsrot)!!!!" width="48" height="48">
  <data encoding="csv">
0,0,0,0,0,0,0,0,0,0,0,0,0,0,0,0,0,0,0,0,0,0,0,0,0,0,0,0,0,0,0,0,0,0,0,0,0,0,0,0,0,0,0,0,0,0,0,0,
0,0,0,0,0,0,0,0,0,0,0,0,0,0,0,0,0,0,0,0,0,0,0,0,0,0,0,0,0,0,0,0,0,0,0,0,0,0,0,0,0,0,0,0,0,0,0,0,
0,0,0,0,0,0,0,0,0,0,0,0,0,0,0,0,0,0,0,0,0,0,0,0,0,0,0,0,0,0,0,0,0,0,0,0,0,0,0,0,0,0,0,0,0,0,0,0,
0,0,0,0,0,0,0,0,0,0,0,0,0,0,0,0,0,0,0,0,0,0,0,0,0,0,0,0,0,0,0,0,0,0,0,0,0,0,0,0,0,0,0,0,0,0,0,0,
0,0,0,0,0,0,0,0,0,0,0,0,0,0,0,0,66,0,0,0,0,0,0,0,0,0,0,0,0,0,0,0,0,0,0,0,0,0,0,0,0,0,0,0,0,0,0,0,
0,0,0,0,0,0,0,0,0,0,0,0,0,0,0,0,0,0,0,0,0,0,0,0,0,0,0,0,0,0,0,0,0,0,0,0,0,0,0,0,0,0,0,0,0,0,0,0,
0,0,0,0,0,0,0,0,0,0,0,0,0,0,0,0,0,0,0,0,0,0,0,0,0,0,0,0,0,0,0,0,0,0,0,0,0,0,0,0,0,66,0,0,0,0,0,0,
0,0,0,0,0,0,0,0,0,0,0,0,0,0,0,0,0,0,0,0,0,0,0,0,0,0,0,0,0,0,0,0,0,0,0,0,0,0,0,0,0,0,0,0,0,0,0,0,
0,0,0,0,0,0,0,0,0,0,0,0,0,0,0,0,0,0,0,0,0,0,0,0,0,0,0,0,0,0,0,0,0,0,0,0,0,0,0,0,0,0,0,0,0,0,0,0,
0,0,66,0,0,0,0,0,0,0,0,0,0,0,0,0,0,0,0,0,0,0,0,0,0,0,0,0,0,0,0,0,0,0,0,0,0,0,0,0,0,0,0,0,0,0,0,0,
0,0,0,0,0,0,0,0,0,0,0,0,0,0,0,0,0,0,0,0,0,0,0,0,0,0,0,0,0,0,0,0,0,0,0,0,0,0,0,0,0,0,0,0,0,0,0,0,
0,0,0,0,0,0,0,0,0,0,0,0,0,0,0,0,0,0,0,0,0,0,0,0,0,0,0,0,0,0,0,0,0,0,0,0,0,0,0,0,0,0,0,0,0,0,0,0,
0,0,0,0,0,0,0,0,0,0,0,0,0,0,0,0,0,0,0,0,0,0,0,0,0,0,0,0,0,0,0,0,0,0,0,0,0,0,0,0,0,0,0,0,0,0,0,0,
0,0,0,0,0,0,0,0,0,0,0,0,0,0,0,0,0,0,0,0,0,0,0,0,0,0,0,0,0,0,0,0,0,0,0,0,0,0,0,0,0,0,0,0,0,0,0,0,
0,0,0,0,0,0,0,0,0,0,0,0,0,0,0,0,0,0,0,0,0,0,0,0,0,0,0,0,0,0,0,0,0,66,0,0,0,0,0,0,0,0,0,0,0,66,0,0,
0,0,0,0,0,0,0,0,0,0,0,0,0,0,0,0,0,0,0,0,0,0,0,0,0,0,0,0,0,0,0,0,0,0,0,0,0,0,0,0,0,0,0,0,0,0,0,0,
0,0,0,0,0,0,0,0,0,0,0,0,0,0,0,0,0,0,0,0,0,0,0,0,0,0,0,0,0,0,0,0,0,0,0,0,0,0,0,0,0,0,0,0,0,0,0,0,
0,0,0,0,0,0,0,0,0,0,0,0,0,0,0,0,0,0,0,0,0,0,0,0,0,0,0,0,0,0,0,0,0,0,0,0,0,0,0,0,0,0,0,0,0,0,0,0,
0,0,0,0,0,0,0,0,0,0,0,0,0,0,0,0,0,0,0,0,0,0,0,0,0,0,0,0,0,0,0,0,0,0,0,0,0,0,0,0,0,0,0,0,0,0,0,0,
0,0,0,0,0,0,0,0,0,0,0,0,0,0,0,0,0,0,0,0,0,0,0,0,0,0,0,0,0,0,0,0,0,0,0,0,0,0,0,0,0,0,0,0,0,0,0,0,
0,0,0,0,0,0,0,0,0,0,0,0,0,0,0,0,0,0,0,0,0,0,0,0,0,0,0,0,0,0,0,0,0,0,0,0,0,0,0,0,0,0,0,0,0,0,0,0,
0,0,0,0,0,0,66,0,0,0,0,0,0,0,0,0,0,0,0,0,0,0,0,0,0,0,0,0,0,0,0,0,0,0,0,0,0,0,0,0,0,0,0,0,0,0,0,0,
0,0,0,0,0,0,0,0,0,0,0,0,0,0,0,0,0,0,0,0,0,0,0,0,0,0,0,0,0,0,0,0,0,0,0,0,0,0,0,0,0,0,0,0,0,0,0,0,
0,0,0,0,0,0,0,0,0,0,0,0,0,0,0,0,0,0,0,0,0,0,0,0,0,0,0,0,0,0,0,0,0,0,0,0,0,0,0,0,0,0,0,0,0,0,0,0,
0,0,0,0,0,0,0,0,0,0,0,0,0,0,0,0,0,0,0,0,0,0,0,0,0,0,0,0,0,0,0,0,0,0,0,0,0,0,0,0,0,0,0,0,0,0,0,0,
0,0,0,0,0,0,0,0,0,0,0,0,0,0,0,0,0,0,0,0,0,0,0,0,0,0,0,0,0,0,0,0,0,0,0,0,0,0,0,0,0,0,0,0,0,0,0,0,
0,0,0,0,0,0,0,0,0,0,0,0,0,0,0,0,0,0,0,0,0,0,0,0,0,0,0,0,0,0,0,0,0,0,0,0,0,0,0,0,0,0,0,0,0,0,0,0,
0,0,66,0,0,0,0,0,0,0,0,0,0,0,0,0,0,0,0,0,0,0,0,0,0,0,0,0,0,0,0,0,0,0,0,0,0,0,0,0,0,0,0,0,0,0,0,0,
0,0,0,0,0,0,0,0,0,0,0,0,0,0,0,0,0,0,0,0,0,0,0,0,0,0,0,0,0,0,0,0,0,0,0,0,0,0,0,0,0,0,0,0,0,0,0,0,
0,0,0,0,0,0,0,0,0,0,0,0,0,0,0,0,0,0,0,0,0,0,0,0,0,0,0,0,0,0,0,0,0,66,0,0,0,0,0,0,0,0,0,0,0,0,0,0,
0,0,0,0,0,0,0,0,0,0,0,0,0,0,0,0,0,0,0,0,0,0,0,0,0,0,0,0,0,0,0,0,0,0,0,0,0,0,0,0,0,0,0,0,0,0,0,0,
0,0,0,0,0,0,0,0,0,0,0,0,0,0,0,0,0,0,0,0,0,0,0,0,0,0,0,0,0,0,0,0,0,0,0,0,0,0,0,0,0,0,0,0,0,0,0,0,
0,0,0,0,0,0,0,0,0,0,0,0,0,0,0,0,0,0,0,0,0,0,0,0,0,0,0,0,0,0,0,0,0,0,0,0,0,0,0,0,0,0,0,0,0,0,0,0,
0,0,0,0,0,0,0,0,0,0,0,0,0,0,0,0,0,0,0,0,0,0,0,0,0,0,0,0,0,0,0,0,0,0,0,0,0,0,0,0,0,0,0,0,0,0,0,0,
0,0,0,0,0,0,0,0,0,0,0,0,0,0,0,0,0,0,0,0,0,0,0,0,0,0,0,0,0,0,0,0,0,0,0,0,0,0,0,0,0,0,0,0,0,0,0,0,
0,0,0,0,0,0,0,0,0,0,0,0,0,0,0,0,0,0,0,0,0,0,0,0,0,0,0,0,0,0,0,0,0,0,0,0,0,0,0,0,0,0,0,0,0,0,0,0,
0,0,0,0,0,0,0,0,0,0,0,0,0,0,0,0,0,0,0,0,0,0,0,0,0,0,0,0,0,0,0,0,0,0,0,0,0,0,0,0,0,0,0,0,0,0,0,0,
0,0,0,0,0,0,0,0,0,0,0,0,0,0,0,0,0,0,0,0,0,0,0,0,0,0,0,0,0,0,0,0,0,0,0,0,0,0,0,0,0,0,0,0,0,0,0,0,
0,0,0,0,0,0,0,0,0,0,0,0,0,0,0,0,0,0,0,0,0,0,0,0,0,0,0,0,0,0,0,0,0,0,0,0,0,0,0,0,0,0,0,0,0,0,0,0,
0,0,0,0,0,0,0,0,0,0,0,0,0,0,0,0,0,0,0,0,0,0,0,0,0,0,0,0,0,0,0,0,0,0,0,0,0,0,0,0,0,0,0,0,0,0,0,0,
0,0,0,0,0,0,0,0,0,0,0,0,0,0,0,0,0,0,0,0,0,0,0,0,0,0,0,0,0,0,0,0,0,0,0,0,0,0,0,0,0,0,0,0,0,0,0,0,
0,0,0,0,0,0,0,0,0,0,0,0,0,0,0,0,0,0,0,0,0,0,0,0,0,0,0,0,0,0,0,0,0,0,0,0,0,0,0,0,0,0,0,0,0,0,0,0,
0,0,0,0,0,0,0,0,0,0,0,0,0,0,0,0,0,0,0,0,0,0,0,0,0,0,0,0,0,0,0,0,0,0,0,0,0,0,0,0,0,0,0,0,0,0,0,0,
0,0,0,0,0,0,0,0,0,0,0,0,0,0,0,0,0,0,0,0,0,0,0,0,0,0,0,0,0,0,0,0,0,0,0,0,0,0,0,0,0,0,0,0,66,0,0,0,
0,0,0,0,0,0,0,0,0,0,0,0,0,0,0,0,0,0,0,0,0,0,0,0,0,0,0,0,0,0,0,0,0,0,0,0,0,0,0,0,0,0,0,0,0,0,0,0,
0,0,0,0,0,66,0,0,0,0,0,0,0,0,0,0,0,0,0,0,0,0,0,0,0,0,0,0,0,0,0,0,0,0,0,0,0,0,0,0,0,0,0,0,0,0,0,0,
0,0,0,0,0,0,0,0,0,0,0,0,0,0,0,0,0,0,0,0,0,0,0,0,0,0,0,0,0,0,0,0,0,0,0,0,0,0,0,0,0,0,0,0,0,0,0,0,
0,0,0,0,0,0,0,0,0,0,0,0,0,0,0,0,0,0,0,0,0,0,0,0,0,0,0,0,0,0,0,0,0,0,0,0,0,0,0,0,0,0,0,0,0,0,0,0
</data>
 </layer>
 <layer id="15" name="gegnerspawn türkis" width="48" height="48">
  <data encoding="csv">
0,0,0,0,0,0,0,0,0,0,0,0,0,0,0,0,0,0,0,0,0,0,0,0,0,0,0,0,0,0,0,0,0,0,0,0,0,0,0,0,0,0,0,0,0,0,0,0,
0,0,0,0,0,0,0,0,0,0,0,0,0,0,0,0,0,0,0,0,0,0,0,0,0,0,0,0,0,0,0,0,0,0,0,0,0,0,0,0,0,0,0,0,0,0,0,0,
0,0,0,0,0,0,0,0,0,0,0,0,0,0,0,0,0,0,0,0,0,0,0,0,0,0,0,0,0,0,0,0,0,0,0,0,0,0,0,0,0,0,0,0,0,0,0,0,
0,0,0,0,0,0,0,0,0,0,0,0,0,0,0,0,0,0,0,0,0,0,0,0,0,0,0,0,0,0,0,0,0,0,0,0,0,0,0,0,0,0,0,0,0,0,0,0,
0,0,0,0,0,0,0,0,0,0,0,0,0,0,0,0,0,0,0,0,0,0,0,0,0,0,0,0,0,0,0,0,0,0,0,0,0,0,0,0,0,0,0,0,0,0,0,0,
0,0,0,0,0,0,0,0,0,0,0,0,0,0,0,0,0,0,0,0,0,0,0,0,0,0,0,0,0,0,0,0,0,0,0,0,0,0,0,0,0,0,0,0,0,0,0,0,
0,0,0,0,0,0,0,0,0,0,0,0,0,0,0,0,0,0,0,0,0,0,0,0,0,0,0,0,0,0,0,0,0,0,0,0,0,0,0,0,0,0,0,0,0,0,0,0,
0,0,0,0,0,0,0,0,0,0,0,0,0,0,0,0,0,0,0,0,0,0,0,0,0,0,0,0,0,0,0,0,0,0,0,0,0,0,0,0,0,0,0,0,0,0,0,0,
0,0,0,0,0,0,0,0,0,0,0,0,0,0,0,0,0,0,0,0,0,0,0,0,0,0,0,0,0,0,0,0,0,0,0,0,0,0,0,0,0,0,0,0,0,0,0,0,
0,0,0,0,0,0,0,0,0,0,0,0,0,0,0,0,0,0,0,0,0,0,0,0,0,0,0,0,0,0,0,0,0,0,0,0,0,0,0,0,0,0,0,0,0,0,0,0,
0,0,0,0,0,0,0,0,0,0,0,0,0,0,0,0,0,0,0,0,0,0,0,0,0,0,0,0,0,0,0,0,0,0,0,0,0,0,0,0,0,0,0,0,0,0,0,0,
0,0,0,0,0,0,0,0,0,0,0,0,0,0,0,0,0,0,0,0,0,0,0,0,0,0,0,0,0,0,0,0,0,0,0,0,0,0,0,0,0,0,0,0,0,0,0,0,
0,0,0,0,0,0,0,0,0,0,0,0,0,0,0,0,0,0,0,0,0,0,0,0,0,0,0,0,0,0,0,0,0,0,0,0,0,0,0,0,0,0,0,0,0,0,0,0,
0,0,0,0,0,0,0,0,0,0,0,0,0,0,0,0,0,0,0,0,0,0,0,0,0,0,0,0,0,0,0,0,0,0,0,0,0,0,0,0,0,0,0,0,0,0,0,0,
0,0,0,0,0,0,0,0,0,0,0,0,0,0,0,0,0,0,0,0,0,0,0,0,0,0,0,0,0,0,0,0,0,0,0,0,0,0,0,0,0,0,0,0,0,0,0,0,
0,0,0,0,0,0,0,0,0,0,0,0,0,0,0,0,0,0,0,0,0,0,0,0,0,0,0,0,0,0,0,0,0,0,0,0,0,0,0,0,0,0,0,0,0,0,0,0,
0,0,0,0,0,0,0,0,0,0,0,0,0,0,0,0,0,0,0,0,0,0,0,0,0,0,0,0,0,0,0,0,0,0,0,0,0,0,0,0,0,0,0,0,0,0,0,0,
0,0,0,0,0,0,0,0,0,0,0,0,0,0,0,0,0,0,0,0,0,0,0,0,0,0,0,0,0,0,0,0,0,0,0,0,0,0,0,0,0,0,0,0,0,0,0,0,
0,0,0,0,0,0,0,0,0,0,0,0,0,0,0,0,0,0,0,0,0,0,0,0,0,0,0,0,0,0,0,0,0,0,0,0,0,0,0,0,0,0,0,0,0,0,0,0,
0,0,0,0,0,0,0,0,0,0,0,0,0,0,0,0,0,0,0,0,0,0,0,0,0,0,0,0,0,0,0,0,0,0,0,0,0,0,0,0,0,0,0,0,0,0,0,0,
0,0,0,0,0,0,0,0,0,0,0,0,0,0,0,0,0,0,0,0,0,0,0,0,0,0,0,0,0,0,0,0,0,0,0,0,0,0,0,0,0,0,0,0,0,0,0,0,
0,0,0,0,0,0,0,0,0,0,0,0,0,0,0,0,0,0,0,0,0,0,0,0,0,0,0,0,0,0,0,0,0,0,0,0,0,0,0,0,0,0,0,0,0,0,0,0,
0,0,0,0,0,0,0,0,0,0,0,0,0,0,0,0,0,0,0,0,0,0,0,0,0,0,0,0,0,0,0,0,0,0,0,0,0,0,0,0,0,0,0,0,0,0,0,0,
0,0,0,0,0,0,0,0,0,0,0,0,0,0,0,0,0,0,0,0,0,0,0,0,0,0,0,0,0,0,0,0,0,0,0,0,0,0,0,0,0,0,0,0,0,0,0,0,
0,0,0,0,0,0,0,0,0,0,0,0,0,0,0,0,0,0,0,0,0,0,0,0,0,0,0,0,0,0,0,0,0,0,0,0,0,0,0,0,0,0,0,0,0,0,0,0,
0,0,0,0,0,0,0,0,0,0,0,0,0,0,0,0,0,0,0,0,0,0,0,0,0,0,0,0,0,0,0,0,0,0,0,0,0,0,0,0,0,0,0,0,0,0,0,0,
0,0,0,0,0,0,0,0,0,0,0,0,0,0,0,0,0,0,0,0,0,0,0,0,0,0,0,0,0,0,0,0,0,0,0,0,0,0,0,0,0,0,0,0,0,0,0,0,
0,0,0,0,0,0,0,0,0,0,0,0,0,0,0,0,0,0,0,0,0,0,0,0,0,0,0,0,0,0,0,0,0,0,0,0,0,0,0,0,0,0,0,0,0,0,0,0,
0,0,0,0,0,0,0,0,0,0,0,0,0,0,0,0,0,0,0,0,0,0,0,0,0,0,0,0,0,0,0,0,0,0,0,0,0,0,0,0,0,0,0,0,0,0,0,0,
0,0,0,0,0,0,0,0,0,0,0,0,0,0,0,0,0,0,0,0,0,0,0,0,0,0,0,0,0,0,0,0,0,0,0,0,0,0,0,0,0,0,0,0,0,0,0,0,
0,0,0,0,0,0,0,0,0,0,0,0,0,0,0,0,0,0,0,0,0,0,0,0,0,0,0,0,0,0,0,0,0,0,0,0,0,0,0,0,0,0,0,0,0,0,0,0,
0,0,0,0,0,0,0,0,0,0,0,0,0,0,0,0,0,0,0,0,0,0,0,0,0,0,0,0,0,0,0,0,0,0,0,0,0,0,0,0,0,0,0,0,0,0,0,0,
0,0,0,0,0,0,0,0,0,0,0,0,0,0,0,0,0,0,0,0,0,0,0,0,0,0,0,0,0,0,0,0,0,0,0,0,0,0,0,0,0,0,0,0,0,0,0,0,
0,0,0,0,0,0,0,0,0,0,0,0,0,0,0,0,0,0,0,0,0,0,0,0,0,0,0,0,0,0,0,0,0,0,0,0,0,0,0,0,0,0,0,0,0,0,0,0,
0,0,0,0,0,0,0,0,0,0,0,0,0,0,0,0,0,0,0,0,0,0,0,0,0,0,0,0,0,0,0,0,0,0,0,0,0,0,0,0,0,0,0,0,0,0,0,0,
0,0,0,0,0,0,0,0,0,0,0,0,0,0,0,0,0,0,0,0,0,0,0,0,0,0,0,0,0,0,0,0,0,0,0,0,0,0,0,0,0,0,0,0,0,0,0,0,
0,0,0,0,0,0,0,0,0,0,0,0,0,0,0,0,0,0,0,0,0,0,0,0,0,0,0,0,0,0,0,0,0,0,0,0,0,0,0,0,0,0,0,0,0,0,0,0,
0,0,0,0,0,0,0,0,0,0,0,0,0,0,0,0,0,0,0,0,0,0,0,0,0,0,0,0,0,0,0,0,0,0,0,0,0,0,0,0,0,0,0,0,0,0,0,0,
0,0,0,0,0,0,0,0,0,0,0,0,0,0,0,0,0,0,0,0,0,0,0,0,0,0,0,0,0,0,0,0,0,0,0,0,0,0,0,0,0,0,0,0,0,0,0,0,
0,0,0,0,0,0,0,0,0,0,0,0,0,0,0,0,0,0,0,0,0,0,0,0,0,0,0,0,0,0,0,0,0,0,0,0,0,0,0,0,0,0,0,0,0,0,0,0,
0,0,0,0,0,0,0,0,0,0,0,0,0,0,0,0,0,0,0,0,0,0,0,0,0,0,0,0,0,0,0,0,0,0,0,0,0,0,0,0,0,0,0,0,0,0,0,0,
0,0,0,0,0,0,0,0,0,0,0,0,0,0,0,0,0,0,0,0,0,0,0,0,0,0,0,0,0,0,0,0,0,0,0,0,0,0,0,0,0,0,0,0,0,0,0,0,
0,0,0,0,0,0,0,0,0,0,0,0,0,0,0,0,0,0,0,0,0,0,0,0,0,0,0,0,0,0,0,0,0,0,0,0,0,0,0,0,0,0,0,0,0,0,0,0,
0,0,0,0,0,0,0,0,0,0,0,0,0,0,0,0,0,0,0,0,0,0,0,0,0,0,0,0,0,0,0,0,0,0,0,0,0,0,0,0,0,0,0,0,0,0,0,0,
0,0,0,0,0,0,0,0,0,0,0,0,0,0,0,0,0,0,0,0,0,0,0,0,0,0,0,0,0,0,0,0,0,0,0,0,0,0,0,0,0,0,0,0,0,0,0,0,
0,0,0,0,0,0,0,0,0,0,0,0,0,0,0,0,0,0,0,0,0,0,0,0,0,0,0,0,0,0,0,0,0,0,0,0,0,0,0,0,0,0,0,0,0,0,0,0,
0,0,0,0,0,0,0,0,0,0,0,0,0,0,0,0,0,0,0,0,0,0,0,0,0,0,0,0,0,0,0,0,0,0,0,0,0,0,0,0,0,0,0,0,0,0,0,0,
0,0,0,0,0,0,0,0,0,0,0,0,0,0,0,0,0,0,0,0,0,0,0,0,0,0,0,0,0,0,0,0,0,0,0,0,0,0,0,0,0,0,0,0,0,0,0,0
</data>
 </layer>
 <layer id="16" name="spielerspawnhellblau unten links" width="48" height="48" visible="0">
  <data encoding="csv">
0,0,0,0,0,0,0,0,0,0,0,0,0,0,0,0,0,0,0,0,0,0,0,0,0,0,0,0,0,0,0,0,0,0,0,0,0,0,0,0,0,0,0,0,0,0,0,0,
0,0,0,0,0,0,0,0,0,0,0,0,0,0,0,0,0,0,0,0,0,0,0,0,0,0,0,0,0,0,0,0,0,0,0,0,0,0,0,0,0,0,0,0,0,0,0,0,
0,0,0,0,0,0,0,0,0,0,0,0,0,0,0,0,0,0,0,0,0,0,0,0,0,0,0,0,0,0,0,0,0,0,0,0,0,0,0,0,0,0,0,0,0,0,0,0,
0,0,0,0,0,0,0,0,0,0,0,0,0,0,0,0,0,0,0,0,0,0,0,0,0,0,0,0,0,0,0,0,0,0,0,0,0,0,0,0,0,0,0,0,0,0,0,0,
0,0,0,0,0,0,0,0,0,0,0,0,0,0,0,0,0,0,0,0,0,0,0,0,0,0,0,0,0,0,0,0,0,0,0,0,0,0,0,0,0,0,0,0,0,0,0,0,
0,0,0,0,0,0,0,0,0,0,0,0,0,0,0,0,0,0,0,0,0,0,0,0,0,0,0,0,0,0,0,0,0,0,0,0,0,0,0,0,0,0,0,0,0,0,0,0,
0,0,0,0,0,0,0,0,0,0,0,0,0,0,0,0,0,0,0,0,0,0,0,0,0,0,0,0,0,0,0,0,0,0,0,0,0,0,0,0,0,0,0,0,0,0,0,0,
0,0,0,0,0,0,0,0,0,0,0,0,0,0,0,0,0,0,0,0,0,0,0,0,0,0,0,0,0,0,0,0,0,0,0,0,0,0,0,0,0,0,0,0,0,0,0,0,
0,0,0,0,0,0,0,0,0,0,0,0,0,0,0,0,0,0,0,0,0,0,0,0,0,0,0,0,0,0,0,0,0,0,0,0,0,0,0,0,0,0,0,0,0,0,0,0,
0,0,0,0,0,0,0,0,0,0,0,0,0,0,0,0,0,0,0,0,0,0,0,0,0,0,0,0,0,0,0,0,0,0,0,0,0,0,0,0,0,0,0,0,0,0,0,0,
0,0,0,0,0,0,0,0,0,0,0,0,0,0,0,0,0,0,0,0,0,0,0,0,0,0,0,0,0,0,0,0,0,0,0,0,0,0,0,0,0,0,0,0,0,0,0,0,
0,0,0,0,0,0,0,0,0,0,0,0,0,0,0,0,0,0,0,0,0,0,0,0,0,0,0,0,0,0,0,0,0,0,0,0,0,0,0,0,0,0,0,0,0,0,0,0,
0,0,0,0,0,0,0,0,0,0,0,0,0,0,0,0,0,0,0,0,0,0,0,0,0,0,0,0,0,0,0,0,0,0,0,0,0,0,0,0,0,0,0,0,0,0,0,0,
0,0,0,0,0,0,0,0,0,0,0,0,0,0,0,0,0,0,0,0,0,0,0,0,0,0,0,0,0,0,0,0,0,0,0,0,0,0,0,0,0,0,0,0,0,0,0,0,
0,0,0,0,0,0,0,0,0,0,0,0,0,0,0,0,0,0,0,0,0,0,0,0,0,0,0,0,0,0,0,0,0,0,0,0,0,0,0,0,0,0,0,0,0,0,0,0,
0,0,0,0,0,0,0,0,0,0,0,0,0,0,0,0,0,0,0,0,0,0,0,0,0,0,0,0,0,0,0,0,0,0,0,0,0,0,0,0,0,0,0,0,0,0,0,0,
0,0,0,0,0,0,0,0,0,0,0,0,0,0,0,0,0,0,0,0,0,0,0,0,0,0,0,0,0,0,0,0,0,0,0,0,0,0,0,0,0,0,0,0,0,0,0,0,
0,0,0,0,0,0,0,0,0,0,0,0,0,0,0,0,0,0,0,0,0,0,0,0,0,0,0,0,0,0,0,0,0,0,0,0,0,0,0,0,0,0,0,0,0,0,0,0,
0,0,0,0,0,0,0,0,0,0,0,0,0,0,0,0,0,0,0,0,0,0,0,0,0,0,0,0,0,0,0,0,0,0,0,0,0,0,0,0,0,0,0,0,0,0,0,0,
0,0,0,0,0,0,0,0,0,0,0,0,0,0,0,0,0,0,0,0,0,0,0,0,0,0,0,0,0,0,0,0,0,0,0,0,0,0,0,0,0,0,0,0,0,0,0,0,
0,0,0,0,0,0,0,0,0,0,0,0,0,0,0,0,0,0,0,0,0,0,0,0,0,0,0,0,0,0,0,0,0,0,0,0,0,0,0,0,0,0,0,0,0,0,0,0,
0,0,0,0,0,0,0,0,0,0,0,0,0,0,0,0,0,0,0,0,0,0,0,0,0,0,0,0,0,0,0,0,0,0,0,0,0,0,0,0,0,0,0,0,0,0,0,0,
0,0,0,0,0,0,0,0,0,0,0,0,0,0,0,0,0,0,0,0,0,0,0,0,0,0,0,0,0,0,0,0,0,0,0,0,0,0,0,0,0,0,0,0,0,0,0,0,
0,0,0,0,0,0,0,0,0,0,0,0,0,0,0,0,0,0,0,0,0,0,0,0,0,0,0,0,0,0,0,0,0,0,0,0,0,0,0,0,0,0,0,0,0,0,0,0,
0,0,0,0,0,0,0,0,0,0,0,0,0,0,0,0,0,0,0,0,0,0,0,0,0,0,0,0,0,0,0,0,0,0,0,0,0,0,0,0,0,0,0,0,0,0,0,0,
0,0,0,0,0,0,0,0,0,0,0,0,0,0,0,0,0,0,0,0,0,0,0,0,0,0,0,0,0,0,0,0,0,0,0,0,0,0,0,0,0,0,0,0,0,0,0,0,
0,0,0,0,0,0,0,0,0,0,0,0,0,0,0,0,0,0,0,0,0,0,0,0,0,0,0,0,0,0,0,0,0,0,0,0,0,0,0,0,0,0,0,0,0,0,0,0,
0,0,0,0,0,0,0,0,0,0,0,0,0,0,0,0,0,0,0,0,0,0,0,0,0,0,0,0,0,0,0,0,0,0,0,0,0,0,0,0,0,0,0,0,0,0,0,0,
0,0,0,0,0,0,0,0,0,0,0,0,0,0,0,0,0,0,0,0,0,0,0,0,0,0,0,0,0,0,0,0,0,0,0,0,0,0,0,0,0,0,0,0,0,0,0,0,
0,0,0,0,0,0,0,0,0,0,0,0,0,0,0,0,0,0,0,0,0,0,0,0,0,0,0,0,0,0,0,0,0,0,0,0,0,0,0,0,0,0,0,0,0,0,0,0,
0,0,0,0,0,0,0,0,0,0,0,0,0,0,0,0,0,0,0,0,0,0,0,0,0,0,0,0,0,0,0,0,0,0,0,0,0,0,0,0,0,0,0,0,0,0,0,0,
0,0,0,0,0,0,0,0,0,0,0,0,0,0,0,0,0,0,0,0,0,0,0,0,0,0,0,0,0,0,0,0,0,0,0,0,0,0,0,0,0,0,0,0,0,0,0,0,
0,0,0,0,0,0,0,0,0,0,0,0,0,0,0,0,0,0,0,0,0,0,0,0,0,0,0,0,0,0,0,0,0,0,0,0,0,0,0,0,0,0,0,0,0,0,0,0,
0,0,0,0,0,0,0,0,0,0,0,0,0,0,0,0,0,0,0,0,0,0,0,0,0,0,0,0,0,0,0,0,0,0,0,0,0,0,0,0,0,0,0,0,0,0,0,0,
0,0,0,0,0,0,0,0,0,0,0,0,0,0,0,0,0,0,0,0,0,0,0,0,0,0,0,0,0,0,0,0,0,0,0,0,0,0,0,0,0,0,0,0,0,0,0,0,
0,0,0,0,0,0,0,0,0,0,0,0,0,0,0,0,0,0,0,0,0,0,0,0,0,0,0,0,0,0,0,0,0,0,0,0,0,0,0,0,0,0,0,0,0,0,0,0,
0,0,0,0,0,0,0,0,0,0,0,0,0,0,0,0,0,0,0,0,0,0,0,0,0,0,0,0,0,0,0,0,0,0,0,0,0,0,0,0,0,0,0,0,0,0,0,0,
0,0,0,0,0,0,0,0,0,0,0,0,0,0,0,0,0,0,0,0,0,0,0,0,0,0,0,0,0,0,0,0,0,0,0,0,0,0,0,0,0,0,0,0,0,0,0,0,
0,0,0,0,0,0,0,0,0,0,0,0,0,0,0,0,0,0,0,0,0,0,0,0,0,0,0,0,0,0,0,0,0,0,0,0,0,0,0,0,0,0,0,0,0,0,0,0,
0,0,0,0,0,0,0,0,0,0,0,0,0,0,0,0,0,0,0,0,0,0,0,0,0,0,0,0,0,0,0,0,0,0,0,0,0,0,0,0,0,0,0,0,0,0,0,0,
0,0,0,0,0,0,0,0,0,0,0,0,0,0,0,0,0,0,0,0,0,0,0,0,0,0,0,0,0,0,0,0,0,0,0,0,0,0,0,0,0,0,0,0,0,0,0,0,
0,0,0,0,0,0,0,0,0,0,0,0,0,0,0,0,0,0,0,0,0,0,0,0,0,0,0,0,0,0,0,0,0,0,0,0,0,0,0,0,0,0,0,0,0,0,0,0,
0,0,0,0,0,0,0,0,0,0,0,0,0,0,0,0,0,0,0,0,0,0,0,0,0,0,0,0,0,0,0,0,0,0,0,0,0,0,0,0,0,0,0,0,0,0,0,0,
0,0,0,0,0,0,0,0,0,0,0,0,0,0,0,0,0,0,0,0,0,0,0,0,0,0,0,0,0,0,0,0,0,0,0,0,0,0,0,0,0,0,0,0,0,0,0,0,
0,0,0,0,0,0,0,0,0,0,0,0,0,0,0,0,0,0,0,0,0,0,0,0,0,0,0,0,0,0,0,0,0,0,0,0,0,0,0,0,0,0,0,0,0,0,0,0,
0,0,0,0,0,0,0,0,0,0,0,0,0,0,0,0,0,0,0,0,0,0,0,0,0,0,0,0,0,0,0,0,0,0,0,0,0,0,0,0,0,0,0,0,0,0,0,0,
0,0,0,0,0,0,0,0,0,0,0,0,0,0,0,0,0,0,0,0,0,0,0,0,0,0,0,0,0,0,0,0,0,0,0,0,0,0,0,0,0,0,0,0,0,0,0,0,
0,0,0,0,0,0,0,0,0,0,0,0,0,0,0,0,0,0,0,0,0,0,0,0,0,0,0,0,0,0,0,0,0,0,0,0,0,0,0,0,0,0,0,0,0,0,0,0
</data>
 </layer>
 <objectgroup color="#ff2600" id="13" name="collision">
  <object id="1" x="14.8243" y="371.745" width="233.348" height="39.0797">
   <properties>
    <property name="height" type="float" value="39.08"/>
    <property name="width" type="float" value="233.35"/>
    <property name="x" type="float" value="14.82"/>
    <property name="y" type="float" value="371.75"/>
   </properties>
  </object>
  <object id="26" x="17.4679" y="2.33843" width="733.024" height="42.3886">
   <properties>
    <property name="height" type="float" value="42.39"/>
    <property name="width" type="float" value="733.02"/>
    <property name="x" type="float" value="17.47"/>
    <property name="y" type="float" value="2.34"/>
   </properties>
  </object>
  <object id="3" x="498.695" y="50.4787" width="10.1215" height="72.9596">
   <properties>
    <property name="height" type="float" value="72.96"/>
    <property name="width" type="float" value="10.12"/>
    <property name="x" type="float" value="498.69"/>
    <property name="y" type="float" value="50.48"/>
   </properties>
  </object>
  <object id="41" x="289.9" y="78.1158" width="74.4988" height="15.4253">
   <properties>
    <property name="height" type="float" value="15.43"/>
    <property name="width" type="float" value="74.5"/>
    <property name="x" type="float" value="289.9"/>
    <property name="y" type="float" value="78.12"/>
   </properties>
  </object>
  <object id="42" x="402.803" y="115.406" width="58.4154" height="24.4159">
   <properties>
    <property name="height" type="float" value="24.42"/>
    <property name="width" type="float" value="58.42"/>
    <property name="x" type="float" value="402.8"/>
    <property name="y" type="float" value="115.41"/>
   </properties>
  </object>
  <object id="43" x="340.154" y="130.449" width="24.9608" height="27.8404">
   <properties>
    <property name="height" type="float" value="27.84"/>
    <property name="width" type="float" value="24.96"/>
    <property name="x" type="float" value="340.15"/>
    <property name="y" type="float" value="130.45"/>
   </properties>
  </object>
  <object id="44" x="400.944" y="113.283" width="44.9476" height="29.2835">
   <properties>
    <property name="height" type="float" value="29.28"/>
    <property name="width" type="float" value="44.95"/>
    <property name="x" type="float" value="400.94"/>
    <property name="y" type="float" value="113.28"/>
   </properties>
  </object>
  <object id="45" x="515.078" y="49.2651" width="134.515" height="29.2363">
   <properties>
    <property name="height" type="float" value="29.24"/>
    <property name="width" type="float" value="134.51"/>
    <property name="x" type="float" value="515.08"/>
    <property name="y" type="float" value="49.27"/>
   </properties>
  </object>
  <object id="46" x="721.552" y="80.8962" width="29.7687" height="61.7023">
   <properties>
    <property name="height" type="float" value="61.7"/>
    <property name="width" type="float" value="29.77"/>
    <property name="x" type="float" value="721.55"/>
    <property name="y" type="float" value="80.9"/>
   </properties>
  </object>
  <object id="47" x="658.889" y="211.28" width="24.6846" height="25.0227">
   <properties>
    <property name="height" type="float" value="25.02"/>
    <property name="width" type="float" value="24.68"/>
    <property name="x" type="float" value="658.89"/>
    <property name="y" type="float" value="211.28"/>
   </properties>
  </object>
  <object id="48" x="547.845" y="259.823" width="165.461" height="9.24603">
   <properties>
    <property name="height" type="float" value="9.25"/>
    <property name="width" type="float" value="165.46"/>
    <property name="x" type="float" value="547.85"/>
    <property name="y" type="float" value="259.82"/>
   </properties>
  </object>
  <object id="49" x="546.632" y="291.984" width="165.461" height="9.24603">
   <properties>
    <property name="height" type="float" value="9.25"/>
    <property name="width" type="float" value="165.46"/>
    <property name="x" type="float" value="546.63"/>
    <property name="y" type="float" value="291.98"/>
   </properties>
  </object>
  <object id="50" x="547.845" y="323.537" width="165.461" height="9.24603">
   <properties>
    <property name="height" type="float" value="9.25"/>
    <property name="width" type="float" value="165.46"/>
    <property name="x" type="float" value="547.85"/>
    <property name="y" type="float" value="323.54"/>
   </properties>
  </object>
  <object id="51" x="419.241" y="434.545" width="25.8146" height="135.902">
   <properties>
    <property name="height" type="float" value="135.9"/>
    <property name="width" type="float" value="25.81"/>
    <property name="x" type="float" value="419.24"/>
    <property name="y" type="float" value="434.55"/>
   </properties>
  </object>
  <object id="4" x="19.026" y="209.92" width="57.7243" height="150.698">
   <properties>
    <property name="height" type="float" value="150.7"/>
    <property name="width" type="float" value="57.72"/>
    <property name="x" type="float" value="19.03"/>
    <property name="y" type="float" value="209.92"/>
   </properties>
  </object>
  <object id="28" x="117.658" y="53.1373" width="116.974" height="70.66">
   <properties>
    <property name="height" type="float" value="70.66"/>
    <property name="width" type="float" value="116.97"/>
    <property name="x" type="float" value="117.66"/>
    <property name="y" type="float" value="53.14"/>
   </properties>
  </object>
  <object id="23" x="0.173571" y="612.254" width="172.708" height="41.306">
   <properties>
    <property name="height" type="float" value="41.31"/>
    <property name="width" type="float" value="172.71"/>
    <property name="x" type="float" value="0.17"/>
    <property name="y" type="float" value="612.25"/>
   </properties>
  </object>
  <object id="24" x="292.555" y="611.345" width="153.144" height="40.8751">
   <properties>
    <property name="height" type="float" value="40.88"/>
    <property name="width" type="float" value="153.14"/>
    <property name="x" type="float" value="292.56"/>
    <property name="y" type="float" value="611.35"/>
   </properties>
  </object>
  <object id="25" x="0.0298623" y="659.026" width="30.6622" height="107.365">
   <properties>
    <property name="height" type="float" value="107.36"/>
    <property name="width" type="float" value="30.66"/>
    <property name="x" type="float" value="0.03"/>
    <property name="y" type="float" value="659.03"/>
   </properties>
  </object>
  <object id="6" x="451.474" y="370.441" width="154.982" height="73.0471">
   <properties>
    <property name="height" type="float" value="73.05"/>
    <property name="width" type="float" value="154.98"/>
    <property name="x" type="float" value="451.47"/>
    <property name="y" type="float" value="370.44"/>
   </properties>
  </object>
  <object id="29" x="515.218" y="165.555" width="231.882" height="36.6957">
   <properties>
    <property name="height" type="float" value="36.7"/>
    <property name="width" type="float" value="231.88"/>
    <property name="x" type="float" value="515.22"/>
    <property name="y" type="float" value="165.56"/>
   </properties>
  </object>
  <object id="7" x="693.14" y="370.945" width="73.2634" height="42.1808">
   <properties>
    <property name="height" type="float" value="42.18"/>
    <property name="width" type="float" value="73.26"/>
    <property name="x" type="float" value="693.14"/>
    <property name="y" type="float" value="370.94"/>
   </properties>
  </object>
  <object id="30" x="722.136" y="418.663" width="43.9174" height="42.1808">
   <properties>
    <property name="height" type="float" value="42.18"/>
    <property name="width" type="float" value="43.92"/>
    <property name="x" type="float" value="722.14"/>
    <property name="y" type="float" value="418.66"/>
   </properties>
  </object>
  <object id="33" x="659.321" y="372.63" width="41.4881" height="73.7616">
   <properties>
    <property name="height" type="float" value="73.76"/>
    <property name="width" type="float" value="41.49"/>
    <property name="x" type="float" value="659.32"/>
    <property name="y" type="float" value="372.63"/>
   </properties>
  </object>
  <object id="14" x="465.01" y="705.789" width="270.181" height="59.8521">
   <properties>
    <property name="height" type="float" value="59.85"/>
    <property name="width" type="float" value="270.18"/>
    <property name="x" type="float" value="465.01"/>
    <property name="y" type="float" value="705.79"/>
   </properties>
  </object>
  <object id="15" x="162.489" y="642.75" width="39.4724" height="41.5987">
   <properties>
    <property name="height" type="float" value="41.6"/>
    <property name="width" type="float" value="39.47"/>
    <property name="x" type="float" value="162.49"/>
    <property name="y" type="float" value="642.75"/>
   </properties>
  </object>
  <object id="32" x="262.087" y="642.374" width="39.4724" height="41.5987">
   <properties>
    <property name="height" type="float" value="41.6"/>
    <property name="width" type="float" value="39.47"/>
    <property name="x" type="float" value="262.09"/>
    <property name="y" type="float" value="642.37"/>
   </properties>
  </object>
  <object id="52" x="322.132" y="648.133" width="44.1391" height="37.8398">
   <properties>
    <property name="height" type="float" value="37.84"/>
    <property name="width" type="float" value="44.14"/>
    <property name="x" type="float" value="322.13"/>
    <property name="y" type="float" value="648.13"/>
   </properties>
  </object>
  <object id="53" x="401.343" y="645.521" width="41.1391" height="40.5065">
   <properties>
    <property name="height" type="float" value="40.51"/>
    <property name="width" type="float" value="41.14"/>
    <property name="x" type="float" value="401.34"/>
    <property name="y" type="float" value="645.52"/>
   </properties>
  </object>
  <object id="54" x="67.2458" y="657.692" width="39.4724" height="27.5065">
   <properties>
    <property name="height" type="float" value="27.51"/>
    <property name="width" type="float" value="39.47"/>
    <property name="x" type="float" value="67.25"/>
    <property name="y" type="float" value="657.69"/>
   </properties>
  </object>
  <object id="38" x="404.101" y="724.441" width="39.4724" height="41.5987">
   <properties>
    <property name="height" type="float" value="41.6"/>
    <property name="width" type="float" value="39.47"/>
    <property name="x" type="float" value="404.1"/>
    <property name="y" type="float" value="724.44"/>
   </properties>
  </object>
  <object id="37" x="340.307" y="737.905" width="39.4724" height="27.814">
   <properties>
    <property name="height" type="float" value="27.81"/>
    <property name="width" type="float" value="39.47"/>
    <property name="x" type="float" value="340.31"/>
    <property name="y" type="float" value="737.9"/>
   </properties>
  </object>
  <object id="39" x="340.307" y="737.905" width="39.4724" height="27.814">
   <properties>
    <property name="height" type="float" value="27.81"/>
    <property name="width" type="float" value="39.47"/>
    <property name="x" type="float" value="340.31"/>
    <property name="y" type="float" value="737.9"/>
   </properties>
  </object>
  <object id="17" x="497.951" y="343.654" width="10.9024" height="22.2547">
   <properties>
    <property name="height" type="float" value="22.25"/>
    <property name="width" type="float" value="10.9"/>
    <property name="x" type="float" value="497.95"/>
    <property name="y" type="float" value="343.65"/>
   </properties>
  </object>
  <object id="20" x="498.91" y="163.818" width="10.8636" height="123.022">
   <properties>
    <property name="height" type="float" value="123.02"/>
    <property name="width" type="float" value="10.86"/>
    <property name="x" type="float" value="498.91"/>
    <property name="y" type="float" value="163.82"/>
   </properties>
  </object>
  <object id="21" x="753.664" y="1.64652" width="12.9258" height="368.501">
   <properties>
    <property name="height" type="float" value="368.5"/>
    <property name="width" type="float" value="12.93"/>
    <property name="x" type="float" value="753.66"/>
    <property name="y" type="float" value="1.65"/>
   </properties>
  </object>
  <object id="22" x="1.36228" y="3.29938" width="11.8283" height="603.285">
   <properties>
    <property name="height" type="float" value="607.28"/>
    <property name="width" type="float" value="13.83"/>
    <property name="x" type="float" value="1.36"/>
    <property name="y" type="float" value="3.3"/>
   </properties>
  </object>
  <object id="9" x="569.961" y="591.991" width="28.2204" height="30.0513">
   <properties>
    <property name="height" type="float" value="30.05"/>
    <property name="width" type="float" value="28.22"/>
    <property name="x" type="float" value="569.96"/>
    <property name="y" type="float" value="591.99"/>
   </properties>
  </object>
  <object id="13" x="737.237" y="481.239" width="28.7641" height="284.866">
   <properties>
    <property name="height" type="float" value="284.87"/>
    <property name="width" type="float" value="28.76"/>
    <property name="x" type="float" value="737.24"/>
    <property name="y" type="float" value="481.24"/>
   </properties>
  </object>
  <object id="10" x="540.526" y="561.421" width="20.4615" height="27.4512">
   <properties>
    <property name="height" type="float" value="27.45"/>
    <property name="width" type="float" value="20.46"/>
    <property name="x" type="float" value="540.53"/>
    <property name="y" type="float" value="561.42"/>
   </properties>
  </object>
  <object id="35" x="473.518" y="610.391" width="27.1863" height="20.1179">
   <properties>
    <property name="height" type="float" value="20.12"/>
    <property name="width" type="float" value="27.19"/>
    <property name="x" type="float" value="473.52"/>
    <property name="y" type="float" value="610.39"/>
   </properties>
  </object>
  <object id="36" x="455.349" y="654.331" width="31.8323" height="27.8651">
   <properties>
    <property name="height" type="float" value="27.87"/>
    <property name="width" type="float" value="31.83"/>
    <property name="x" type="float" value="455.35"/>
    <property name="y" type="float" value="654.33"/>
   </properties>
  </object>
  <object id="34" x="468.164" y="466.978" width="40.6713" height="57.0244">
   <properties>
    <property name="height" type="float" value="57.02"/>
    <property name="width" type="float" value="40.67"/>
    <property name="x" type="float" value="468.16"/>
    <property name="y" type="float" value="466.98"/>
   </properties>
  </object>
  <object id="11" x="343.044" y="372.269" width="102.695" height="38.0998">
   <properties>
    <property name="height" type="float" value="38.1"/>
    <property name="width" type="float" value="102.69"/>
    <property name="x" type="float" value="343.04"/>
    <property name="y" type="float" value="372.27"/>
   </properties>
  </object>
  <object id="12" x="451.184" y="440.562" width="10.1825" height="179.731">
   <properties>
    <property name="height" type="float" value="179.73"/>
    <property name="width" type="float" value="10.18"/>
    <property name="x" type="float" value="451.18"/>
    <property name="y" type="float" value="440.56"/>
   </properties>
  </object>
  <object id="8" x="151.257" y="182.677" width="81.5653" height="177.379">
   <properties>
    <property name="height" type="float" value="177.38"/>
    <property name="width" type="float" value="81.57"/>
    <property name="x" type="float" value="151.26"/>
    <property name="y" type="float" value="182.68"/>
   </properties>
  </object>
  <object id="27" x="18.7521" y="85.2094" width="91.6657" height="40.2086">
   <properties>
    <property name="height" type="float" value="40.21"/>
    <property name="width" type="float" value="91.67"/>
    <property name="x" type="float" value="18.75"/>
    <property name="y" type="float" value="85.21"/>
   </properties>
  </object>
  <object id="55" x="241.636" y="193.091" width="60" height="28.5455">
   <properties>
    <property name="height" type="float" value="28.55"/>
    <property name="width" type="float" value="60"/>
    <property name="x" type="float" value="241.64"/>
    <property name="y" type="float" value="193.09"/>
   </properties>
  </object>
  <object id="57" x="241.273" y="274.182" width="60.3636" height="27.6364">
   <properties>
    <property name="height" type="float" value="27.64"/>
    <property name="width" type="float" value="60.36"/>
    <property name="x" type="float" value="241.27"/>
    <property name="y" type="float" value="274.18"/>
   </properties>
  </object>
  <object id="58" x="295.273" y="471.455" width="65.8182" height="17.0909">
   <properties>
    <property name="height" type="float" value="17.09"/>
    <property name="width" type="float" value="65.82"/>
    <property name="x" type="float" value="295.27"/>
    <property name="y" type="float" value="471.45"/>
   </properties>
  </object>
  <object id="59" x="320.545" y="451.273" width="14.5455" height="43.8182">
   <properties>
    <property name="height" type="float" value="43.82"/>
    <property name="width" type="float" value="14.55"/>
    <property name="x" type="float" value="320.55"/>
    <property name="y" type="float" value="451.27"/>
   </properties>
  </object>
  <object id="60" x="295.273" y="534.576" width="64.1818" height="16.5151">
   <properties>
    <property name="height" type="float" value="16.52"/>
    <property name="width" type="float" value="64.18"/>
    <property name="x" type="float" value="295.27"/>
    <property name="y" type="float" value="534.58"/>
   </properties>
  </object>
  <object id="61" x="321.273" y="517.455" width="13.8182" height="40.9091">
   <properties>
    <property name="height" type="float" value="40.91"/>
    <property name="width" type="float" value="13.82"/>
    <property name="x" type="float" value="321.27"/>
    <property name="y" type="float" value="517.46"/>
   </properties>
  </object>
  <object id="62" x="304.727" y="590.94" width="61.4545" height="16.6667">
   <properties>
    <property name="height" type="float" value="16.67"/>
    <property name="width" type="float" value="61.45"/>
    <property name="x" type="float" value="304.73"/>
    <property name="y" type="float" value="590.94"/>
   </properties>
  </object>
  <object id="63" x="417.091" y="578.364" width="29.4545" height="28.9091">
   <properties>
    <property name="height" type="float" value="28.91"/>
    <property name="width" type="float" value="29.45"/>
    <property name="x" type="float" value="417.09"/>
    <property name="y" type="float" value="578.36"/>
   </properties>
  </object>
  <object id="64" x="176" y="611.5" width="30.5" height="27.75">
   <properties>
    <property name="height" type="float" value="27.75"/>
    <property name="width" type="float" value="30.5"/>
    <property name="x" type="float" value="176"/>
    <property name="y" type="float" value="611.5"/>
   </properties>
  </object>
  <object id="65" x="105.17" y="528.625" width="69.4545" height="30.375">
   <properties>
    <property name="height" type="float" value="30.38"/>
    <property name="width" type="float" value="69.45"/>
    <property name="x" type="float" value="105.17"/>
    <property name="y" type="float" value="528.63"/>
   </properties>
  </object>
  <object id="66" x="24.4773" y="465" width="70.5454" height="30.1818">
   <properties>
    <property name="height" type="float" value="30.18"/>
    <property name="width" type="float" value="70.55"/>
    <property name="x" type="float" value="24.48"/>
    <property name="y" type="float" value="465"/>
   </properties>
  </object>
  <object id="67" x="25.1818" y="577.875" width="73.1023" height="28.375">
   <properties>
    <property name="height" type="float" value="28.38"/>
    <property name="width" type="float" value="73.1"/>
    <property name="x" type="float" value="25.18"/>
    <property name="y" type="float" value="577.88"/>
   </properties>
  </object>
  <object id="68" x="184.773" y="464.977" width="21.2727" height="29.0909">
   <properties>
    <property name="height" type="float" value="29.09"/>
    <property name="width" type="float" value="21.27"/>
    <property name="x" type="float" value="184.77"/>
    <property name="y" type="float" value="464.98"/>
   </properties>
  </object>
  <object id="69" x="149.227" y="426.205" width="21.4545" height="23.4545">
   <properties>
    <property name="height" type="float" value="23.45"/>
    <property name="width" type="float" value="21.45"/>
    <property name="x" type="float" value="149.23"/>
    <property name="y" type="float" value="426.2"/>
   </properties>
  </object>
  <object id="70" x="65.8864" y="405.841" width="76.7273" height="25.0909">
   <properties>
    <property name="height" type="float" value="25.09"/>
    <property name="width" type="float" value="76.73"/>
    <property name="x" type="float" value="65.89"/>
    <property name="y" type="float" value="405.84"/>
   </properties>
  </object>
  <object id="71" x="192.909" y="407.523" width="30.1818" height="23.2727">
   <properties>
    <property name="height" type="float" value="23.27"/>
    <property name="width" type="float" value="30.18"/>
    <property name="x" type="float" value="192.91"/>
    <property name="y" type="float" value="407.52"/>
   </properties>
  </object>
  <object id="72" x="353" y="410.795" width="14" height="20.1818">
   <properties>
    <property name="height" type="float" value="20.18"/>
    <property name="width" type="float" value="14"/>
    <property name="x" type="float" value="353"/>
    <property name="y" type="float" value="410.8"/>
   </properties>
  </object>
  <object id="73" x="369.795" y="338.068" width="60.1818" height="28.7273">
   <properties>
    <property name="height" type="float" value="28.73"/>
    <property name="width" type="float" value="60.18"/>
    <property name="x" type="float" value="369.8"/>
    <property name="y" type="float" value="338.07"/>
   </properties>
  </object>
  <object id="74" x="369.75" y="241.75" width="60.3636" height="28.5455">
   <properties>
    <property name="height" type="float" value="28.55"/>
    <property name="width" type="float" value="60.36"/>
    <property name="x" type="float" value="369.75"/>
    <property name="y" type="float" value="241.75"/>
   </properties>
  </object>
  <object id="75" x="465.182" y="226.364" width="28.1818" height="43.6364">
   <properties>
    <property name="height" type="float" value="43.64"/>
    <property name="width" type="float" value="28.18"/>
    <property name="x" type="float" value="465.18"/>
    <property name="y" type="float" value="226.36"/>
   </properties>
  </object>
  <object id="76" x="466.523" y="176.886" width="29.4545" height="30">
   <properties>
    <property name="height" type="float" value="30"/>
    <property name="width" type="float" value="29.45"/>
    <property name="x" type="float" value="466.52"/>
    <property name="y" type="float" value="176.89"/>
   </properties>
  </object>
  <object id="77" x="452.273" y="42.0909" width="24" height="20.3636">
   <properties>
    <property name="height" type="float" value="20.36"/>
    <property name="width" type="float" value="24"/>
    <property name="x" type="float" value="452.27"/>
    <property name="y" type="float" value="42.09"/>
   </properties>
  </object>
  <object id="78" x="479.455" y="38.9545" width="16.9091" height="17.1212">
   <properties>
    <property name="height" type="float" value="17.12"/>
    <property name="width" type="float" value="16.91"/>
    <property name="x" type="float" value="479.45"/>
    <property name="y" type="float" value="38.95"/>
   </properties>
  </object>
  <object id="79" x="560.75" y="120.417" width="44.625" height="23.0833">
   <properties>
    <property name="height" type="float" value="23.08"/>
    <property name="width" type="float" value="44.63"/>
    <property name="x" type="float" value="560.75"/>
    <property name="y" type="float" value="120.42"/>
   </properties>
  </object>
  <object id="80" x="609.625" y="127.083" width="12.125" height="16.7917">
   <properties>
    <property name="height" type="float" value="16.79"/>
    <property name="width" type="float" value="12.13"/>
    <property name="x" type="float" value="609.63"/>
    <property name="y" type="float" value="127.08"/>
   </properties>
  </object>
  <object id="81" x="657.25" y="129.125" width="29.625" height="29.375">
   <properties>
    <property name="height" type="float" value="29.38"/>
    <property name="width" type="float" value="29.63"/>
    <property name="x" type="float" value="657.25"/>
    <property name="y" type="float" value="129.13"/>
   </properties>
  </object>
  <object id="82" x="674.5" y="44" width="58.25" height="18">
   <properties>
    <property name="height" type="float" value="18"/>
    <property name="width" type="float" value="58.25"/>
    <property name="x" type="float" value="674.5"/>
    <property name="y" type="float" value="44"/>
   </properties>
  </object>
  <object id="83" x="577.5" y="102.667" width="12.875" height="54.4583">
   <properties>
    <property name="height" type="float" value="54.46"/>
    <property name="width" type="float" value="12.88"/>
    <property name="x" type="float" value="577.5"/>
    <property name="y" type="float" value="102.67"/>
   </properties>
  </object>
  <object id="84" x="310.545" y="85.4545" width="16.3636" height="25.8182">
   <properties>
    <property name="height" type="float" value="25.82"/>
    <property name="width" type="float" value="16.36"/>
    <property name="x" type="float" value="310.55"/>
    <property name="y" type="float" value="85.45"/>
   </properties>
  </object>
  <object id="85" x="409.091" y="106.273" width="10.7273" height="51.6364">
   <properties>
    <property name="height" type="float" value="51.64"/>
    <property name="width" type="float" value="10.73"/>
    <property name="x" type="float" value="409.09"/>
    <property name="y" type="float" value="106.27"/>
   </properties>
  </object>
  <object id="86" x="409.273" y="135.091" width="10.7273" height="23.8182">
   <properties>
    <property name="height" type="float" value="23.82"/>
    <property name="width" type="float" value="10.73"/>
    <property name="x" type="float" value="409.27"/>
    <property name="y" type="float" value="135.09"/>
   </properties>
  </object>
  <object id="87" x="321.455" y="144.727" width="12.5455" height="13.6364">
   <properties>
    <property name="height" type="float" value="13.64"/>
    <property name="width" type="float" value="12.55"/>
    <property name="x" type="float" value="321.45"/>
    <property name="y" type="float" value="144.73"/>
   </properties>
  </object>
  <object id="88" x="337.455" y="177.273" width="29.4545" height="29.2727">
   <properties>
    <property name="height" type="float" value="29.27"/>
    <property name="width" type="float" value="29.45"/>
    <property name="x" type="float" value="337.45"/>
    <property name="y" type="float" value="177.27"/>
   </properties>
  </object>
  <object id="89" x="369.091" y="192.727" width="14.3636" height="13.8182">
   <properties>
    <property name="height" type="float" value="13.82"/>
    <property name="width" type="float" value="14.36"/>
    <property name="x" type="float" value="369.09"/>
    <property name="y" type="float" value="192.73"/>
   </properties>
  </object>
  <object id="90" x="344.364" y="204" width="11.6364" height="19.8182">
   <properties>
    <property name="height" type="float" value="19.82"/>
    <property name="width" type="float" value="11.64"/>
    <property name="x" type="float" value="344.36"/>
    <property name="y" type="float" value="204"/>
   </properties>
  </object>
  <object id="91" x="753.667" y="462" width="12.6667" height="19">
   <properties>
    <property name="height" type="float" value="19"/>
    <property name="width" type="float" value="12.67"/>
    <property name="x" type="float" value="753.67"/>
    <property name="y" type="float" value="462"/>
   </properties>
  </object>
  <object id="92" x="465.667" y="446" width="12.3333" height="19">
   <properties>
    <property name="height" type="float" value="19"/>
    <property name="width" type="float" value="12.33"/>
    <property name="x" type="float" value="465.67"/>
    <property name="y" type="float" value="446"/>
   </properties>
  </object>
  <object id="93" x="588" y="552" width="22.3333" height="22">
   <properties>
    <property name="height" type="float" value="22"/>
    <property name="width" type="float" value="22.33"/>
    <property name="x" type="float" value="588"/>
    <property name="y" type="float" value="552"/>
   </properties>
  </object>
  <object id="94" x="302" y="653.667" width="102.333" height="15.3333">
   <properties>
    <property name="height" type="float" value="15.33"/>
    <property name="width" type="float" value="102.33"/>
    <property name="x" type="float" value="302"/>
    <property name="y" type="float" value="653.67"/>
   </properties>
  </object>
  <object id="95" x="260" y="686.333" width="25.6667" height="14.3333">
   <properties>
    <property name="height" type="float" value="14.33"/>
    <property name="width" type="float" value="25.67"/>
    <property name="x" type="float" value="260"/>
    <property name="y" type="float" value="686.33"/>
   </properties>
  </object>
  <object id="96" x="312.667" y="582.333" width="32.3333" height="23.6667">
   <properties>
    <property name="height" type="float" value="23.67"/>
    <property name="width" type="float" value="32.33"/>
    <property name="x" type="float" value="312.67"/>
    <property name="y" type="float" value="582.33"/>
   </properties>
  </object>
  <object id="97" x="729" y="73.3333" width="10.3333" height="85">
   <properties>
    <property name="height" type="float" value="85"/>
    <property name="width" type="float" value="10.33"/>
    <property name="x" type="float" value="729"/>
    <property name="y" type="float" value="73.33"/>
   </properties>
  </object>
  <object id="98" x="706.333" y="94.3333" width="15" height="13">
   <properties>
    <property name="height" type="float" value="13"/>
    <property name="width" type="float" value="15"/>
    <property name="x" type="float" value="706.33"/>
    <property name="y" type="float" value="94.33"/>
   </properties>
  </object>
  <object id="99" x="706.667" y="125.333" width="15" height="13.3333">
   <properties>
    <property name="height" type="float" value="13.33"/>
    <property name="width" type="float" value="15"/>
    <property name="x" type="float" value="706.67"/>
    <property name="y" type="float" value="125.33"/>
   </properties>
  </object>
  <object id="100" x="307" y="59.3333" width="42.6667" height="21.6667">
   <properties>
    <property name="height" type="float" value="21.67"/>
    <property name="width" type="float" value="42.67"/>
    <property name="x" type="float" value="307"/>
    <property name="y" type="float" value="59.33"/>
   </properties>
  </object>
  <object id="101" x="31" y="654.667" width="111.667" height="16">
   <properties>
    <property name="height" type="float" value="16"/>
    <property name="width" type="float" value="111.67"/>
    <property name="x" type="float" value="31"/>
    <property name="y" type="float" value="654.67"/>
   </properties>
  </object>
 </objectgroup>
 <objectgroup color="#ff40ff" id="17" name="entitySpawnPoints">
  <properties>
   <property name="entityType" value="item"/>
   <property name="hasSpawnProtection" type="bool" value="false"/>
   <property name="id" type="int" value="3"/>
   <property name="type" value="entitySpawnPoint"/>
   <property name="x" type="float" value="88"/>
   <property name="y" type="float" value="72.67"/>
  </properties>
  <object id="102" type="EntitySpawnPoint" x="264" y="87">
   <properties>
    <property name="entityType" value="item"/>
    <property name="hasSpawnProtection" type="bool" value="false"/>
    <property name="id" type="int" value="3"/>
    <property name="type" value="entitySpawnPoint"/>
    <property name="x" type="float" value="264"/>
    <property name="y" type="float" value="87"/>
   </properties>
   <point/>
  </object>
  <object id="103" type="EntitySpawnPoint" x="42" y="163">
   <properties>
    <property name="entityType" value="enemy"/>
    <property name="hasSpawnProtection" type="bool" value="false"/>
    <property name="id" type="int" value="1"/>
    <property name="type" value="entitySpawnPoint"/>
    <property name="x" type="float" value="42"/>
    <property name="y" type="float" value="163"/>
   </properties>
   <point/>
  </object>
  <object id="104" type="EntitySpawnPoint" x="705" y="483">
   <properties>
    <property name="entityType" value="enemy"/>
    <property name="hasSpawnProtection" type="bool" value="false"/>
    <property name="id" type="int" value="1"/>
    <property name="type" value="entitySpawnPoint"/>
    <property name="x" type="float" value="705"/>
    <property name="y" type="float" value="483"/>
   </properties>
   <point/>
  </object>
  <object id="105" type="EntitySpawnPoint" x="415" y="83">
   <properties>
    <property name="entityType" value="enemy"/>
    <property name="hasSpawnProtection" type="bool" value="false"/>
    <property name="id" type="int" value="1"/>
    <property name="type" value="entitySpawnPoint"/>
    <property name="x" type="float" value="415"/>
    <property name="y" type="float" value="83"/>
   </properties>
   <point/>
  </object>
  <object id="106" type="EntitySpawnPoint" x="662" y="110">
   <properties>
    <property name="entityType" value="item"/>
    <property name="hasSpawnProtection" type="bool" value="false"/>
    <property name="id" type="int" value="3"/>
    <property name="type" value="entitySpawnPoint"/>
    <property name="x" type="float" value="662"/>
    <property name="y" type="float" value="110"/>
   </properties>
   <point/>
  </object>
  <object id="107" type="EntitySpawnPoint" x="641" y="151">
   <properties>
    <property name="entityType" value="enemy"/>
    <property name="hasSpawnProtection" type="bool" value="false"/>
    <property name="id" type="int" value="1"/>
    <property name="type" value="entitySpawnPoint"/>
    <property name="x" type="float" value="641"/>
    <property name="y" type="float" value="151"/>
   </properties>
   <point/>
  </object>
  <object id="108" type="EntitySpawnPoint" x="726" y="234">
   <properties>
    <property name="entityType" value="item"/>
    <property name="hasSpawnProtection" type="bool" value="false"/>
    <property name="id" type="int" value="3"/>
    <property name="type" value="entitySpawnPoint"/>
    <property name="x" type="float" value="726"/>
    <property name="y" type="float" value="234"/>
   </properties>
   <point/>
  </object>
  <object id="109" type="EntitySpawnPoint" x="622" y="236">
   <properties>
    <property name="entityType" value="enemy"/>
    <property name="hasSpawnProtection" type="bool" value="false"/>
    <property name="id" type="int" value="1"/>
    <property name="type" value="entitySpawnPoint"/>
    <property name="x" type="float" value="622"/>
    <property name="y" type="float" value="236"/>
   </properties>
   <point/>
  </object>
  <object id="110" type="EntitySpawnPoint" x="536" y="235">
   <properties>
    <property name="entityType" value="item"/>
    <property name="hasSpawnProtection" type="bool" value="false"/>
    <property name="id" type="int" value="3"/>
    <property name="type" value="entitySpawnPoint"/>
    <property name="x" type="float" value="535"/>
    <property name="y" type="float" value="239"/>
   </properties>
   <point/>
  </object>
  <object id="111" type="EntitySpawnPoint" x="106" y="346">
   <properties>
    <property name="entityType" value="item"/>
    <property name="hasSpawnProtection" type="bool" value="false"/>
    <property name="id" type="int" value="3"/>
    <property name="type" value="entitySpawnPoint"/>
    <property name="x" type="float" value="106"/>
    <property name="y" type="float" value="346"/>
   </properties>
   <point/>
  </object>
  <object id="112" type="EntitySpawnPoint" x="43" y="447">
   <properties>
    <property name="entityType" value="item"/>
    <property name="hasSpawnProtection" type="bool" value="false"/>
    <property name="id" type="int" value="3"/>
    <property name="type" value="entitySpawnPoint"/>
    <property name="x" type="float" value="43"/>
    <property name="y" type="float" value="447"/>
   </properties>
   <point/>
  </object>
  <object id="113" type="EntitySpawnPoint" x="88" y="730">
   <properties>
    <property name="entityType" value="item"/>
    <property name="hasSpawnProtection" type="bool" value="false"/>
    <property name="id" type="int" value="3"/>
    <property name="type" value="entitySpawnPoint"/>
    <property name="x" type="float" value="88"/>
    <property name="y" type="float" value="730"/>
   </properties>
   <point/>
  </object>
  <object id="114" type="EntitySpawnPoint" x="533" y="475">
   <properties>
    <property name="entityType" value="item"/>
    <property name="hasSpawnProtection" type="bool" value="false"/>
    <property name="id" type="int" value="3"/>
    <property name="type" value="entitySpawnPoint"/>
    <property name="x" type="float" value="533"/>
    <property name="y" type="float" value="475"/>
   </properties>
   <point/>
  </object>
  <object id="115" type="EntitySpawnPoint" x="713" y="697">
   <properties>
    <property name="entityType" value="item"/>
    <property name="hasSpawnProtection" type="bool" value="false"/>
    <property name="id" type="int" value="3"/>
    <property name="type" value="entitySpawnPoint"/>
    <property name="x" type="float" value="713"/>
    <property name="y" type="float" value="697"/>
   </properties>
   <point/>
  </object>
  <object id="116" type="EntitySpawnPoint" x="55" y="568">
   <properties>
    <property name="entityType" value="enemy"/>
    <property name="hasSpawnProtection" type="bool" value="false"/>
    <property name="id" type="int" value="1"/>
    <property name="type" value="entitySpawnPoint"/>
    <property name="x" type="float" value="55"/>
    <property name="y" type="float" value="568"/>
   </properties>
   <point/>
  </object>
  <object id="118" type="EntitySpawnPoint" x="521" y="589">
   <properties>
    <property name="entityType" value="enemy"/>
    <property name="hasSpawnProtection" type="bool" value="false"/>
    <property name="id" type="int" value="1"/>
    <property name="type" value="entitySpawnPoint"/>
    <property name="x" type="float" value="521"/>
    <property name="y" type="float" value="589"/>
   </properties>
   <point/>
  </object>
  <object id="119" type="EntitySpawnPoint" x="230" y="713">
   <properties>
    <property name="entityType" value="player"/>
    <property name="hasSpawnProtection" type="bool" value="false"/>
    <property name="id" type="int" value="0"/>
    <property name="type" value="entitySpawnPoint"/>
    <property name="x" type="float" value="230"/>
    <property name="y" type="float" value="713"/>
   </properties>
   <point/>
  </object>
 </objectgroup>
</map>
