<?xml version="1.0" encoding="UTF-8"?>
<map version="1.10" tiledversion="1.11.2" orientation="orthogonal" renderorder="right-down" width="48" height="48" tilewidth="16" tileheight="16" infinite="0" nextlayerid="20" nextobjectid="143">
 <tileset firstgid="1" source="tsx/Lvl1Walls.tsx"/>
 <tileset firstgid="193" source="tsx/Gardenarea.tsx"/>
 <tileset firstgid="257" source="tsx/Lvl1Floors.tsx"/>
 <tileset firstgid="455" source="tsx/Geiles_HAW_Set_01.tsx"/>
 <tileset firstgid="744" source="tsx/Cafe.tsx"/>
 <layer id="2" name="Floors" width="48" height="48">
  <data encoding="csv">
0,0,0,0,0,0,0,0,0,0,0,0,0,0,0,0,0,0,0,0,0,0,0,0,0,0,0,0,0,0,0,0,0,0,0,0,0,0,0,0,0,0,0,0,0,0,0,0,
0,0,0,0,0,0,0,0,0,0,0,0,0,0,0,0,0,0,0,0,0,0,0,0,0,0,0,0,0,0,0,0,0,0,0,0,0,0,0,0,0,0,0,0,0,0,0,0,
0,0,0,0,0,0,0,0,0,0,0,0,0,0,0,585,583,584,585,583,584,585,583,584,585,583,584,585,583,584,585,583,584,585,583,584,585,583,584,585,583,584,585,583,584,585,583,584,
0,441,442,443,441,442,443,441,442,443,441,442,443,441,442,602,600,601,602,600,601,602,600,601,602,600,601,602,600,601,602,600,601,602,600,601,602,600,601,602,600,601,602,600,601,602,600,601,
0,452,453,454,452,453,454,452,453,454,452,453,454,452,453,585,583,584,585,583,584,585,583,584,585,583,584,585,583,584,585,583,584,585,583,584,585,583,584,585,583,584,585,583,584,585,583,584,
0,441,442,443,441,442,443,441,442,443,441,442,443,441,442,602,600,601,602,600,601,602,600,601,602,600,601,602,600,601,602,600,601,602,600,601,602,600,601,602,600,601,602,600,601,602,600,601,
0,452,453,454,452,453,454,452,453,454,452,453,454,452,584,585,583,584,585,583,584,585,583,584,585,583,584,585,583,584,585,583,584,585,583,584,585,583,584,585,583,584,585,583,584,585,583,584,
0,452,453,454,452,453,454,452,453,454,452,453,454,452,601,602,600,601,602,600,601,602,600,601,602,600,601,602,600,601,602,600,601,602,600,601,602,600,601,602,600,601,602,600,601,602,600,601,
0,583,584,585,583,584,585,583,584,585,583,584,585,583,584,585,583,584,585,583,584,585,583,584,585,583,584,585,583,584,585,583,584,585,583,584,585,583,584,585,583,584,585,583,584,585,583,584,
0,600,601,602,600,601,602,600,601,602,600,601,602,600,601,602,600,601,602,600,601,602,600,601,602,600,601,602,600,601,602,600,601,602,600,601,602,600,601,602,600,601,602,600,601,602,600,601,
0,583,584,585,583,584,585,583,584,585,583,584,585,583,584,585,583,584,585,583,584,585,583,584,585,583,584,585,583,584,585,583,584,585,583,584,585,583,584,585,583,584,585,583,584,585,583,584,
0,600,601,602,600,601,602,600,601,602,600,601,602,600,601,602,600,601,602,600,601,602,600,601,602,600,601,602,600,601,602,600,601,602,600,601,602,600,601,602,600,601,602,600,601,602,600,601,
0,583,584,585,583,584,585,583,584,585,583,584,585,583,584,585,583,584,585,583,584,585,583,584,585,583,584,585,583,584,585,583,584,585,583,584,585,583,584,585,583,584,585,583,584,585,583,584,
0,600,601,602,600,601,602,600,601,602,600,601,602,600,601,602,600,601,602,600,601,602,600,601,602,600,601,602,600,601,602,600,601,602,600,601,602,600,601,602,600,601,602,600,601,602,600,601,
0,583,584,585,583,584,585,583,584,585,452,453,454,452,453,585,583,584,585,583,584,585,583,584,585,583,584,585,583,584,585,583,584,585,583,584,585,583,584,585,583,584,585,583,584,585,583,584,
0,600,601,602,600,601,602,600,601,602,441,442,443,441,442,602,600,601,602,600,601,602,600,601,602,600,601,602,600,601,602,600,601,602,600,601,602,600,601,602,600,601,602,600,601,602,600,601,
0,583,584,585,583,584,585,583,584,585,452,453,454,452,453,585,583,584,585,583,584,585,583,584,585,583,584,585,583,584,585,583,584,585,583,584,585,583,584,585,583,584,585,583,584,585,583,584,
0,600,601,602,600,601,602,600,601,602,441,442,443,441,442,602,600,601,602,600,601,602,600,601,602,600,601,602,600,601,602,600,601,602,600,601,602,600,601,602,600,601,602,600,601,602,600,601,
0,583,584,585,583,584,585,583,584,585,452,453,454,452,453,585,583,584,585,583,584,585,583,584,585,583,584,585,583,584,585,583,584,585,583,584,585,583,584,585,583,584,585,583,584,585,583,584,
0,600,601,602,600,601,602,600,601,602,441,442,443,441,442,602,600,601,602,600,601,602,600,601,602,600,601,602,600,601,602,600,601,602,600,601,602,600,601,602,600,601,602,600,601,602,600,601,
0,583,584,585,583,584,585,583,584,585,452,453,454,452,453,585,583,584,585,583,584,585,583,584,585,583,584,585,583,584,585,583,584,585,583,584,585,583,584,585,583,584,585,583,584,585,583,584,
0,600,601,602,600,601,602,600,601,602,441,442,443,441,442,602,600,601,602,600,601,602,600,601,602,600,601,602,600,601,602,600,601,602,600,601,602,600,601,602,600,601,602,600,601,602,600,601,
0,583,584,585,583,584,585,583,584,585,452,453,454,452,453,585,583,584,585,583,584,585,583,584,585,583,584,585,583,584,585,583,584,585,583,584,585,583,584,585,583,584,585,583,584,585,583,584,
0,600,601,602,600,601,602,600,601,602,441,442,443,441,442,602,600,601,602,600,601,602,600,601,602,600,601,602,600,601,602,600,601,602,600,601,602,600,601,602,600,601,602,600,601,602,600,601,
0,583,584,585,583,584,585,583,584,585,452,453,454,453,454,585,583,584,585,583,584,585,583,584,585,583,584,585,583,584,585,583,584,585,583,584,585,584,585,583,584,585,584,585,584,585,583,584,
0,600,601,602,600,601,602,600,601,602,600,601,602,600,601,602,600,601,602,600,601,602,600,601,602,600,601,602,600,601,602,600,601,602,600,601,602,601,602,600,601,602,601,602,601,602,600,601,
0,583,584,585,583,584,585,583,584,585,583,584,585,583,584,585,583,584,585,583,584,585,583,584,585,583,584,585,583,196,196,196,196,196,196,196,196,196,196,196,196,196,196,196,196,196,196,196,
0,600,601,602,600,601,602,600,601,602,600,601,602,600,601,602,600,601,602,600,601,602,600,601,602,600,601,602,600,196,196,196,196,196,196,196,196,196,196,196,196,196,196,196,196,196,196,196,
0,583,584,585,583,584,585,583,584,585,583,584,585,583,584,585,583,584,585,583,584,585,583,584,585,583,584,585,583,196,196,196,196,196,196,205,206,207,208,196,196,196,200,196,196,196,196,196,
0,600,601,602,600,601,602,600,601,602,600,601,602,600,601,602,600,601,602,600,601,602,600,601,602,600,601,602,600,196,196,196,196,196,196,213,239,214,216,196,200,196,196,196,196,196,196,196,
0,583,584,585,583,584,585,583,584,585,583,584,585,583,584,585,583,584,585,583,584,585,583,584,585,583,584,585,583,196,196,196,196,196,205,232,223,231,230,206,208,196,196,196,196,196,196,204,
0,600,601,602,600,601,602,600,601,602,600,601,602,600,601,602,600,601,602,600,601,602,600,601,602,600,601,602,600,196,196,196,196,196,213,216,196,213,240,240,230,206,206,207,208,204,204,196,
0,583,584,585,583,584,585,583,584,585,583,584,585,583,584,585,583,584,585,583,584,585,583,584,585,583,584,585,583,196,200,196,196,196,221,224,196,213,214,240,214,238,239,215,216,196,196,196,
0,600,601,602,600,601,602,600,601,602,600,601,602,600,601,602,600,601,602,600,601,602,600,601,602,600,601,602,600,196,196,196,196,196,196,196,196,221,222,231,238,215,232,223,224,196,196,196,
0,583,584,585,583,584,585,583,584,585,583,584,585,583,584,585,583,584,585,583,584,585,583,584,585,583,584,585,583,196,196,196,196,196,196,196,196,196,196,213,214,214,216,196,196,196,196,204,
0,600,601,602,600,601,602,600,601,602,600,601,602,600,601,602,600,601,602,600,601,602,600,601,602,600,601,602,600,196,196,196,196,196,196,196,196,196,196,213,240,214,216,196,196,196,196,196,
0,583,584,585,583,584,585,583,584,585,583,584,585,583,584,585,583,584,585,583,584,585,583,584,585,583,584,585,583,196,196,196,196,196,196,196,196,196,205,229,214,215,216,196,198,196,196,196,
0,600,601,602,600,601,602,600,601,602,600,601,602,600,601,602,600,601,602,600,601,602,600,601,602,600,601,602,600,196,196,196,196,196,196,196,196,196,221,231,239,238,216,196,200,196,196,196,
0,583,584,585,583,584,585,583,584,585,583,584,585,583,584,585,583,584,585,583,584,585,583,584,585,583,584,585,583,196,198,196,196,196,196,196,196,196,196,213,238,231,216,196,196,196,196,196,
0,600,601,602,600,601,602,600,601,602,600,601,602,600,601,602,600,601,602,600,601,602,600,601,602,600,601,602,600,198,196,196,196,196,196,196,196,196,196,213,214,215,224,196,196,196,196,196,
0,583,584,585,583,584,585,583,584,585,583,584,585,583,584,585,583,584,585,583,584,585,583,584,585,583,584,585,583,196,196,196,196,196,196,196,196,196,196,213,214,224,198,196,196,196,196,196,
196,196,196,196,204,196,196,196,196,196,600,601,602,600,601,602,600,601,602,196,196,196,196,196,196,196,196,196,196,196,196,196,196,205,206,207,208,196,196,213,216,200,200,196,196,196,196,196,
196,196,196,196,196,196,196,196,198,196,600,601,602,583,584,585,600,601,602,196,196,196,196,196,196,196,196,196,196,196,196,205,206,229,239,215,230,206,206,229,216,196,196,196,196,196,198,196,
196,196,196,205,207,207,206,207,206,208,196,196,196,205,208,196,196,196,196,196,196,196,196,196,196,196,196,196,196,196,196,221,222,222,222,222,222,231,215,232,224,196,196,196,196,196,196,196,
196,196,196,213,238,214,214,214,215,216,196,198,196,213,230,208,196,196,196,196,196,196,196,196,196,205,207,207,208,196,196,196,196,196,196,196,196,221,222,224,200,196,196,196,196,196,196,196,
196,196,200,221,231,214,214,214,214,230,206,207,206,229,214,230,208,196,196,205,206,207,206,206,207,229,239,240,216,200,196,196,196,196,196,196,196,196,196,196,196,196,196,196,196,196,196,196,
196,196,196,200,213,238,215,239,232,223,223,231,214,239,214,214,230,206,206,229,214,238,214,215,232,223,222,223,224,196,196,196,196,196,196,196,196,196,196,196,196,196,196,196,196,196,196,196,
196,196,204,196,221,222,223,222,224,196,198,221,223,222,223,222,222,222,223,222,222,223,222,223,224,196,196,196,196,200,196,196,196,196,196,196,196,196,196,196,196,196,196,196,196,196,196,196
</data>
 </layer>
 <layer id="1" name="Walls" width="48" height="48">
  <data encoding="csv">
0,0,0,0,0,0,0,0,0,0,0,0,0,0,0,0,0,0,0,0,0,0,0,0,0,0,0,0,0,0,0,0,0,0,0,0,0,0,0,0,0,0,0,0,0,0,0,0,
0,146,146,146,146,146,146,13,146,146,146,146,146,146,0,516,517,516,464,465,466,464,465,466,464,465,466,516,516,516,516,0,516,516,516,516,516,516,516,516,516,516,516,516,516,516,516,0,
0,158,158,158,158,158,158,13,158,158,158,158,158,158,0,533,534,533,481,482,483,481,482,483,481,482,483,533,533,533,533,0,533,533,533,533,533,533,533,533,533,533,533,533,533,533,533,0,
0,0,0,0,0,0,0,13,0,0,0,0,0,0,0,0,0,0,0,0,0,0,0,0,0,0,0,0,0,0,0,0,0,0,0,0,0,0,0,0,0,0,0,0,0,0,0,0,
0,0,0,0,0,0,0,13,0,0,0,0,0,0,0,0,0,0,0,0,0,0,0,0,0,0,0,0,0,0,0,0,0,0,0,0,0,0,0,0,0,0,0,0,0,0,0,0,
0,3,4,0,0,82,110,120,110,81,0,0,2,3,0,0,0,0,0,0,0,0,0,0,0,0,0,0,0,0,0,0,0,0,0,0,0,0,0,0,0,0,0,0,0,0,0,0,
0,516,590,0,0,589,516,516,516,590,0,0,589,516,590,0,0,0,0,0,0,0,0,0,0,0,0,0,0,0,0,37,0,0,0,0,0,0,0,0,0,0,0,0,0,0,0,0,
0,533,607,0,0,606,533,533,533,607,0,0,606,533,607,0,0,0,0,0,0,0,0,0,0,0,0,0,0,0,0,49,0,0,0,0,0,0,0,0,0,0,0,0,0,0,0,0,
0,0,0,0,0,0,0,0,0,0,0,0,0,0,0,0,0,0,0,0,0,0,0,0,0,0,0,0,0,0,0,0,0,0,0,0,0,0,0,0,0,0,0,0,0,0,0,0,
0,0,0,0,0,0,0,0,0,0,0,0,0,0,0,0,0,0,0,0,0,0,0,0,0,0,0,0,0,0,0,0,0,0,0,0,0,0,0,0,0,0,0,0,0,0,0,0,
0,0,0,0,0,0,0,0,0,0,0,0,0,0,0,0,0,0,0,0,0,0,0,0,0,0,0,0,0,0,0,0,0,0,0,0,0,0,0,0,0,0,0,0,0,0,0,0,
0,0,0,0,0,0,0,0,0,0,0,0,0,0,0,0,0,0,0,0,0,0,0,0,0,0,0,0,0,0,0,0,516,516,516,516,516,516,516,516,516,516,516,516,516,516,516,0,
0,0,0,0,0,0,0,0,0,0,146,146,146,146,0,0,0,0,0,0,0,0,0,0,0,0,0,0,0,0,0,0,533,533,533,533,533,533,533,533,533,533,533,533,533,533,533,0,
0,0,0,0,0,0,0,0,0,0,158,158,158,158,0,0,0,0,0,0,0,0,0,0,0,0,0,0,0,0,0,0,0,0,0,0,0,0,0,0,0,0,0,0,0,0,0,0,
0,0,0,0,0,0,0,0,0,0,0,0,0,0,0,0,0,0,0,0,0,0,0,0,0,0,0,0,0,0,0,0,0,0,0,0,0,0,0,0,0,0,0,0,0,0,0,0,
0,0,0,0,0,0,0,0,0,0,0,0,0,0,0,0,0,0,0,0,0,0,0,0,0,0,0,0,0,0,0,0,0,0,0,0,0,0,0,0,0,0,0,0,0,0,0,0,
0,0,0,0,0,0,0,0,0,0,3,3,3,3,0,0,0,0,0,0,0,0,0,0,0,0,0,0,0,0,0,0,0,0,0,0,0,0,0,0,0,0,0,0,0,0,0,0,
0,0,0,0,0,0,0,0,0,0,146,146,146,146,0,0,0,0,0,0,0,0,0,0,0,0,0,0,0,0,0,37,0,0,0,0,0,0,0,0,0,0,0,0,0,0,0,0,
0,0,0,0,0,0,0,0,0,0,158,158,158,158,0,0,0,0,0,0,0,0,0,0,0,0,0,0,0,0,0,49,0,0,0,0,0,0,0,0,0,0,0,0,0,0,0,0,
0,0,0,0,0,0,0,0,0,0,0,0,0,0,0,0,0,0,0,0,0,0,0,0,0,0,0,0,0,0,0,0,0,0,0,0,0,0,0,0,0,0,0,0,0,0,0,0,
0,0,0,0,0,0,0,0,0,0,0,0,0,0,0,0,0,0,0,0,0,0,0,0,0,0,0,0,0,0,0,0,0,0,0,0,0,0,0,0,0,0,0,0,0,0,0,0,
0,0,0,0,0,0,0,0,0,0,0,0,0,0,0,0,0,0,0,0,0,0,0,0,0,0,0,0,0,0,0,0,0,0,0,0,0,0,0,0,0,0,0,0,0,0,0,0,
0,0,0,0,0,0,0,0,0,0,0,0,0,0,0,0,0,0,0,0,0,0,0,0,0,0,0,0,0,0,0,0,0,0,0,0,0,0,0,0,0,0,0,0,0,0,0,0,
0,0,0,0,0,0,0,0,0,0,0,0,0,0,0,0,0,0,0,0,0,0,0,0,0,0,0,0,0,0,0,0,0,0,0,0,0,0,0,0,0,0,0,0,0,0,0,0,
0,516,517,516,516,516,516,516,516,516,516,516,516,516,516,590,0,0,0,0,0,589,516,516,516,516,516,516,0,146,146,146,146,149,150,149,150,123,0,0,0,148,149,150,149,150,146,147,
0,533,534,533,533,533,533,533,533,533,533,533,533,533,533,607,0,0,0,0,0,606,533,533,533,533,533,533,0,158,158,158,158,161,162,161,162,135,0,0,0,160,161,162,161,162,158,159,
0,0,0,0,0,0,0,0,0,0,0,0,0,0,0,0,0,0,0,0,0,0,0,0,0,0,0,0,0,0,0,0,0,0,0,0,0,0,0,0,0,0,0,0,0,0,0,0,
0,0,0,0,0,0,0,0,0,0,0,0,0,0,0,0,0,0,0,0,0,0,0,0,0,0,0,0,0,0,0,0,0,0,0,0,0,0,0,0,0,0,0,0,0,0,0,0,
0,0,0,0,0,0,0,0,0,0,0,0,0,0,0,0,0,0,0,0,0,0,0,0,0,0,0,0,0,0,0,0,0,0,0,0,0,0,0,0,0,0,0,0,0,0,0,0,
0,0,0,0,0,0,0,0,0,0,0,0,0,0,0,0,0,0,0,0,0,0,0,0,0,0,0,0,0,0,0,0,0,0,0,0,0,0,0,0,0,0,0,0,0,0,0,0,
0,0,0,0,0,0,0,0,0,0,0,0,0,0,0,0,0,0,0,0,0,0,0,0,0,0,0,0,0,0,0,0,0,0,0,0,0,0,0,0,0,0,0,0,0,0,0,0,
0,0,0,0,0,0,0,0,0,0,0,0,0,0,0,0,0,0,0,0,0,0,0,0,0,0,0,0,0,0,0,0,0,0,0,0,0,0,0,0,0,0,0,0,0,0,0,0,
0,0,0,0,0,0,0,0,0,0,0,0,0,0,0,0,0,0,0,0,0,0,0,0,0,0,0,0,0,0,0,0,0,0,0,0,0,0,0,0,0,0,0,0,0,0,0,0,
0,0,0,0,0,0,0,0,0,0,0,0,0,0,0,0,0,0,0,0,0,0,0,0,0,0,0,0,0,0,0,0,0,0,0,0,0,0,0,0,0,0,0,0,0,0,0,0,
0,0,0,0,0,0,0,0,0,0,0,0,0,0,0,0,0,0,0,0,0,0,0,0,0,0,0,0,0,0,0,0,0,0,0,0,0,0,0,0,0,0,0,0,0,0,0,0,
0,0,0,0,0,0,0,0,0,0,0,0,0,0,0,0,0,0,0,0,0,0,0,0,0,0,0,0,0,0,0,0,0,0,0,0,0,0,0,0,0,0,0,0,0,0,0,0,
0,0,0,0,0,0,0,0,0,0,0,0,0,0,0,0,0,0,0,0,0,0,0,0,0,0,0,0,0,0,0,0,0,0,0,0,0,0,0,0,0,0,0,0,0,0,0,0,
0,0,0,0,0,0,0,0,0,0,0,0,0,0,0,0,0,0,0,0,0,0,0,0,0,0,0,0,0,0,0,0,0,0,0,0,0,0,0,0,0,0,0,0,0,0,0,0,
0,0,0,0,0,0,0,0,0,0,0,0,0,0,0,0,0,0,0,0,0,0,0,0,0,0,0,0,0,0,0,0,0,0,0,0,0,0,0,0,0,0,0,0,0,0,0,0,
121,124,125,126,124,125,126,124,125,126,0,0,0,0,0,0,0,0,0,124,125,126,124,125,126,124,125,126,99,0,0,0,0,0,0,0,0,0,0,0,0,0,0,0,0,0,0,0,
133,136,137,138,136,137,138,136,137,138,0,0,0,0,0,0,0,0,0,136,137,138,136,137,138,136,137,138,111,0,0,0,0,0,0,0,0,0,0,0,0,0,0,0,0,0,0,0,
0,0,0,0,0,0,0,0,0,0,121,122,93,0,0,0,94,122,99,0,0,0,0,0,0,0,0,0,0,0,0,0,0,0,0,0,0,0,0,0,0,0,0,0,0,0,0,0,
0,0,0,0,0,0,0,0,0,0,133,134,105,0,0,0,106,134,111,0,0,0,0,0,0,0,0,0,0,0,0,0,0,0,0,0,0,0,0,0,0,0,0,0,0,0,0,0,
0,0,0,0,0,0,0,0,0,0,0,0,0,0,0,0,0,0,0,0,0,0,0,0,0,0,0,0,0,0,0,0,0,0,0,0,0,0,0,0,0,0,0,0,0,0,0,0,
0,0,0,0,0,0,0,0,0,0,0,0,0,0,0,0,0,0,0,0,0,0,0,0,0,0,0,0,0,0,0,0,0,0,0,0,0,0,0,0,0,0,0,0,0,0,0,0,
0,0,0,0,0,0,0,0,0,0,0,0,0,0,0,0,0,0,0,0,0,0,0,0,0,0,0,0,0,0,0,0,0,0,0,0,0,0,0,0,0,0,0,0,0,0,0,0,
0,0,0,0,0,0,0,0,0,0,0,0,0,0,0,0,0,0,0,0,0,0,0,0,0,0,0,0,0,0,0,0,0,0,0,0,0,0,0,0,0,0,0,0,0,0,0,0,
0,0,0,0,0,0,0,0,0,0,0,0,0,0,0,0,0,0,0,0,0,0,0,0,0,0,0,0,0,0,0,0,0,0,0,0,0,0,0,0,0,0,0,0,0,0,0,0
</data>
 </layer>
 <layer id="5" name="Furniture(bot)" width="48" height="48">
  <data encoding="csv">
0,0,0,0,0,0,0,0,0,0,0,0,0,0,0,0,0,0,0,0,0,0,0,0,0,0,0,0,0,0,0,0,0,0,0,0,0,0,0,0,0,0,0,0,0,0,0,0,
0,814,815,0,0,486,0,0,0,0,0,0,486,0,0,0,0,0,0,0,508,509,510,511,512,0,0,888,666,667,0,0,596,597,508,509,510,511,512,0,594,561,562,563,0,0,0,0,
0,830,831,0,0,503,0,0,0,0,0,0,503,0,0,0,0,888,0,0,0,0,0,0,0,0,0,0,683,684,0,0,455,456,457,458,459,460,461,462,463,578,579,580,586,587,588,0,
0,0,0,0,0,0,0,0,0,0,0,0,0,0,0,0,0,0,0,0,0,0,0,0,0,0,0,0,700,701,0,0,472,473,474,475,476,477,478,479,480,0,0,0,603,604,605,0,
0,0,0,0,0,0,0,0,0,0,0,0,0,0,0,0,0,0,0,0,0,0,0,0,0,0,0,0,0,0,0,0,489,490,491,492,493,494,495,496,497,0,0,0,0,530,531,0,
0,0,88,89,90,518,0,0,0,88,89,90,91,0,0,0,0,0,546,574,575,576,543,0,0,0,0,0,0,0,0,0,0,0,0,0,0,0,0,0,0,0,0,0,0,547,548,0,
0,0,100,101,102,534,0,888,0,485,101,102,103,564,565,0,0,0,0,544,545,0,0,0,0,0,0,0,0,872,873,0,0,0,0,0,0,0,0,0,0,0,0,0,0,0,0,0,
0,0,112,113,114,0,0,0,0,112,113,114,115,581,582,0,0,0,0,0,0,0,0,0,0,0,0,0,0,0,0,0,0,0,0,0,0,0,0,846,847,0,0,0,0,530,531,0,
0,0,0,0,0,0,0,0,0,0,0,0,0,0,0,0,0,0,0,0,0,0,0,0,0,574,575,576,0,0,0,0,0,0,0,0,0,0,0,0,0,0,0,0,0,547,548,0,
0,0,0,0,0,0,0,0,0,0,0,0,0,0,0,0,0,0,0,0,546,540,541,0,0,0,0,0,0,0,0,0,0,0,0,0,0,0,0,0,0,880,881,0,0,544,545,0,
0,0,0,0,0,0,0,0,0,0,0,0,0,0,0,0,0,0,0,0,0,0,0,0,0,0,0,0,0,0,0,0,0,0,0,0,0,0,0,0,0,0,0,0,0,0,0,0,
0,518,519,519,520,0,0,0,0,0,0,0,0,0,0,0,0,0,0,0,0,0,0,0,0,0,0,0,0,0,0,0,560,517,594,634,625,626,627,628,629,630,634,631,632,633,0,0,
0,535,536,536,537,0,0,0,0,0,814,815,486,0,0,0,0,0,0,0,0,0,0,0,0,0,0,0,0,0,0,0,577,534,0,0,642,643,644,645,646,647,0,648,649,650,0,0,
0,535,536,536,537,0,0,0,0,0,830,831,503,0,0,0,0,0,0,0,0,0,0,0,0,0,0,0,0,0,0,0,0,0,0,0,0,0,0,0,0,0,0,0,0,0,0,0,
0,535,536,536,537,0,0,0,0,0,0,0,0,0,0,0,0,0,0,0,0,0,0,0,0,0,0,0,0,0,0,0,0,0,0,0,0,0,0,0,0,0,0,0,0,0,0,0,
0,535,536,536,537,0,0,0,0,0,0,0,0,0,0,0,0,0,0,0,0,0,0,0,0,0,0,0,0,0,0,0,0,0,0,0,0,0,0,0,0,0,0,0,0,0,0,0,
0,535,536,536,537,0,0,0,0,0,0,0,0,0,0,0,0,0,0,0,0,0,0,0,0,0,0,0,0,0,0,0,0,0,0,0,0,0,0,0,0,0,0,0,0,0,0,0,
0,535,536,536,537,0,0,0,0,0,0,485,486,0,0,0,0,0,0,0,0,0,0,0,0,0,0,0,0,872,873,0,0,0,0,0,660,661,662,661,662,661,662,661,662,663,664,0,
0,535,536,536,537,0,0,0,0,0,0,0,503,0,0,878,879,0,0,0,0,0,0,0,0,0,0,0,0,0,0,0,0,0,0,0,0,0,0,0,0,0,0,0,0,0,0,0,
0,535,536,536,537,0,0,0,0,0,0,0,0,0,0,0,0,0,0,0,0,0,0,0,0,0,0,0,0,0,0,0,0,0,0,0,0,0,0,0,0,0,0,0,0,0,0,0,
0,535,536,536,537,0,0,0,0,0,0,0,0,0,0,0,0,0,0,0,0,0,0,0,0,0,0,0,0,0,0,0,0,0,0,0,660,661,662,661,662,661,662,661,662,663,664,0,
0,552,553,553,554,0,0,0,0,0,0,0,0,0,0,0,0,0,0,0,0,0,0,0,0,0,0,0,0,0,0,0,0,0,0,0,0,0,0,0,0,0,0,0,0,0,0,0,
0,0,0,0,0,0,0,0,0,0,0,0,0,0,0,0,0,0,0,0,0,0,0,0,0,0,0,0,0,0,0,0,0,0,0,0,0,0,0,0,0,0,0,0,0,0,0,0,
0,0,0,0,744,745,746,747,748,0,0,0,0,0,0,0,0,0,0,0,0,0,0,0,0,0,0,0,0,0,0,0,0,0,0,0,0,0,0,0,0,0,0,0,0,0,0,0,
0,0,0,0,760,761,762,763,764,0,888,0,0,564,565,0,0,0,0,0,0,0,665,594,561,562,563,888,0,0,0,0,0,0,0,0,0,0,0,0,0,0,0,0,0,0,0,0,
0,0,0,560,776,777,778,779,780,0,0,904,751,581,582,0,0,0,0,0,0,0,682,0,578,579,580,0,0,0,0,0,0,0,0,0,0,0,0,0,0,0,0,0,0,0,0,0,
0,0,0,577,792,793,794,795,796,0,0,0,767,768,0,0,0,0,0,0,0,0,699,0,0,0,0,0,0,0,0,0,0,0,0,0,0,0,0,0,248,0,0,0,234,0,0,0,
0,0,0,0,0,0,0,0,0,0,0,0,0,0,0,0,0,0,0,0,0,0,0,0,0,0,0,0,0,0,0,0,0,0,0,0,0,0,235,0,0,0,0,0,0,0,0,0,
0,0,0,0,0,0,0,0,0,0,0,0,0,0,0,0,0,0,0,0,0,0,0,0,0,0,538,0,0,0,0,243,0,0,0,0,0,0,0,0,0,0,0,0,0,0,0,0,
0,0,0,0,0,0,0,0,0,0,0,0,0,0,0,0,0,0,0,0,0,0,0,0,0,0,538,539,0,0,0,0,0,228,0,0,0,0,0,0,0,0,0,0,233,0,0,249,
0,824,825,826,827,828,829,0,0,0,0,797,798,799,0,0,0,0,899,900,901,902,903,0,0,0,538,539,0,0,0,0,0,0,0,0,0,0,0,0,0,0,228,0,0,0,0,0,
0,0,0,0,0,0,0,0,0,0,0,0,0,0,0,0,0,0,0,0,0,0,0,0,0,0,538,539,0,0,0,0,0,0,0,0,0,0,0,0,0,0,0,0,0,0,0,0,
0,0,0,0,0,0,0,0,0,0,0,0,0,0,0,0,0,0,0,0,0,0,0,0,0,0,538,539,0,0,0,0,0,233,0,0,0,0,0,0,0,0,0,0,0,0,0,0,
0,0,0,0,0,0,0,0,0,0,0,0,0,0,0,0,0,0,0,0,0,0,0,0,0,0,538,539,0,0,0,0,0,0,0,0,0,0,0,0,0,0,0,0,0,0,0,0,
0,0,0,0,0,0,824,825,826,827,828,829,0,0,0,0,0,0,899,900,901,902,903,0,0,0,538,539,0,0,0,0,0,0,0,0,0,0,0,0,0,0,0,248,235,0,0,0,
0,0,0,0,0,0,0,0,0,0,0,0,0,0,0,0,0,0,0,0,0,0,0,0,0,0,555,556,0,0,0,0,0,0,0,0,0,0,0,243,0,0,0,0,0,0,0,0,
0,0,0,0,0,0,813,0,0,0,0,0,0,0,0,0,0,0,0,0,0,0,0,0,0,0,0,0,0,0,0,0,235,0,0,0,0,0,0,0,0,0,0,0,0,0,0,0,
0,824,825,826,827,828,829,0,0,0,0,0,0,0,0,0,0,0,0,987,0,0,970,0,0,0,0,0,0,0,0,0,0,0,227,0,0,0,0,0,0,0,0,0,0,0,0,0,
0,0,0,0,0,0,0,0,0,0,0,0,0,0,0,0,0,0,0,0,0,0,0,0,0,0,0,0,0,0,0,0,0,0,0,0,0,0,233,0,0,0,0,0,0,0,0,0,
0,0,0,0,0,0,0,0,0,0,0,0,0,0,0,0,0,0,0,0,0,0,0,0,0,0,0,0,0,0,0,0,0,0,0,0,0,0,0,0,0,0,0,0,235,0,0,0,
0,0,0,0,637,638,639,0,0,0,0,0,0,0,0,0,0,0,0,0,637,638,639,0,0,637,638,639,0,0,0,0,0,0,0,235,0,0,0,0,0,0,0,235,0,0,0,0,
0,0,234,234,654,655,656,234,234,0,0,0,0,0,0,0,0,0,0,234,654,655,656,234,234,654,655,656,0,0,0,228,0,0,0,0,0,0,248,0,0,0,0,0,0,0,0,0,
0,0,0,0,671,672,673,0,0,0,0,0,0,0,0,0,0,0,0,0,671,672,673,0,0,671,672,673,0,0,0,0,0,0,0,0,0,0,0,0,0,0,0,0,0,228,0,0,
0,235,0,0,0,0,0,0,0,0,249,0,249,0,0,0,234,234,0,0,0,0,0,0,0,0,0,0,0,0,0,0,0,0,0,0,0,0,0,0,0,249,0,0,228,0,0,0,
0,0,0,0,0,0,0,0,0,0,0,0,0,0,0,0,0,0,0,0,0,0,0,0,0,0,0,0,0,0,0,0,0,0,0,0,0,0,0,0,0,0,0,0,0,0,0,0,
0,0,0,0,0,0,0,0,0,0,0,0,0,0,0,0,0,235,0,0,0,0,0,0,0,0,0,0,0,0,0,0,0,0,0,0,0,0,0,0,0,0,0,0,0,0,0,0,
0,0,0,0,0,0,0,0,0,0,0,0,0,0,0,0,0,0,0,0,0,0,0,0,0,0,0,0,0,0,0,0,0,0,0,0,0,0,0,0,0,0,0,0,0,0,0,0,
249,0,0,0,0,0,0,0,0,0,0,0,0,0,0,0,0,0,0,0,0,0,0,0,0,0,0,0,243,0,0,0,0,0,0,0,0,227,0,0,0,0,0,0,0,0,227,0
</data>
 </layer>
 <layer id="10" name="Furniture(top)" width="48" height="48">
  <data encoding="csv">
0,0,0,0,0,0,0,0,0,0,0,0,0,0,0,0,0,0,0,0,0,0,0,0,0,0,0,0,0,0,0,0,0,0,0,0,0,0,0,0,0,0,0,0,0,0,0,0,
0,0,0,0,0,0,0,0,0,0,0,0,0,0,0,0,0,0,0,0,0,0,0,0,0,0,0,0,0,0,0,0,0,0,0,0,0,0,0,0,0,0,0,0,0,0,0,0,
0,0,0,0,0,0,0,0,0,0,0,0,0,0,0,0,0,0,0,0,0,0,0,0,0,0,0,0,0,0,0,0,0,0,0,0,0,0,0,0,0,0,0,0,569,0,0,0,
0,0,0,0,0,0,0,0,0,0,0,0,0,0,0,0,0,0,0,0,0,0,0,0,0,0,0,0,0,0,0,0,0,0,0,0,0,0,0,0,0,0,0,0,0,0,0,0,
0,0,0,0,0,0,0,0,0,0,0,0,0,0,0,0,0,0,0,0,0,0,0,0,0,0,0,0,0,0,0,0,0,0,0,0,0,0,0,0,0,0,0,0,0,0,0,0,
0,0,0,0,0,0,0,0,0,0,0,0,0,0,0,0,0,0,0,527,528,0,0,0,0,0,0,0,0,0,0,0,0,0,0,0,0,0,0,0,0,0,0,0,0,527,528,0,
0,0,467,468,468,469,0,0,0,0,0,0,0,0,0,0,0,0,0,544,545,0,0,0,0,0,0,0,0,751,752,0,0,0,0,0,0,0,918,0,0,0,0,0,0,544,545,0,
0,0,0,0,0,0,0,0,0,0,0,0,0,0,0,0,0,0,0,0,0,0,0,0,0,0,0,0,0,767,768,0,0,0,0,0,0,0,0,0,0,0,0,0,0,0,0,0,
0,0,0,0,0,0,0,0,0,0,0,0,0,0,0,0,0,0,0,0,0,0,0,0,0,0,0,576,0,0,0,0,0,0,0,0,0,0,0,0,0,0,0,0,0,527,528,0,
0,0,0,0,0,0,0,0,0,0,0,0,0,0,0,0,0,0,0,0,0,527,528,0,0,0,0,0,0,0,0,0,0,0,0,0,0,0,966,0,0,0,0,0,0,0,0,0,
0,0,0,0,0,0,0,0,0,0,0,0,0,0,0,0,0,0,0,0,0,544,545,0,0,0,0,0,0,0,0,0,0,0,0,0,0,0,0,0,0,0,0,0,0,0,0,0,
0,0,0,0,0,0,0,0,0,0,0,0,0,0,0,0,0,0,0,0,0,0,0,0,0,0,0,0,0,0,0,0,0,0,0,0,0,0,0,0,0,0,0,0,0,0,0,0,
0,0,0,0,0,0,0,0,0,0,0,0,0,0,0,0,0,0,0,0,0,0,0,0,0,0,0,0,0,0,0,0,0,0,0,0,0,0,0,0,0,0,0,0,0,0,0,0,
0,0,0,0,0,0,0,0,0,0,0,0,0,0,0,880,881,880,881,0,0,0,0,0,0,0,0,0,0,0,0,0,0,0,0,0,0,0,0,0,0,0,0,0,0,0,0,0,
0,0,0,0,0,0,0,0,0,0,0,0,0,0,0,0,0,0,0,0,0,0,0,846,847,0,0,0,0,0,0,0,0,0,0,0,0,0,0,0,0,0,0,0,0,0,0,0,
0,0,0,0,0,0,0,0,0,0,0,0,0,0,0,0,0,0,0,0,0,0,0,0,0,0,0,0,0,0,0,0,0,0,0,0,0,0,0,0,0,0,0,0,0,0,0,0,
0,0,0,0,0,0,0,0,0,0,0,0,0,0,0,0,0,0,0,0,0,0,0,878,879,880,881,0,0,0,0,0,0,0,0,0,0,0,0,0,0,0,0,0,0,0,0,0,
0,0,0,0,0,0,0,0,0,0,0,0,0,0,0,0,0,0,0,0,0,0,0,0,0,0,0,0,0,751,752,0,0,0,0,0,0,0,0,0,0,0,0,0,0,0,0,0,
0,0,0,0,0,0,0,0,0,0,0,0,0,0,0,0,0,880,881,0,0,0,0,0,0,0,0,0,0,767,768,0,0,0,0,0,0,0,0,0,0,0,0,0,0,0,0,0,
0,0,0,0,0,0,0,0,0,0,0,0,0,0,0,0,0,0,0,0,0,0,0,0,0,0,0,0,0,0,0,0,0,0,0,0,0,0,0,0,0,0,0,0,0,0,0,0,
0,0,0,0,0,0,0,0,0,0,0,0,0,0,0,0,0,0,0,0,0,0,0,846,847,0,0,0,0,0,0,0,0,0,0,0,0,0,0,0,0,0,0,0,0,0,0,0,
0,0,0,0,0,0,0,0,0,0,0,0,0,0,0,0,0,0,0,0,0,0,0,0,0,0,0,0,0,0,0,0,0,0,0,0,0,0,0,0,0,0,0,0,0,0,0,0,
0,0,0,0,0,0,0,0,0,0,0,0,0,0,0,0,0,0,0,0,0,0,0,878,879,880,881,0,0,0,0,0,0,0,0,0,0,0,0,0,0,0,0,0,0,0,0,0,
0,0,0,0,0,0,0,0,0,0,0,0,0,0,0,0,0,0,0,0,0,0,0,0,0,0,0,0,0,0,0,0,0,0,0,0,0,0,0,0,0,0,0,0,0,0,0,0,
0,0,0,0,0,0,0,0,0,0,0,0,0,0,0,0,0,0,0,0,0,0,0,0,0,0,0,0,0,0,0,0,0,0,0,0,0,0,0,0,0,0,0,0,0,0,0,0,
0,0,0,0,0,0,0,0,0,749,750,0,0,752,0,0,0,0,0,0,0,0,0,0,0,0,0,0,0,0,0,0,0,0,0,0,0,0,0,0,0,0,0,0,0,0,0,0,
0,0,0,0,0,0,0,0,0,765,766,0,0,0,0,0,0,0,0,0,0,0,0,0,0,0,538,522,0,0,0,0,0,0,0,0,0,0,0,0,0,0,0,0,0,0,0,0,
0,0,0,0,0,0,0,0,0,0,0,0,0,0,0,0,0,0,0,0,0,0,0,0,0,0,521,539,0,0,0,0,0,0,0,0,0,0,0,0,0,0,0,0,0,0,0,0,
0,0,0,0,0,0,0,0,0,0,0,0,0,0,0,0,0,0,0,0,0,0,0,0,0,0,0,539,0,0,0,0,0,0,0,0,0,0,0,0,0,0,0,0,0,0,0,0,
0,0,0,0,0,0,0,0,0,0,0,0,0,0,0,0,0,0,0,0,0,0,0,0,0,0,0,0,0,0,0,0,0,0,0,0,0,0,0,0,0,0,0,0,0,0,0,0,
0,0,0,0,0,0,0,0,0,0,0,0,0,0,0,0,0,0,0,0,0,0,0,0,0,0,0,570,0,0,0,0,0,0,0,0,0,0,0,0,0,0,0,0,0,0,0,0,
0,0,0,0,0,0,0,0,0,0,0,0,0,0,0,0,0,0,0,0,0,0,0,0,0,0,0,569,0,0,0,0,0,0,0,0,0,0,0,0,0,0,0,0,0,0,0,0,
0,0,0,0,0,0,0,0,0,0,0,0,0,0,0,0,0,0,0,0,0,0,0,0,0,0,0,0,0,0,0,0,0,0,0,0,0,0,0,0,0,0,0,0,0,0,0,0,
0,0,0,0,0,0,0,0,0,0,0,0,0,0,0,0,0,0,0,0,0,0,0,0,0,0,0,570,0,0,0,0,0,0,0,0,0,0,0,0,0,0,0,0,0,0,0,0,
0,0,0,0,0,0,0,0,0,0,0,0,0,0,0,0,0,0,0,0,0,0,0,0,0,0,0,569,0,0,0,0,0,0,0,0,0,0,0,0,0,0,0,0,0,0,0,0,
0,0,0,0,0,0,0,0,0,0,0,0,0,0,0,0,0,0,0,0,0,0,0,0,0,0,0,0,0,0,0,0,0,0,0,0,0,0,0,0,0,0,0,0,0,0,0,0,
0,0,0,0,0,0,0,0,0,0,0,0,0,0,0,0,0,0,0,0,0,0,0,0,0,0,838,839,0,0,0,0,0,0,0,0,0,0,0,0,0,0,0,0,0,0,0,0,
0,0,0,0,0,0,0,0,0,0,0,0,0,0,0,0,0,0,0,987,988,989,0,0,0,0,854,855,0,0,0,0,0,0,0,0,0,0,0,0,0,0,0,0,0,0,0,0,
0,0,0,0,0,0,0,0,0,0,0,0,0,0,0,0,0,0,0,0,0,0,0,0,0,0,0,0,0,0,0,0,0,0,0,0,0,0,0,0,0,0,0,0,0,0,0,0,
0,0,0,0,0,0,0,0,0,0,0,851,852,0,0,0,0,0,0,0,0,0,0,0,0,0,0,0,0,0,0,0,0,0,0,0,0,0,0,0,0,0,0,0,0,0,0,0,
0,0,0,0,0,0,0,0,0,0,0,0,0,0,0,0,0,0,0,0,0,0,0,0,0,0,0,0,0,0,0,0,0,0,0,0,0,0,0,0,0,0,0,0,0,0,0,0,
0,0,0,0,0,570,0,0,0,0,814,815,0,0,0,0,0,0,0,0,0,569,0,0,0,0,0,0,0,0,0,0,0,0,0,0,0,0,0,0,0,0,0,0,0,0,0,0,
0,0,0,0,0,0,0,0,0,0,830,831,0,0,0,0,0,0,0,0,0,0,0,0,0,0,0,0,0,0,0,0,0,0,0,0,0,0,0,0,0,0,0,0,0,0,0,0,
0,0,0,0,0,0,0,0,0,0,0,0,0,0,0,0,0,0,0,0,0,0,0,0,0,0,0,0,0,0,0,0,0,0,0,0,0,0,0,0,0,0,0,0,0,0,0,0,
0,0,0,0,0,0,0,0,0,0,0,0,0,0,0,0,0,0,0,0,0,0,0,0,0,0,0,0,0,0,0,0,0,0,0,0,0,0,0,0,0,0,0,0,0,0,0,0,
0,0,0,0,0,0,0,0,0,0,0,0,0,0,0,0,0,0,0,0,0,0,0,0,0,0,0,0,0,0,0,0,0,0,0,0,0,0,0,0,0,0,0,0,0,0,0,0,
0,0,0,0,0,0,0,0,0,0,0,0,0,0,0,0,0,0,0,0,0,0,0,0,0,0,0,0,0,0,0,0,0,0,0,0,0,0,0,0,0,0,0,0,0,0,0,0,
0,0,0,0,0,0,0,0,0,0,0,0,0,0,0,0,0,0,0,0,0,0,0,0,0,0,0,0,0,0,0,0,0,0,0,0,0,0,0,0,0,0,0,0,0,0,0,0
</data>
 </layer>
 <layer id="18" name="VorCharacter" width="48" height="48">
  <data encoding="csv">
0,0,0,0,0,0,0,0,0,0,0,0,0,0,0,0,0,0,0,0,0,0,0,0,0,0,0,0,0,0,0,0,0,0,0,0,0,0,0,0,0,0,0,0,0,0,0,0,
0,0,0,0,0,0,0,0,0,0,0,0,0,0,0,0,0,0,0,0,0,0,0,0,0,0,0,0,0,0,0,0,0,0,0,0,0,0,0,0,0,0,0,0,0,0,0,0,
0,0,0,0,0,0,0,0,0,0,0,0,0,0,0,0,0,0,0,0,0,0,0,0,0,0,0,0,0,0,0,0,0,0,0,0,0,0,0,0,0,0,0,0,0,0,0,0,
0,0,0,0,0,0,0,0,0,0,0,0,0,0,0,0,0,0,0,0,0,0,0,0,0,0,0,0,0,0,0,0,0,0,0,0,0,0,0,0,0,0,0,0,0,0,0,0,
0,0,0,0,0,0,0,0,0,0,0,0,0,0,0,0,0,0,529,557,558,559,526,0,0,0,0,0,0,0,0,0,0,0,0,0,0,0,0,0,0,0,0,0,0,0,0,0,
0,0,0,0,0,0,0,0,0,0,0,0,0,0,0,0,0,0,0,0,0,0,0,0,0,0,0,0,0,0,0,0,0,0,0,0,0,0,0,0,0,0,0,0,0,0,0,0,
0,0,0,0,0,0,0,0,0,0,0,0,0,0,0,0,0,0,0,0,0,0,0,0,0,0,0,0,0,0,0,0,0,0,0,0,0,0,0,0,0,0,0,0,0,0,0,0,
0,0,0,0,0,0,0,0,0,0,0,0,0,0,0,0,0,0,0,0,0,924,925,0,0,557,558,559,0,0,0,0,0,0,0,0,0,0,0,0,0,848,849,0,0,0,0,0,
0,0,0,0,0,0,0,0,0,0,0,0,0,0,0,0,0,0,0,0,529,523,524,0,0,0,0,0,0,0,0,0,0,0,0,0,0,0,0,0,0,864,865,0,0,0,0,0,
0,0,0,0,0,0,0,0,0,0,0,0,0,0,0,0,0,0,0,0,0,0,0,0,0,0,0,0,0,0,0,0,0,0,0,0,0,0,0,0,0,0,0,0,0,0,0,0,
0,0,0,0,0,0,0,0,0,0,0,0,0,0,0,0,0,0,0,0,0,0,0,0,0,0,0,0,0,0,0,0,0,0,0,0,0,0,0,0,0,0,0,0,0,0,0,0,
0,0,0,0,0,0,0,0,0,0,0,0,0,0,0,848,849,848,849,0,0,0,0,0,0,0,0,0,0,0,0,0,0,0,0,0,0,0,0,0,0,0,0,0,0,0,0,0,
0,0,0,0,0,0,0,0,0,0,0,0,0,0,0,864,865,864,865,0,0,0,0,0,0,0,0,0,0,0,0,0,0,0,0,0,0,0,0,0,0,0,0,0,0,0,0,0,
0,0,0,0,0,0,0,0,0,0,0,0,0,0,0,0,0,0,0,0,0,0,0,0,0,0,0,0,0,0,0,0,0,0,0,0,0,0,0,0,0,0,0,0,0,0,0,0,
0,0,0,0,0,0,0,0,0,0,0,0,0,0,0,0,0,0,0,0,0,0,0,0,0,848,849,0,0,0,0,0,0,0,0,0,0,0,0,0,0,0,0,0,0,0,0,0,
0,0,0,0,0,0,0,0,0,0,0,0,0,0,0,0,0,0,0,0,0,0,0,862,863,864,865,0,0,0,0,0,0,0,0,0,0,0,0,0,0,0,0,0,0,0,0,0,
0,0,0,0,0,0,0,0,0,0,0,0,0,0,0,924,925,848,849,0,0,0,0,0,0,0,0,0,0,0,0,0,0,0,0,0,977,978,978,978,978,978,978,978,978,978,979,0,
0,0,0,0,0,0,0,0,0,0,0,0,0,0,0,862,863,864,865,0,0,0,0,0,0,0,0,0,0,0,0,0,0,0,0,0,0,0,0,0,0,0,0,0,0,0,0,0,
0,0,0,0,0,0,0,0,0,0,0,0,0,0,0,0,0,0,0,0,0,0,0,0,0,0,0,0,0,0,0,0,0,0,0,0,0,0,0,0,0,0,0,0,0,0,0,0,
0,0,0,0,0,0,0,0,0,0,0,0,0,0,0,0,0,0,0,0,0,0,0,0,0,0,0,0,0,0,0,0,0,0,0,0,977,978,978,978,978,978,978,978,978,978,979,0,
0,0,0,0,0,0,0,0,0,0,0,0,0,0,0,0,0,0,0,0,0,0,0,0,0,848,849,0,0,0,0,0,0,0,0,0,0,0,0,0,0,0,0,0,0,0,0,0,
0,0,0,0,0,0,0,0,0,0,0,0,0,0,0,0,0,0,0,0,0,0,0,862,863,864,865,0,0,0,0,0,0,0,0,0,0,0,0,0,0,0,0,0,0,0,0,0,
0,0,0,0,0,0,0,0,0,0,0,0,0,0,0,0,0,0,0,0,0,0,0,0,0,0,0,0,0,0,0,0,0,0,0,0,0,0,0,0,0,0,0,0,0,0,0,0,
0,0,0,0,0,0,0,0,0,0,0,0,0,0,0,0,0,0,0,0,0,0,0,0,0,0,0,0,0,0,0,0,0,0,0,0,0,0,0,0,0,0,0,0,0,0,0,0,
0,0,0,0,0,0,0,0,0,0,0,0,0,0,0,0,0,0,0,0,0,0,0,0,0,0,0,0,0,193,194,195,193,194,195,193,194,195,0,0,0,193,194,195,0,193,194,195,
0,0,0,0,0,0,0,0,0,0,0,0,0,0,0,0,0,0,0,0,0,0,0,0,0,0,0,0,0,201,202,203,201,202,203,201,202,203,0,0,0,201,202,203,0,201,202,203,
0,0,0,0,0,0,0,0,0,0,0,0,0,0,0,0,0,0,0,0,0,0,0,0,0,0,0,0,0,209,210,211,209,210,211,209,210,211,0,0,0,209,210,211,0,209,210,211,
0,0,0,0,0,0,0,0,0,0,0,0,0,0,0,0,0,0,0,0,0,0,0,0,0,0,0,0,0,217,218,219,217,218,219,217,218,219,0,0,0,217,218,219,0,217,218,219,
0,0,0,0,0,0,0,0,0,0,0,0,0,0,0,0,0,0,867,868,869,870,871,0,0,0,0,0,0,0,0,0,0,0,0,0,0,0,0,0,0,0,0,0,0,0,0,0,
0,808,809,810,811,812,813,0,0,0,0,781,782,783,0,0,0,0,883,884,885,886,887,0,0,0,0,0,0,193,194,195,0,0,0,0,0,0,0,0,0,0,0,0,0,0,0,0,
0,0,0,0,0,0,0,0,0,0,0,0,0,0,0,0,0,0,0,0,0,0,0,0,0,0,0,0,0,201,202,203,0,0,0,0,0,0,0,0,0,0,0,0,0,0,193,194,
0,0,0,0,0,0,0,0,0,0,0,0,0,0,0,0,0,0,0,0,0,0,0,0,0,0,0,0,0,209,210,211,0,0,0,0,0,0,0,0,0,0,0,0,0,0,201,202,
0,0,0,0,0,0,0,0,0,0,0,0,0,0,0,0,0,0,867,868,869,870,871,0,0,0,0,0,0,217,218,219,0,0,0,0,193,194,195,0,0,0,0,0,0,0,209,210,
0,0,0,0,0,0,808,809,810,811,812,813,0,0,0,0,0,0,883,884,885,886,887,0,0,0,0,0,0,0,0,0,0,193,194,195,201,202,203,0,0,0,0,0,0,0,217,218,
0,0,0,0,0,0,0,0,0,0,0,0,0,0,0,0,0,0,0,0,0,0,0,0,0,0,0,0,0,0,0,0,0,201,202,203,209,210,211,0,0,0,0,0,0,0,0,0,
0,0,0,0,0,0,0,0,0,0,0,0,0,0,0,0,0,0,0,0,0,0,0,0,0,0,0,0,0,0,0,0,0,209,210,211,217,218,219,0,0,0,0,0,0,0,0,0,
0,808,809,810,811,812,813,0,0,0,0,0,0,0,0,0,0,0,0,971,972,973,954,0,0,0,0,0,0,193,194,195,0,217,218,219,0,0,0,0,0,0,0,0,0,0,0,0,
0,0,0,0,0,0,0,0,0,0,0,0,0,0,0,0,0,0,0,0,0,0,0,0,0,0,0,0,0,201,202,203,0,0,0,0,0,0,0,0,0,0,0,0,0,0,193,194,
0,0,0,0,0,0,0,0,0,0,0,835,836,0,0,0,0,0,0,0,0,0,0,0,0,0,0,0,0,209,210,211,0,0,0,0,0,0,0,0,0,0,0,0,0,0,201,202,
0,0,0,0,0,0,0,0,0,0,0,0,0,0,0,0,0,0,0,0,0,0,0,0,0,0,0,0,0,217,218,219,0,0,0,0,0,0,0,0,0,0,0,0,0,0,209,210,
194,195,0,0,0,0,0,0,0,0,0,0,0,0,0,0,0,0,0,0,0,0,0,0,0,0,0,0,0,0,0,0,0,0,0,0,0,0,0,0,0,0,0,0,0,0,0,218,
202,203,0,0,0,0,0,0,0,0,0,0,0,0,0,0,0,0,0,0,0,0,0,0,0,0,0,0,0,0,0,0,0,0,0,0,0,0,0,0,0,0,0,0,0,0,0,0,
210,211,0,0,0,0,0,0,0,0,0,0,0,0,0,0,0,0,0,0,0,0,0,0,0,0,0,0,0,0,0,0,0,0,0,0,0,0,0,0,0,0,0,0,0,0,0,0,
218,195,0,0,0,0,0,0,0,0,0,0,0,0,0,0,0,0,0,0,0,0,0,0,0,0,0,0,0,0,0,0,0,0,0,193,194,195,0,0,0,0,0,0,0,0,193,194,
0,203,0,0,0,0,0,0,0,0,0,0,0,0,0,0,0,0,0,0,0,0,0,0,0,0,0,0,0,193,194,195,193,194,195,201,202,203,193,194,195,0,193,194,195,0,201,202,
0,211,0,0,0,0,0,0,0,0,0,0,0,0,0,0,0,0,0,0,0,0,0,0,0,193,194,195,0,201,202,203,201,202,203,209,210,211,201,202,203,0,201,202,203,0,209,210,
0,0,0,0,0,0,0,0,193,194,195,0,0,0,0,0,0,0,0,0,0,193,194,195,0,201,202,203,0,209,210,211,209,210,211,225,218,219,209,210,211,0,209,210,211,0,217,218,
0,0,0,0,0,0,0,0,201,202,203,0,0,0,0,0,0,0,0,0,0,201,202,203,0,209,210,211,0,217,218,219,217,218,219,0,0,0,0,0,0,0,217,218,219,0,0,0
</data>
 </layer>
 <layer id="19" name="VorCharacter2" width="48" height="48">
  <data encoding="csv">
1,3,3,3,3,3,3,96,3,3,3,3,3,3,96,3,3,3,3,3,3,3,3,3,3,3,3,3,3,3,3,96,3,3,3,3,3,3,3,3,3,3,3,3,3,3,3,5,
13,0,0,0,0,0,0,0,0,0,0,0,0,0,13,0,0,0,0,0,0,0,0,0,0,0,0,0,0,0,560,13,0,0,0,0,0,0,0,0,0,0,0,0,0,0,0,17,
13,0,0,0,0,0,0,0,0,0,0,0,0,0,13,0,0,0,0,0,0,0,0,0,0,0,0,0,0,0,577,13,0,0,0,0,0,0,0,0,0,0,0,0,0,0,0,17,
13,0,0,0,0,0,0,0,0,0,0,0,0,0,13,0,0,0,0,0,0,0,0,0,0,0,0,0,0,0,0,13,0,0,0,0,0,0,0,0,0,0,0,0,0,0,0,17,
13,0,0,0,0,0,0,0,0,0,0,0,0,0,13,0,0,0,0,0,0,0,0,0,0,0,0,0,0,0,0,13,0,0,0,0,0,0,0,0,0,0,0,0,0,0,0,17,
119,0,0,0,0,0,0,0,0,0,0,0,0,0,62,0,0,0,0,0,0,0,0,0,0,0,0,0,0,856,857,25,0,0,0,0,0,0,0,0,0,0,0,0,0,0,0,17,
13,0,0,0,0,0,0,0,0,0,0,0,0,0,0,0,0,0,0,0,0,0,0,0,0,0,0,0,0,0,0,0,0,0,0,0,0,0,0,0,0,0,0,0,0,0,0,17,
13,0,0,0,0,0,0,0,0,0,0,0,0,0,0,0,0,0,0,0,0,0,0,0,0,0,0,0,0,0,0,0,0,0,0,0,0,0,0,0,0,0,0,0,0,0,0,17,
13,0,0,0,0,0,0,0,0,0,0,0,0,0,0,0,0,0,0,0,0,940,941,0,0,0,0,0,0,0,0,0,0,0,0,0,0,0,0,0,0,0,0,0,0,0,0,17,
13,0,0,0,0,0,0,0,0,0,0,0,0,0,0,0,0,0,0,0,0,0,0,0,0,0,0,0,0,0,0,0,0,0,0,0,0,0,0,0,0,0,0,0,0,0,0,17,
13,0,0,0,0,0,0,0,0,0,0,0,0,0,0,0,0,0,0,0,0,0,0,0,0,0,0,0,0,0,0,1,3,3,3,3,3,3,3,3,3,3,3,3,3,3,3,107,
13,0,0,0,0,0,0,0,0,1,3,3,3,3,5,0,0,0,0,0,0,0,0,0,0,0,0,0,0,0,0,97,0,0,0,0,0,0,0,0,0,0,0,0,0,0,0,17,
13,0,0,0,0,0,0,0,0,13,0,0,0,0,98,0,0,0,0,0,0,0,0,0,0,0,0,0,0,0,0,97,0,0,0,0,0,0,0,0,0,0,0,0,0,0,0,17,
13,0,0,0,0,0,0,0,0,13,0,0,0,0,98,0,0,0,0,0,0,0,0,0,0,0,0,0,0,0,0,97,0,0,0,0,0,0,0,0,0,0,0,0,0,0,0,17,
13,0,0,0,0,0,0,0,0,13,0,0,0,0,98,0,0,0,0,0,0,0,0,0,0,0,0,0,0,0,0,97,0,0,0,0,0,0,0,0,0,0,0,0,0,0,0,17,
13,0,0,0,0,0,0,0,0,13,0,0,0,0,98,0,0,0,0,0,0,0,0,0,0,0,0,0,0,0,0,97,0,0,0,0,0,0,0,0,0,0,0,0,0,0,0,17,
13,0,0,0,0,0,0,0,0,119,0,0,0,0,107,0,0,0,0,0,0,0,0,0,0,0,0,0,0,856,857,25,0,0,0,0,0,569,0,0,0,0,0,0,0,569,0,17,
13,0,0,0,0,0,0,0,0,13,0,0,0,0,98,940,941,0,0,0,0,0,0,0,0,0,0,0,0,0,0,0,0,0,0,0,0,0,0,0,0,0,0,0,0,0,0,17,
13,0,0,0,0,0,0,0,0,13,0,0,0,0,98,0,0,0,0,0,0,0,0,0,0,0,0,0,0,0,0,0,0,0,0,0,0,0,0,0,0,0,0,0,0,0,0,17,
13,0,0,0,0,0,0,0,0,13,0,0,0,0,98,0,0,0,0,0,0,0,0,0,0,0,0,0,0,0,0,0,0,0,0,0,0,0,0,0,569,0,0,0,0,569,0,17,
13,0,0,0,0,0,0,0,0,13,0,0,0,0,98,0,0,0,0,0,0,0,0,0,0,0,0,0,0,0,0,0,0,0,0,0,0,0,0,0,0,0,0,0,0,0,0,17,
13,0,0,0,0,0,0,0,0,13,0,0,0,0,98,0,0,0,0,0,0,0,0,0,0,0,0,0,0,0,0,0,0,0,0,0,0,0,0,0,0,0,0,0,0,0,0,17,
13,0,0,0,0,0,0,0,0,13,0,0,0,0,98,0,0,0,0,0,0,0,0,0,0,0,0,0,0,0,0,0,0,0,0,0,0,0,0,0,0,0,0,0,0,0,0,17,
119,110,110,110,110,110,110,110,110,120,110,110,110,110,120,81,0,0,0,0,0,82,110,110,110,110,110,110,108,110,110,110,110,110,110,110,110,81,0,0,0,82,110,110,110,110,110,87,
13,0,0,0,0,0,0,0,0,0,0,0,0,0,0,0,0,0,0,0,0,0,0,0,0,0,0,0,98,0,0,0,0,0,0,0,0,0,0,0,0,0,0,0,0,0,0,0,
13,0,0,0,0,0,0,0,0,0,0,0,0,0,0,0,0,0,0,0,0,0,0,0,0,0,0,0,98,0,0,0,0,0,0,0,0,0,0,0,0,0,0,0,0,0,0,0,
13,0,0,0,0,0,0,0,0,0,0,0,0,0,0,0,0,0,0,0,0,0,0,0,0,0,0,0,98,0,0,0,0,0,0,0,0,0,0,0,0,0,0,0,0,0,0,0,
13,0,0,0,0,0,0,0,0,0,0,0,0,0,0,0,0,0,0,0,0,0,0,0,0,0,0,0,98,0,0,0,0,0,0,0,0,0,0,0,0,0,0,0,0,0,0,0,
13,0,0,0,0,0,0,0,0,0,0,0,0,0,0,0,0,0,0,0,0,0,0,0,0,0,0,0,98,0,0,0,0,0,0,0,0,0,0,0,0,0,0,0,0,0,0,0,
13,0,0,0,0,0,0,0,0,0,0,0,0,0,0,0,0,0,0,0,0,0,0,0,0,0,0,0,98,0,0,0,0,0,0,0,0,0,0,0,0,0,0,0,0,0,0,0,
13,0,0,0,0,0,0,0,0,0,0,0,0,0,0,0,0,0,0,0,0,0,0,0,0,0,0,0,98,0,0,0,0,0,0,0,0,0,0,0,0,0,0,0,0,0,0,0,
13,0,0,0,0,0,0,0,0,0,0,0,0,0,0,0,0,0,0,0,0,0,0,0,0,0,0,0,98,0,0,0,0,0,0,0,0,0,0,0,0,0,0,0,0,0,0,0,
13,0,0,0,0,0,0,0,0,0,0,0,0,0,0,0,0,0,0,0,0,0,0,0,0,0,0,0,98,0,0,0,0,0,0,0,0,0,0,0,0,0,0,0,0,0,0,0,
13,0,0,0,0,0,0,0,0,0,0,0,0,0,0,0,0,0,0,0,0,0,0,0,0,0,0,0,98,0,0,0,0,0,0,0,0,0,0,0,0,0,0,0,0,0,193,194,
13,0,0,0,0,0,0,0,0,0,0,0,0,0,0,0,0,0,0,0,0,0,0,0,0,0,0,0,98,0,0,0,0,0,0,0,0,0,0,0,0,0,0,0,0,0,201,202,
13,0,0,0,0,0,0,0,0,0,0,0,0,0,0,0,0,0,0,0,0,0,0,0,0,0,0,0,98,0,0,0,0,0,0,193,194,195,0,0,0,0,0,0,0,0,209,210,
13,0,0,0,0,0,0,0,0,0,0,0,0,0,0,0,0,0,0,0,0,0,0,0,0,0,0,0,98,0,0,0,0,0,0,201,202,203,0,0,0,0,0,0,0,0,217,218,
13,0,0,0,0,0,0,0,0,0,0,0,0,0,0,0,0,0,0,0,0,0,0,0,0,0,0,0,98,0,0,0,0,0,0,209,210,211,0,0,0,0,0,0,0,0,0,0,
109,110,110,110,110,110,110,110,110,110,92,0,0,0,0,0,0,0,116,110,110,110,110,110,110,110,110,110,87,0,0,0,0,0,0,217,218,219,0,0,0,0,0,0,0,0,0,0,
0,0,0,0,0,0,0,0,0,0,97,0,0,0,0,0,0,0,98,0,0,0,0,0,0,0,0,0,193,194,195,0,0,0,0,0,0,0,0,0,0,0,0,0,0,0,193,194,
0,0,0,0,0,0,0,0,0,0,109,110,81,0,0,0,82,110,87,0,0,0,0,0,0,0,0,0,201,202,203,0,0,0,0,0,0,0,0,0,0,0,0,0,0,0,201,202,
0,0,0,0,0,0,0,0,0,0,0,0,0,0,0,0,0,0,0,0,0,0,0,0,0,0,0,0,209,210,211,0,0,0,0,0,0,0,0,0,0,0,0,0,0,0,209,210,
0,0,0,0,0,0,0,0,0,0,0,0,0,0,0,0,0,0,0,0,0,0,0,0,0,0,0,0,217,218,219,0,0,0,0,0,0,0,0,0,0,0,0,0,0,0,217,218,
194,0,0,0,0,0,0,0,0,0,0,0,0,0,0,0,0,0,0,0,0,0,0,0,0,0,0,0,0,0,0,0,0,0,0,0,0,0,0,0,0,0,0,0,0,0,0,0,
202,0,0,0,0,0,0,0,0,0,0,0,0,0,0,0,0,0,0,0,0,0,0,0,0,0,0,0,0,0,0,0,0,0,0,0,0,0,0,0,0,0,0,0,0,0,0,0,
210,0,0,0,0,0,0,0,0,0,0,0,0,0,0,0,0,0,0,0,0,0,0,0,0,0,0,0,0,0,0,0,0,0,0,0,0,0,0,0,0,0,0,0,0,0,0,0,
218,219,0,0,0,0,0,0,0,0,0,0,0,0,0,0,0,0,0,0,0,0,0,0,0,0,0,0,0,0,0,0,0,0,0,0,0,0,0,0,0,0,0,0,0,0,0,0,
0,0,0,0,0,0,0,0,0,0,0,0,0,0,0,0,0,0,0,0,0,0,0,0,0,0,0,0,0,0,0,0,0,0,0,0,0,0,217,218,219,0,0,0,0,0,0,0
</data>
 </layer>
 <objectgroup color="#ff2600" id="13" name="collision" visible="0">
  <object id="1" x="14.8243" y="368.654" width="240.036" height="46.3865">
   <properties>
    <property name="height" type="float" value="46.39"/>
    <property name="width" type="float" value="240.04"/>
    <property name="x" type="float" value="14.82"/>
    <property name="y" type="float" value="368.65"/>
   </properties>
  </object>
  <object id="26" x="17.4679" y="2.33843" width="739.524" height="45.2636">
   <properties>
    <property name="height" type="float" value="45.26"/>
    <property name="width" type="float" value="739.52"/>
    <property name="x" type="float" value="17.47"/>
    <property name="y" type="float" value="2.34"/>
   </properties>
  </object>
  <object id="3" x="496.32" y="24.9787" width="15.5798" height="102.772">
   <properties>
    <property name="height" type="float" value="102.77"/>
    <property name="width" type="float" value="15.58"/>
    <property name="x" type="float" value="496.32"/>
    <property name="y" type="float" value="24.98"/>
   </properties>
  </object>
  <object id="41" x="288.9" y="66.2408" width="77.8738" height="29.1185">
   <properties>
    <property name="height" type="float" value="29.12"/>
    <property name="width" type="float" value="77.87"/>
    <property name="x" type="float" value="288.9"/>
    <property name="y" type="float" value="66.24"/>
   </properties>
  </object>
  <object id="44" x="400.944" y="115.476" width="44.9476" height="27.0908">
   <properties>
    <property name="height" type="float" value="27.09"/>
    <property name="width" type="float" value="44.95"/>
    <property name="x" type="float" value="400.94"/>
    <property name="y" type="float" value="115.48"/>
   </properties>
  </object>
  <object id="45" x="515.078" y="43.0151" width="140.702" height="35.4863">
   <properties>
    <property name="height" type="float" value="35.49"/>
    <property name="width" type="float" value="140.7"/>
    <property name="x" type="float" value="515.08"/>
    <property name="y" type="float" value="43.02"/>
   </properties>
  </object>
  <object id="46" x="721.552" y="65.8053" width="29.7687" height="97.7023">
   <properties>
    <property name="height" type="float" value="97.7"/>
    <property name="width" type="float" value="29.77"/>
    <property name="x" type="float" value="721.55"/>
    <property name="y" type="float" value="65.81"/>
   </properties>
  </object>
  <object id="48" x="576.33" y="260.865" width="170.46" height="25.5983">
   <properties>
    <property name="height" type="float" value="25.6"/>
    <property name="width" type="float" value="170.46"/>
    <property name="x" type="float" value="576.33"/>
    <property name="y" type="float" value="260.86"/>
   </properties>
  </object>
  <object id="51" x="416.514" y="410.67" width="28.5419" height="159.777">
   <properties>
    <property name="height" type="float" value="159.78"/>
    <property name="width" type="float" value="28.54"/>
    <property name="x" type="float" value="416.51"/>
    <property name="y" type="float" value="410.67"/>
   </properties>
  </object>
  <object id="4" x="19.026" y="177.92" width="57.7243" height="182.698">
   <properties>
    <property name="height" type="float" value="182.7"/>
    <property name="width" type="float" value="57.72"/>
    <property name="x" type="float" value="19.03"/>
    <property name="y" type="float" value="177.92"/>
   </properties>
  </object>
  <object id="28" x="11.408" y="34.1941" width="228.411" height="93.6086">
   <properties>
    <property name="height" type="float" value="93.61"/>
    <property name="width" type="float" value="228.41"/>
    <property name="x" type="float" value="11.41"/>
    <property name="y" type="float" value="34.19"/>
   </properties>
  </object>
  <object id="23" x="0.173571" y="608.294" width="175.578" height="46.9937">
   <properties>
    <property name="height" type="float" value="46.99"/>
    <property name="width" type="float" value="175.58"/>
    <property name="x" type="float" value="0.17"/>
    <property name="y" type="float" value="608.29"/>
   </properties>
  </object>
  <object id="24" x="288.493" y="608.064" width="174.868" height="47.679">
   <properties>
    <property name="height" type="float" value="47.68"/>
    <property name="width" type="float" value="174.87"/>
    <property name="x" type="float" value="288.49"/>
    <property name="y" type="float" value="608.06"/>
   </properties>
  </object>
  <object id="25" x="0.0298623" y="659.026" width="14.1622" height="107.365">
   <properties>
    <property name="height" type="float" value="107.36"/>
    <property name="width" type="float" value="14.16"/>
    <property name="x" type="float" value="0.03"/>
    <property name="y" type="float" value="659.03"/>
   </properties>
  </object>
  <object id="6" x="448.262" y="413.924" width="15.4795" height="29.5642">
   <properties>
    <property name="height" type="float" value="29.56"/>
    <property name="width" type="float" value="15.48"/>
    <property name="x" type="float" value="448.26"/>
    <property name="y" type="float" value="413.92"/>
   </properties>
  </object>
  <object id="29" x="509.093" y="160.133" width="254.882" height="47.3207">
   <properties>
    <property name="height" type="float" value="47.32"/>
    <property name="width" type="float" value="254.88"/>
    <property name="x" type="float" value="509.09"/>
    <property name="y" type="float" value="160.13"/>
   </properties>
  </object>
  <object id="33" x="656.21" y="368.221" width="110.599" height="47.5911">
   <properties>
    <property name="height" type="float" value="47.59"/>
    <property name="width" type="float" value="110.6"/>
    <property name="x" type="float" value="656.21"/>
    <property name="y" type="float" value="368.22"/>
   </properties>
  </object>
  <object id="14" x="465.01" y="753.874" width="291.431" height="13.9391">
   <properties>
    <property name="height" type="float" value="13.94"/>
    <property name="width" type="float" value="291.43"/>
    <property name="x" type="float" value="465.01"/>
    <property name="y" type="float" value="753.87"/>
   </properties>
  </object>
  <object id="15" x="160.142" y="640.185" width="47.3414" height="47.6422">
   <properties>
    <property name="height" type="float" value="47.64"/>
    <property name="width" type="float" value="47.34"/>
    <property name="x" type="float" value="160.14"/>
    <property name="y" type="float" value="640.18"/>
   </properties>
  </object>
  <object id="32" x="256.399" y="640.155" width="47.3338" height="47.5566">
   <properties>
    <property name="height" type="float" value="47.56"/>
    <property name="width" type="float" value="47.33"/>
    <property name="x" type="float" value="256.4"/>
    <property name="y" type="float" value="640.16"/>
   </properties>
  </object>
  <object id="52" x="322.132" y="648.133" width="44.1391" height="37.8398">
   <properties>
    <property name="height" type="float" value="37.84"/>
    <property name="width" type="float" value="44.14"/>
    <property name="x" type="float" value="322.13"/>
    <property name="y" type="float" value="648.13"/>
   </properties>
  </object>
  <object id="53" x="401.343" y="645.521" width="44.0482" height="40.5065">
   <properties>
    <property name="height" type="float" value="40.51"/>
    <property name="width" type="float" value="44.05"/>
    <property name="x" type="float" value="401.34"/>
    <property name="y" type="float" value="645.52"/>
   </properties>
  </object>
  <object id="54" x="64.1364" y="653.822" width="47.5818" height="34.0011">
   <properties>
    <property name="height" type="float" value="34"/>
    <property name="width" type="float" value="47.58"/>
    <property name="x" type="float" value="64.14"/>
    <property name="y" type="float" value="653.82"/>
   </properties>
  </object>
  <object id="38" x="577.351" y="737.108" width="13.0557" height="27.3487">
   <properties>
    <property name="height" type="float" value="27.35"/>
    <property name="width" type="float" value="13.06"/>
    <property name="x" type="float" value="577.35"/>
    <property name="y" type="float" value="737.11"/>
   </properties>
  </object>
  <object id="39" x="12.1403" y="753.879" width="453.639" height="13.94">
   <properties>
    <property name="height" type="float" value="13.94"/>
    <property name="width" type="float" value="453.64"/>
    <property name="x" type="float" value="12.14"/>
    <property name="y" type="float" value="753.88"/>
   </properties>
  </object>
  <object id="20" x="496.16" y="160.131" width="15.7074" height="143.532">
   <properties>
    <property name="height" type="float" value="143.53"/>
    <property name="width" type="float" value="15.71"/>
    <property name="x" type="float" value="496.16"/>
    <property name="y" type="float" value="160.13"/>
   </properties>
  </object>
  <object id="21" x="753.664" y="1.64652" width="12.9258" height="368.501">
   <properties>
    <property name="height" type="float" value="368.5"/>
    <property name="width" type="float" value="12.93"/>
    <property name="x" type="float" value="753.66"/>
    <property name="y" type="float" value="1.65"/>
   </properties>
  </object>
  <object id="22" x="1.36228" y="3.29938" width="14.4727" height="603.285">
   <properties>
    <property name="height" type="float" value="603.28"/>
    <property name="width" type="float" value="14.47"/>
    <property name="x" type="float" value="1.36"/>
    <property name="y" type="float" value="3.3"/>
   </properties>
  </object>
  <object id="9" x="576.415" y="609.082" width="15.0386" height="13.2331">
   <properties>
    <property name="height" type="float" value="13.23"/>
    <property name="width" type="float" value="15.04"/>
    <property name="x" type="float" value="576.42"/>
    <property name="y" type="float" value="609.08"/>
   </properties>
  </object>
  <object id="13" x="754.014" y="413.206" width="13.94" height="354.746">
   <properties>
    <property name="height" type="float" value="354.75"/>
    <property name="width" type="float" value="13.94"/>
    <property name="x" type="float" value="754.01"/>
    <property name="y" type="float" value="413.21"/>
   </properties>
  </object>
  <object id="10" x="544.503" y="576.495" width="14.6661" height="13.6046">
   <properties>
    <property name="height" type="float" value="13.6"/>
    <property name="width" type="float" value="14.67"/>
    <property name="x" type="float" value="544.5"/>
    <property name="y" type="float" value="576.49"/>
   </properties>
  </object>
  <object id="35" x="480.143" y="624.766" width="14.8113" height="14.3679">
   <properties>
    <property name="height" type="float" value="14.37"/>
    <property name="width" type="float" value="14.81"/>
    <property name="x" type="float" value="480.14"/>
    <property name="y" type="float" value="624.77"/>
   </properties>
  </object>
  <object id="36" x="464.349" y="672.299" width="15.0823" height="13.0842">
   <properties>
    <property name="height" type="float" value="13.08"/>
    <property name="width" type="float" value="15.08"/>
    <property name="x" type="float" value="464.35"/>
    <property name="y" type="float" value="672.3"/>
   </properties>
  </object>
  <object id="34" x="480.982" y="512.311" width="14.1031" height="13.6911">
   <properties>
    <property name="height" type="float" value="13.69"/>
    <property name="width" type="float" value="14.1"/>
    <property name="x" type="float" value="480.98"/>
    <property name="y" type="float" value="512.31"/>
   </properties>
  </object>
  <object id="12" x="448.278" y="440.562" width="15.0958" height="179.731">
   <properties>
    <property name="height" type="float" value="179.73"/>
    <property name="width" type="float" value="15.1"/>
    <property name="x" type="float" value="448.28"/>
    <property name="y" type="float" value="440.56"/>
   </properties>
  </object>
  <object id="8" x="144.116" y="176.146" width="95.7059" height="195.035">
   <properties>
    <property name="height" type="float" value="195.04"/>
    <property name="width" type="float" value="95.71"/>
    <property name="x" type="float" value="144.12"/>
    <property name="y" type="float" value="176.15"/>
   </properties>
  </object>
  <object id="55" x="241.636" y="192.614" width="61.8182" height="29.5455">
   <properties>
    <property name="height" type="float" value="29.55"/>
    <property name="width" type="float" value="61.82"/>
    <property name="x" type="float" value="241.64"/>
    <property name="y" type="float" value="192.61"/>
   </properties>
  </object>
  <object id="57" x="241.273" y="272.432" width="61.2386" height="29.7046">
   <properties>
    <property name="height" type="float" value="29.7"/>
    <property name="width" type="float" value="61.24"/>
    <property name="x" type="float" value="241.27"/>
    <property name="y" type="float" value="272.43"/>
   </properties>
  </object>
  <object id="58" x="290.546" y="464.535" width="75.0909" height="28.6477">
   <properties>
    <property name="height" type="float" value="28.65"/>
    <property name="width" type="float" value="75.09"/>
    <property name="x" type="float" value="290.55"/>
    <property name="y" type="float" value="464.53"/>
   </properties>
  </object>
  <object id="60" x="290.023" y="528.326" width="76.5568" height="28.7878">
   <properties>
    <property name="height" type="float" value="28.79"/>
    <property name="width" type="float" value="76.56"/>
    <property name="x" type="float" value="290.02"/>
    <property name="y" type="float" value="528.33"/>
   </properties>
  </object>
  <object id="62" x="304.727" y="578.065" width="73.4545" height="29.5417">
   <properties>
    <property name="height" type="float" value="29.54"/>
    <property name="width" type="float" value="73.45"/>
    <property name="x" type="float" value="304.73"/>
    <property name="y" type="float" value="578.07"/>
   </properties>
  </object>
  <object id="63" x="416.636" y="578.364" width="29.909" height="28.9091">
   <properties>
    <property name="height" type="float" value="28.91"/>
    <property name="width" type="float" value="29.91"/>
    <property name="x" type="float" value="416.64"/>
    <property name="y" type="float" value="578.36"/>
   </properties>
  </object>
  <object id="64" x="176" y="614.622" width="30.5" height="24.6288">
   <properties>
    <property name="height" type="float" value="24.63"/>
    <property name="width" type="float" value="30.5"/>
    <property name="x" type="float" value="176"/>
    <property name="y" type="float" value="614.62"/>
   </properties>
  </object>
  <object id="65" x="98.0791" y="534.534" width="90.7668" height="24.4659">
   <properties>
    <property name="height" type="float" value="24.47"/>
    <property name="width" type="float" value="90.77"/>
    <property name="x" type="float" value="98.08"/>
    <property name="y" type="float" value="534.53"/>
   </properties>
  </object>
  <object id="66" x="13.6023" y="470.167" width="94.7537" height="25.0151">
   <properties>
    <property name="height" type="float" value="25.02"/>
    <property name="width" type="float" value="94.75"/>
    <property name="x" type="float" value="13.6"/>
    <property name="y" type="float" value="470.17"/>
   </properties>
  </object>
  <object id="67" x="12.1818" y="582.761" width="95.9811" height="24.47">
   <properties>
    <property name="height" type="float" value="24.47"/>
    <property name="width" type="float" value="95.98"/>
    <property name="x" type="float" value="12.18"/>
    <property name="y" type="float" value="582.76"/>
   </properties>
  </object>
  <object id="68" x="177.773" y="467.852" width="43.2727" height="26.2159">
   <properties>
    <property name="height" type="float" value="26.22"/>
    <property name="width" type="float" value="43.27"/>
    <property name="x" type="float" value="177.77"/>
    <property name="y" type="float" value="467.85"/>
   </properties>
  </object>
  <object id="70" x="65.8864" y="405.841" width="106.477" height="25.7159">
   <properties>
    <property name="height" type="float" value="25.72"/>
    <property name="width" type="float" value="106.48"/>
    <property name="x" type="float" value="65.89"/>
    <property name="y" type="float" value="405.84"/>
   </properties>
  </object>
  <object id="71" x="192.909" y="407.523" width="30.1818" height="23.2727">
   <properties>
    <property name="height" type="float" value="23.27"/>
    <property name="width" type="float" value="30.18"/>
    <property name="x" type="float" value="192.91"/>
    <property name="y" type="float" value="407.52"/>
   </properties>
  </object>
  <object id="72" x="353" y="410.795" width="14" height="20.1818">
   <properties>
    <property name="height" type="float" value="20.18"/>
    <property name="width" type="float" value="14"/>
    <property name="x" type="float" value="353"/>
    <property name="y" type="float" value="410.8"/>
   </properties>
  </object>
  <object id="73" x="369.795" y="336.318" width="60.1818" height="30.4773">
   <properties>
    <property name="height" type="float" value="30.48"/>
    <property name="width" type="float" value="60.18"/>
    <property name="x" type="float" value="369.8"/>
    <property name="y" type="float" value="336.32"/>
   </properties>
  </object>
  <object id="74" x="368.477" y="240.659" width="63" height="29.6364">
   <properties>
    <property name="height" type="float" value="29.64"/>
    <property name="width" type="float" value="63"/>
    <property name="x" type="float" value="368.48"/>
    <property name="y" type="float" value="240.66"/>
   </properties>
  </object>
  <object id="75" x="464.675" y="256.215" width="35.1818" height="47.4516">
   <properties>
    <property name="height" type="float" value="47.45"/>
    <property name="width" type="float" value="35.18"/>
    <property name="x" type="float" value="464.67"/>
    <property name="y" type="float" value="256.22"/>
   </properties>
  </object>
  <object id="77" x="452.273" y="42.0909" width="24" height="20.3636">
   <properties>
    <property name="height" type="float" value="20.36"/>
    <property name="width" type="float" value="24"/>
    <property name="x" type="float" value="452.27"/>
    <property name="y" type="float" value="42.09"/>
   </properties>
  </object>
  <object id="81" x="657.25" y="129.125" width="29.625" height="29.375">
   <properties>
    <property name="height" type="float" value="29.38"/>
    <property name="width" type="float" value="29.63"/>
    <property name="x" type="float" value="657.25"/>
    <property name="y" type="float" value="129.13"/>
   </properties>
  </object>
  <object id="82" x="706.136" y="44" width="44.9773" height="18">
   <properties>
    <property name="height" type="float" value="18"/>
    <property name="width" type="float" value="44.98"/>
    <property name="x" type="float" value="706.12"/>
    <property name="y" type="float" value="44"/>
   </properties>
  </object>
  <object id="87" x="321.455" y="129.227" width="45.6705" height="29.1364">
   <properties>
    <property name="height" type="float" value="29.14"/>
    <property name="width" type="float" value="45.67"/>
    <property name="x" type="float" value="321.45"/>
    <property name="y" type="float" value="129.23"/>
   </properties>
  </object>
  <object id="93" x="592.727" y="560.841" width="14.1515" height="14.25">
   <properties>
    <property name="height" type="float" value="14.25"/>
    <property name="width" type="float" value="14.15"/>
    <property name="x" type="float" value="592.73"/>
    <property name="y" type="float" value="560.84"/>
   </properties>
  </object>
  <object id="121" x="336.398" y="368.373" width="271.227" height="47.5883">
   <properties>
    <property name="height" type="float" value="47.59"/>
    <property name="width" type="float" value="271.23"/>
    <property name="x" type="float" value="336.4"/>
    <property name="y" type="float" value="368.37"/>
   </properties>
  </object>
  <object id="124" x="528.735" y="433.712" width="14.1031" height="12.5093">
   <properties>
    <property name="height" type="float" value="12.51"/>
    <property name="width" type="float" value="14.1"/>
    <property name="x" type="float" value="528.73"/>
    <property name="y" type="float" value="433.71"/>
   </properties>
  </object>
  <object id="131" x="576.33" y="308.701" width="170.46" height="25.5983">
   <properties>
    <property name="height" type="float" value="25.6"/>
    <property name="width" type="float" value="170.46"/>
    <property name="x" type="float" value="576.33"/>
    <property name="y" type="float" value="308.7"/>
   </properties>
  </object>
  <object id="132" x="560.296" y="736.613" width="15.3205" height="15.5661">
   <properties>
    <property name="height" type="float" value="15.57"/>
    <property name="width" type="float" value="15.32"/>
    <property name="x" type="float" value="560.3"/>
    <property name="y" type="float" value="736.61"/>
   </properties>
  </object>
  <object id="137" x="464.268" y="80.2851" width="35.1818" height="47.4516">
   <properties>
    <property name="height" type="float" value="47.45"/>
    <property name="width" type="float" value="35.18"/>
    <property name="x" type="float" value="464.27"/>
    <property name="y" type="float" value="80.29"/>
   </properties>
  </object>
  <object id="139" x="480.948" y="433.745" width="14.1031" height="12.5093">
   <properties>
    <property name="height" type="float" value="12.51"/>
    <property name="width" type="float" value="14.1"/>
    <property name="x" type="float" value="480.95"/>
    <property name="y" type="float" value="433.75"/>
   </properties>
  </object>
  <object id="140" x="577.039" y="434.291" width="14.1031" height="12.5093">
   <properties>
    <property name="height" type="float" value="12.51"/>
    <property name="width" type="float" value="14.1"/>
    <property name="x" type="float" value="577.04"/>
    <property name="y" type="float" value="434.29"/>
   </properties>
  </object>
  <object id="141" x="672.858" y="433.836" width="14.1031" height="12.5093">
   <properties>
    <property name="height" type="float" value="12.51"/>
    <property name="width" type="float" value="14.1"/>
    <property name="x" type="float" value="672.86"/>
    <property name="y" type="float" value="433.84"/>
   </properties>
  </object>
  <object id="142" x="737.039" y="434.473" width="14.1031" height="12.5093">
   <properties>
    <property name="height" type="float" value="12.51"/>
    <property name="width" type="float" value="14.1"/>
    <property name="x" type="float" value="737.04"/>
    <property name="y" type="float" value="434.47"/>
   </properties>
  </object>
 </objectgroup>
 <objectgroup color="#ff40ff" id="17" name="entitySpawnPoints">
  <properties>
   <property name="entityType" value="item"/>
   <property name="hasSpawnProtection" type="bool" value="false"/>
   <property name="id" type="int" value="3"/>
   <property name="type" value="entitySpawnPoint"/>
   <property name="x" type="float" value="88"/>
   <property name="y" type="float" value="72.67"/>
  </properties>
  <object id="102" type="EntitySpawnPoint" x="264" y="87">
   <properties>
    <property name="entityType" value="item"/>
    <property name="hasSpawnProtection" type="bool" value="false"/>
    <property name="id" type="int" value="3"/>
    <property name="type" value="entitySpawnPoint"/>
    <property name="x" type="float" value="264"/>
    <property name="y" type="float" value="87"/>
   </properties>
   <point/>
  </object>
  <object id="103" type="EntitySpawnPoint" x="42" y="163">
   <properties>
    <property name="entityType" value="enemy"/>
    <property name="hasSpawnProtection" type="bool" value="false"/>
    <property name="id" type="int" value="1"/>
    <property name="type" value="entitySpawnPoint"/>
    <property name="x" type="float" value="42"/>
    <property name="y" type="float" value="163"/>
   </properties>
   <point/>
  </object>
  <object id="104" type="EntitySpawnPoint" x="705" y="483">
   <properties>
    <property name="entityType" value="enemy"/>
    <property name="hasSpawnProtection" type="bool" value="false"/>
    <property name="id" type="int" value="1"/>
    <property name="type" value="entitySpawnPoint"/>
    <property name="x" type="float" value="705"/>
    <property name="y" type="float" value="483"/>
   </properties>
   <point/>
  </object>
  <object id="105" type="EntitySpawnPoint" x="415" y="83">
   <properties>
    <property name="entityType" value="enemy"/>
    <property name="hasSpawnProtection" type="bool" value="false"/>
    <property name="id" type="int" value="1"/>
    <property name="type" value="entitySpawnPoint"/>
    <property name="x" type="float" value="415"/>
    <property name="y" type="float" value="83"/>
   </properties>
   <point/>
  </object>
  <object id="106" type="EntitySpawnPoint" x="662" y="110">
   <properties>
    <property name="entityType" value="item"/>
    <property name="hasSpawnProtection" type="bool" value="false"/>
    <property name="id" type="int" value="3"/>
    <property name="type" value="entitySpawnPoint"/>
    <property name="x" type="float" value="662"/>
    <property name="y" type="float" value="110"/>
   </properties>
   <point/>
  </object>
  <object id="107" type="EntitySpawnPoint" x="641" y="151">
   <properties>
    <property name="entityType" value="enemy"/>
    <property name="hasSpawnProtection" type="bool" value="false"/>
    <property name="id" type="int" value="1"/>
    <property name="type" value="entitySpawnPoint"/>
    <property name="x" type="float" value="641"/>
    <property name="y" type="float" value="151"/>
   </properties>
   <point/>
  </object>
  <object id="108" type="EntitySpawnPoint" x="726" y="234">
   <properties>
    <property name="entityType" value="item"/>
    <property name="hasSpawnProtection" type="bool" value="false"/>
    <property name="id" type="int" value="3"/>
    <property name="type" value="entitySpawnPoint"/>
    <property name="x" type="float" value="726"/>
    <property name="y" type="float" value="234"/>
   </properties>
   <point/>
  </object>
  <object id="109" type="EntitySpawnPoint" x="622" y="236">
   <properties>
    <property name="entityType" value="enemy"/>
    <property name="hasSpawnProtection" type="bool" value="false"/>
    <property name="id" type="int" value="1"/>
    <property name="type" value="entitySpawnPoint"/>
    <property name="x" type="float" value="622"/>
    <property name="y" type="float" value="236"/>
   </properties>
   <point/>
  </object>
  <object id="110" type="EntitySpawnPoint" x="536" y="235">
   <properties>
    <property name="entityType" value="item"/>
    <property name="hasSpawnProtection" type="bool" value="false"/>
    <property name="id" type="int" value="3"/>
    <property name="type" value="entitySpawnPoint"/>
    <property name="x" type="float" value="535"/>
    <property name="y" type="float" value="239"/>
   </properties>
   <point/>
  </object>
  <object id="111" type="EntitySpawnPoint" x="106" y="346">
   <properties>
    <property name="entityType" value="item"/>
    <property name="hasSpawnProtection" type="bool" value="false"/>
    <property name="id" type="int" value="3"/>
    <property name="type" value="entitySpawnPoint"/>
    <property name="x" type="float" value="106"/>
    <property name="y" type="float" value="346"/>
   </properties>
   <point/>
  </object>
  <object id="112" type="EntitySpawnPoint" x="43" y="447">
   <properties>
    <property name="entityType" value="item"/>
    <property name="hasSpawnProtection" type="bool" value="false"/>
    <property name="id" type="int" value="3"/>
    <property name="type" value="entitySpawnPoint"/>
    <property name="x" type="float" value="43"/>
    <property name="y" type="float" value="447"/>
   </properties>
   <point/>
  </object>
  <object id="113" type="EntitySpawnPoint" x="88" y="730">
   <properties>
    <property name="entityType" value="item"/>
    <property name="hasSpawnProtection" type="bool" value="false"/>
    <property name="id" type="int" value="3"/>
    <property name="type" value="entitySpawnPoint"/>
    <property name="x" type="float" value="88"/>
    <property name="y" type="float" value="730"/>
   </properties>
   <point/>
  </object>
  <object id="114" type="EntitySpawnPoint" x="533" y="475">
   <properties>
    <property name="entityType" value="item"/>
    <property name="hasSpawnProtection" type="bool" value="false"/>
    <property name="id" type="int" value="3"/>
    <property name="type" value="entitySpawnPoint"/>
    <property name="x" type="float" value="533"/>
    <property name="y" type="float" value="475"/>
   </properties>
   <point/>
  </object>
  <object id="115" type="EntitySpawnPoint" x="713" y="697">
   <properties>
    <property name="entityType" value="item"/>
    <property name="hasSpawnProtection" type="bool" value="false"/>
    <property name="id" type="int" value="3"/>
    <property name="type" value="entitySpawnPoint"/>
    <property name="x" type="float" value="713"/>
    <property name="y" type="float" value="697"/>
   </properties>
   <point/>
  </object>
  <object id="116" type="EntitySpawnPoint" x="55" y="568">
   <properties>
    <property name="entityType" value="enemy"/>
    <property name="hasSpawnProtection" type="bool" value="false"/>
    <property name="id" type="int" value="1"/>
    <property name="type" value="entitySpawnPoint"/>
    <property name="x" type="float" value="55"/>
    <property name="y" type="float" value="568"/>
   </properties>
   <point/>
  </object>
  <object id="118" type="EntitySpawnPoint" x="521" y="589">
   <properties>
    <property name="entityType" value="enemy"/>
    <property name="hasSpawnProtection" type="bool" value="false"/>
    <property name="id" type="int" value="1"/>
    <property name="type" value="entitySpawnPoint"/>
    <property name="x" type="float" value="521"/>
    <property name="y" type="float" value="589"/>
   </properties>
   <point/>
  </object>
  <object id="119" type="EntitySpawnPoint" x="230" y="713">
   <properties>
    <property name="entityType" value="player"/>
    <property name="hasSpawnProtection" type="bool" value="false"/>
    <property name="id" type="int" value="0"/>
    <property name="type" value="entitySpawnPoint"/>
    <property name="x" type="float" value="230"/>
    <property name="y" type="float" value="713"/>
   </properties>
   <point/>
  </object>
  <object id="138" type="EntitySpawnPoint" x="396" y="509.333">
   <properties>
    <property name="entityType" value="item"/>
    <property name="hasSpawnProtection" type="bool" value="false"/>
    <property name="id" type="int" value="100"/>
    <property name="type" value="entitySpawnPoint"/>
    <property name="x" type="float" value="396"/>
    <property name="y" type="float" value="509.33"/>
   </properties>
   <point/>
  </object>
 </objectgroup>
</map>
